; generated by Slic3r 1.2.9 on 2018-04-24 at 22:00:52

; external perimeters extrusion width = 0.40mm
; perimeters extrusion width = 0.67mm
; infill extrusion width = 0.67mm
; solid infill extrusion width = 0.67mm
; top infill extrusion width = 0.67mm
; support material extrusion width = 0.40mm

M107
M190 S80 ; set bed temperature
M104 S210 ; set temperature
G28 ; home all axes
G1 Z5 F5000 ; lift nozzle

M109 S210 ; wait for temperature to be reached
G21 ; set units to millimeters
G90 ; use absolute coordinates
M82 ; use absolute distances for extrusion
G92 E0
G1 Z0.400 F7800.000
G1 E-2.00000 F2400.00000
G92 E0
G1 X99.366 Y117.696 F7800.000
G1 E2.00000 F2400.00000
G1 X99.974 Y117.220 E2.09161 F1800.000
G1 X100.670 Y116.744 E2.19183
G1 X101.160 Y116.468 E2.25860
G1 X102.064 Y116.015 E2.37870
G1 X102.861 Y115.718 E2.47973
G1 X103.845 Y115.434 E2.60130
G1 X104.703 Y115.286 E2.70472
G1 X105.151 Y115.241 E2.75817
G1 X105.708 Y115.219 E2.82438
G1 X199.292 Y115.219 E13.93898
G1 X199.849 Y115.241 E14.00519 F1800.000
G1 X200.346 Y115.292 E14.06447
G1 X201.285 Y115.466 E14.17793
G1 X202.289 Y115.763 E14.30222
G1 X202.599 Y115.879 E14.34155
G1 X203.334 Y116.205 E14.43702
G1 X204.100 Y116.609 E14.53989
G1 X204.851 Y117.097 E14.64631
G1 X205.345 Y117.467 E14.71959
G1 X205.829 Y117.867 E14.79419
G1 X206.607 Y118.595 E14.92069
G1 X207.161 Y119.199 E15.01801
G1 X207.780 Y119.974 E15.13576
G1 X208.259 Y120.674 E15.23656
G1 X208.532 Y121.160 E15.30275
G1 X208.985 Y122.065 E15.42290
G1 X209.282 Y122.861 E15.52387
G1 X209.566 Y123.848 E15.64580
G1 X209.714 Y124.703 E15.74885
G1 X209.759 Y125.151 E15.80231
G1 X209.781 Y125.708 E15.86853
G1 X209.781 Y169.008 E21.01106
G1 X209.781 Y179.292 E22.23252
G1 X209.759 Y179.849 E22.29875
G1 X209.678 Y180.555 E22.38306
G1 X209.534 Y181.285 E22.47151
G1 X209.452 Y181.603 E22.51045
G1 X209.121 Y182.599 E22.63511
G1 X208.795 Y183.334 E22.73058
G1 X208.391 Y184.100 E22.83345
G1 X207.903 Y184.851 E22.93986
G1 X207.533 Y185.345 E23.01314
G1 X207.133 Y185.829 E23.08775
G1 X206.405 Y186.607 E23.21423
G1 X205.974 Y187.010 E23.28428
G1 X205.306 Y187.568 E23.38766
G1 X204.743 Y187.983 E23.47070
G1 X204.100 Y188.391 E23.56119
G1 X203.334 Y188.795 E23.66406
G1 X202.936 Y188.985 E23.71644
G1 X202.139 Y189.282 E23.81745
G1 X201.171 Y189.562 E23.93709
G1 X200.491 Y189.689 E24.01921
G1 X199.850 Y189.759 E24.09589
G1 X199.292 Y189.781 E24.16212
G1 X105.708 Y189.781 E35.27672
G1 X105.150 Y189.759 E35.34295
G1 X104.565 Y189.698 E35.41286
G1 X103.383 Y189.444 E35.55649
G1 X102.753 Y189.248 E35.63477
G1 X101.598 Y188.766 E35.78339
G1 X100.900 Y188.391 E35.87754
G1 X100.018 Y187.812 E36.00283
G1 X99.531 Y187.437 E36.07588
G1 X99.064 Y187.043 E36.14836
G1 X98.291 Y186.296 E36.27608
G1 X97.794 Y185.747 E36.36403
G1 X97.474 Y185.353 E36.42430
G1 X96.886 Y184.552 E36.54235
G1 X96.609 Y184.100 E36.60528
G1 X96.025 Y182.971 E36.75622
G1 X95.825 Y182.482 E36.81897
G1 X95.611 Y181.858 E36.89740
G1 X95.428 Y181.145 E36.98471
G1 X95.331 Y180.647 E37.04499
G1 X95.241 Y179.849 E37.14034
G1 X95.219 Y179.292 E37.20656
G1 X95.219 Y125.708 E43.57055
G1 X95.241 Y125.151 E43.63675
G1 X95.322 Y124.445 E43.72111
G1 X95.466 Y123.715 E43.80951
G1 X95.763 Y122.711 E43.93381
G1 X95.879 Y122.401 E43.97315
G1 X96.205 Y121.666 E44.06861
G1 X96.569 Y120.971 E44.16180
G1 X97.097 Y120.149 E44.27787
G1 X97.467 Y119.655 E44.35115
G1 X97.867 Y119.171 E44.42577
G1 X98.595 Y118.393 E44.55224
G1 X99.321 Y117.735 E44.66860
G1 E42.66860 F2400.00000
G92 E0
G1 X190.726 Y178.492 F7800.000
G1 E2.00000 F2400.00000
G1 X190.013 Y178.596 E2.08561 F1800.000
G1 X189.070 Y178.472 E2.19859
G1 X188.203 Y178.113 E2.31002
G1 X187.459 Y177.541 E2.42145
G1 X186.887 Y176.797 E2.53288
G1 X186.528 Y175.930 E2.64431
G1 X186.406 Y175.000 E2.75574
G1 X186.528 Y174.070 E2.86717
G1 X186.872 Y173.239 E2.97396
G1 X187.448 Y172.467 E3.08839
G1 X188.203 Y171.887 E3.20137
G1 X189.070 Y171.528 E3.31280
G1 X189.961 Y171.411 E3.41959 F1800.000
G1 X190.918 Y171.523 E3.53402
G1 X191.797 Y171.887 E3.64700
G1 X192.541 Y172.459 E3.75843
G1 X193.113 Y173.203 E3.86986
G1 X193.472 Y174.070 E3.98130
G1 X193.594 Y175.000 E4.09273
G1 X193.472 Y175.930 E4.20416
G1 X193.128 Y176.761 E4.31094
G1 X192.552 Y177.533 E4.42538
G1 X191.797 Y178.113 E4.53836
G1 X190.966 Y178.457 E4.64514
G1 X190.786 Y178.483 E4.66684
G1 X190.623 Y177.785 F7800.000
G1 X190.008 Y177.875 E4.74068 F1800.000
G1 X189.256 Y177.776 E4.83072
G1 X188.563 Y177.489 E4.91982
G1 X187.968 Y177.032 E5.00891
G1 X187.511 Y176.437 E5.09801
G1 X187.224 Y175.744 E5.18711
G1 X187.126 Y175.000 E5.27621
G1 X187.224 Y174.256 E5.36531
G1 X187.498 Y173.595 E5.45036
G1 X187.962 Y172.973 E5.54247
G1 X188.563 Y172.511 E5.63251
G1 X189.256 Y172.224 E5.72160
G1 X189.966 Y172.131 E5.80666 F1800.000
G1 X190.736 Y172.221 E5.89876
G1 X191.437 Y172.511 E5.98880
G1 X192.032 Y172.968 E6.07790
G1 X192.489 Y173.563 E6.16700
G1 X192.776 Y174.256 E6.25610
G1 X192.874 Y175.000 E6.34520
G1 X192.776 Y175.744 E6.43429
G1 X192.502 Y176.405 E6.51935
G1 X192.038 Y177.027 E6.61145
G1 X191.437 Y177.489 E6.70149
G1 X190.775 Y177.763 E6.78655
G1 X190.682 Y177.776 E6.79769
G1 X190.520 Y177.078 F7800.000
G1 X190.003 Y177.154 E6.85975 F1800.000
G1 X189.443 Y177.080 E6.92686
G1 X188.923 Y176.865 E6.99362
G1 X188.477 Y176.523 E7.06039
G1 X188.135 Y176.077 E7.12715
G1 X187.920 Y175.557 E7.19392
G1 X187.847 Y175.000 E7.26068
G1 X187.920 Y174.443 E7.32745
G1 X188.124 Y173.950 E7.39078
G1 X188.475 Y173.479 E7.46054
G1 X188.923 Y173.135 E7.52765
G1 X189.443 Y172.920 E7.59441
G1 X189.971 Y172.850 E7.65774 F1800.000
G1 X190.555 Y172.919 E7.72750
G1 X191.077 Y173.135 E7.79461
G1 X191.523 Y173.477 E7.86137
G1 X191.865 Y173.923 E7.92814
G1 X192.080 Y174.443 E7.99491
G1 X192.153 Y175.000 E8.06167
G1 X192.080 Y175.557 E8.12844
G1 X191.876 Y176.050 E8.19176
G1 X191.525 Y176.521 E8.26153
G1 X191.077 Y176.865 E8.32863
G1 X190.579 Y177.070 E8.39252
G1 X190.400 Y177.460 F7800.000
G1 E6.39252 F2400.00000
G92 E0
G1 X188.621 Y172.611 F7800.000
G1 X183.867 Y167.599 F7800.000
G1 X182.641 Y167.989 F7800.000
G1 X181.511 Y168.399 F7800.000
G1 X183.000 Y160.520 F7800.000
G1 X182.172 Y161.265 F7800.000
G1 E2.00000 F2400.00000
G1 X182.172 Y153.789 E2.88794 F1800.000
G1 X183.926 Y153.457 E3.10002
G1 X184.432 Y153.419 E3.16020
G1 X188.620 Y153.419 E3.65761
G1 X189.560 Y153.543 E3.77019
G1 X190.547 Y153.952 E3.89712
G1 X191.395 Y154.603 E4.02405
G1 X192.046 Y155.450 E4.15098
G1 X192.455 Y156.438 E4.27792
G1 X192.594 Y157.497 E4.40485
G1 X192.463 Y158.493 E4.52408
G1 X192.056 Y159.530 E4.65643
G1 X191.395 Y160.392 E4.78548
G1 X190.598 Y161.004 E4.90472
G1 X189.577 Y161.450 E5.03706
G1 X188.620 Y161.576 E5.15176
G1 X184.161 Y161.564 E5.68127
G1 X182.231 Y161.274 E5.91312
G1 X182.886 Y160.650 F7800.000
G1 X182.886 Y154.380 E6.65776 F1800.000
G1 X184.020 Y154.166 E6.79479
G1 X184.458 Y154.133 E6.84704
G1 X188.573 Y154.133 E7.33572
G1 X189.373 Y154.239 E7.43158
G1 X190.187 Y154.576 E7.53618
G1 X190.886 Y155.112 E7.64078
G1 X191.422 Y155.811 E7.74538
G1 X191.759 Y156.624 E7.84998
G1 X191.874 Y157.497 E7.95458
G1 X191.766 Y158.313 E8.05230
G1 X191.428 Y159.176 E8.16231
G1 X190.886 Y159.883 E8.26821
G1 X190.233 Y160.384 E8.36594
G1 X189.384 Y160.755 E8.47594
G1 X188.573 Y160.862 E8.57309
G1 X184.479 Y160.862 E9.05929
G1 X184.228 Y160.852 E9.08914
G1 X182.945 Y160.659 E9.24322
G1 X183.600 Y160.036 F7800.000
G1 X183.600 Y154.972 E9.84456 F1800.000
G1 X184.113 Y154.875 E9.90655
G1 X184.485 Y154.847 E9.95088
G1 X188.526 Y154.847 E10.43083
G1 X189.187 Y154.934 E10.50995
G1 X189.827 Y155.200 E10.59222
G1 X190.376 Y155.621 E10.67449
G1 X190.798 Y156.171 E10.75676
G1 X191.063 Y156.811 E10.83902
G1 X191.153 Y157.497 E10.92129
G1 X191.070 Y158.134 E10.99751
G1 X190.800 Y158.821 E11.08519
G1 X190.376 Y159.374 E11.16792
G1 X189.867 Y159.764 E11.24414
G1 X189.191 Y160.060 E11.33182
G1 X188.526 Y160.147 E11.41141
G1 X184.493 Y160.147 E11.89047
G1 X184.295 Y160.140 E11.91398
G1 X183.659 Y160.044 E11.99029
G1 X183.200 Y160.016 F7800.000
G1 X182.172 Y151.220 F7800.000
G1 X182.172 Y143.794 E12.87229 F1800.000
G1 X183.926 Y143.462 E13.08438
G1 X184.432 Y143.424 E13.14456
G1 X188.620 Y143.424 E13.64196
G1 X189.560 Y143.548 E13.75454
G1 X190.547 Y143.957 E13.88148
G1 X191.395 Y144.608 E14.00841
G1 X192.046 Y145.455 E14.13534
G1 X192.455 Y146.443 E14.26227
G1 X192.594 Y147.502 E14.38921
G1 X192.463 Y148.498 E14.50844
G1 X192.056 Y149.535 E14.64078
G1 X191.395 Y150.397 E14.76984
G1 X190.547 Y151.048 E14.89677
G1 X189.560 Y151.457 E15.02371
G1 X188.620 Y151.581 E15.13629
G1 X184.433 Y151.581 E15.63352
G1 X183.946 Y151.545 E15.69150
G1 X182.231 Y151.231 E15.89864
G1 X182.886 Y150.625 F7800.000
G1 X182.886 Y144.385 E16.63966 F1800.000
G1 X184.020 Y144.171 E16.77670
G1 X184.458 Y144.138 E16.82895
G1 X188.573 Y144.138 E17.31763
G1 X189.373 Y144.244 E17.41348
G1 X190.187 Y144.581 E17.51808
G1 X190.886 Y145.117 E17.62268
G1 X191.422 Y145.816 E17.72728
G1 X191.759 Y146.629 E17.83188
G1 X191.874 Y147.502 E17.93648
G1 X191.766 Y148.318 E18.03421
G1 X191.428 Y149.181 E18.14422
G1 X190.886 Y149.888 E18.25011
G1 X190.187 Y150.424 E18.35472
G1 X189.373 Y150.761 E18.45932
G1 X188.573 Y150.867 E18.55517
G1 X184.459 Y150.867 E19.04374
G1 X184.037 Y150.836 E19.09403
G1 X182.945 Y150.636 E19.22589
G1 X183.600 Y150.030 F7800.000
G1 X183.600 Y144.977 E19.82594 F1800.000
G1 X184.113 Y144.880 E19.88793
G1 X184.485 Y144.852 E19.93225
G1 X188.526 Y144.852 E20.41220
G1 X189.187 Y144.939 E20.49133
G1 X189.827 Y145.205 E20.57359
G1 X190.376 Y145.626 E20.65586
G1 X190.798 Y146.176 E20.73813
G1 X191.063 Y146.816 E20.82040
G1 X191.153 Y147.502 E20.90266
G1 X191.070 Y148.139 E20.97889
G1 X190.800 Y148.826 E21.06656
G1 X190.376 Y149.379 E21.14929
G1 X189.827 Y149.800 E21.23156
G1 X189.187 Y150.066 E21.31383
G1 X188.526 Y150.152 E21.39295
G1 X184.485 Y150.152 E21.87287
G1 X184.128 Y150.126 E21.91546
G1 X183.659 Y150.040 E21.97205
G1 X183.201 Y150.005 F7800.000
G1 E19.97205 F2400.00000
G92 E0
G1 X184.481 Y144.253 F7800.000
G1 X184.593 Y137.637 F7800.000
G1 X186.981 Y138.229 F7800.000
G1 X189.286 Y132.665 F7800.000
G1 X189.070 Y133.472 F7800.000
G1 E2.00000 F2400.00000
G1 X188.203 Y133.113 E2.11143 F1800.000
G1 X187.459 Y132.541 E2.22286
G1 X186.887 Y131.797 E2.33429
G1 X186.528 Y130.930 E2.44572
G1 X186.406 Y130.000 E2.55716
G1 X186.528 Y129.070 E2.66859
G1 X186.872 Y128.239 E2.77537
G1 X187.448 Y127.467 E2.88981
G1 X188.203 Y126.887 E3.00278
G1 X189.070 Y126.528 E3.11422
G1 X189.962 Y126.411 E3.22106 F1800.000
G1 X190.946 Y126.527 E3.33874
G1 X191.805 Y126.893 E3.44964
G1 X192.541 Y127.459 E3.55992
G1 X193.113 Y128.203 E3.67136
G1 X193.472 Y129.070 E3.78279
G1 X193.594 Y130.000 E3.89422
G1 X193.472 Y130.930 E4.00565
G1 X193.128 Y131.761 E4.11244
G1 X192.552 Y132.533 E4.22687
G1 X191.797 Y133.113 E4.33985
G1 X190.930 Y133.472 E4.45128
G1 X190.000 Y133.594 E4.56271
G1 X189.129 Y133.479 E4.66702
G1 X189.256 Y132.776 F7800.000
G1 X188.563 Y132.489 E4.75612 F1800.000
G1 X187.968 Y132.032 E4.84521
G1 X187.511 Y131.437 E4.93431
G1 X187.224 Y130.744 E5.02341
G1 X187.126 Y130.000 E5.11251
G1 X187.224 Y129.256 E5.20161
G1 X187.498 Y128.595 E5.28666
G1 X187.962 Y127.973 E5.37876
G1 X188.563 Y127.511 E5.46880
G1 X189.256 Y127.224 E5.55790
G1 X189.967 Y127.131 E5.64299 F1800.000
G1 X190.760 Y127.224 E5.73789
G1 X191.442 Y127.515 E5.82588
G1 X192.032 Y127.968 E5.91428
G1 X192.489 Y128.563 E6.00338
G1 X192.776 Y129.256 E6.09248
G1 X192.874 Y130.000 E6.18157
G1 X192.776 Y130.744 E6.27067
G1 X192.502 Y131.405 E6.35573
G1 X192.038 Y132.027 E6.44783
G1 X191.437 Y132.489 E6.53787
G1 X190.744 Y132.776 E6.62697
G1 X190.000 Y132.874 E6.71607
G1 X189.316 Y132.784 E6.79804
G1 X189.443 Y132.080 F7800.000
G1 X188.923 Y131.865 E6.86480 F1800.000
G1 X188.477 Y131.523 E6.93157
G1 X188.135 Y131.077 E6.99833
G1 X187.920 Y130.557 E7.06510
G1 X187.847 Y130.000 E7.13187
G1 X187.920 Y129.443 E7.19863
G1 X188.124 Y128.950 E7.26196
G1 X188.475 Y128.479 E7.33173
G1 X188.923 Y128.135 E7.39883
G1 X189.443 Y127.920 E7.46559
G1 X189.971 Y127.850 E7.52893 F1800.000
G1 X190.574 Y127.921 E7.60105
G1 X191.078 Y128.136 E7.66612
G1 X191.523 Y128.477 E7.73263
G1 X191.865 Y128.923 E7.79940
G1 X192.080 Y129.443 E7.86616
G1 X192.153 Y130.000 E7.93293
G1 X192.080 Y130.557 E7.99970
G1 X191.876 Y131.050 E8.06302
G1 X191.525 Y131.521 E8.13279
G1 X191.077 Y131.865 E8.19989
G1 X190.557 Y132.080 E8.26666
G1 X190.000 Y132.153 E8.33342
G1 X189.502 Y132.088 E8.39306
G1 X189.148 Y132.350 F7800.000
G1 X163.594 Y135.000 F7800.000
G1 X163.472 Y135.930 E8.50450 F1800.000
G1 X163.113 Y136.797 E8.61593
G1 X162.541 Y137.541 E8.72736
G1 X161.797 Y138.113 E8.83879
G1 X160.930 Y138.472 E8.95022
G1 X160.000 Y138.594 E9.06165
G1 X159.070 Y138.472 E9.17308
G1 X158.239 Y138.128 E9.27987
G1 X157.467 Y137.552 E9.39430
G1 X156.887 Y136.797 E9.50728
G1 X156.543 Y135.966 E9.61406
G1 X156.404 Y135.013 E9.72850
G1 X156.528 Y134.070 E9.84148
G1 X156.887 Y133.203 E9.95291
G1 X157.459 Y132.459 E10.06434
G1 X158.203 Y131.887 E10.17577
G1 X159.070 Y131.528 E10.28720
G1 X159.961 Y131.411 E10.39399 F1800.000
G1 X160.918 Y131.523 E10.50842
G1 X161.797 Y131.887 E10.62140
G1 X162.541 Y132.459 E10.73283
G1 X163.113 Y133.203 E10.84427
G1 X163.472 Y134.070 E10.95570
G1 X163.586 Y134.941 E11.06000
G1 X162.874 Y135.000 F7800.000
G1 X162.776 Y135.744 E11.14910 F1800.000
G1 X162.489 Y136.437 E11.23820
G1 X162.032 Y137.032 E11.32730
G1 X161.437 Y137.489 E11.41639
G1 X160.744 Y137.776 E11.50549
G1 X160.000 Y137.874 E11.59459
G1 X159.256 Y137.776 E11.68369
G1 X158.595 Y137.502 E11.76875
G1 X157.973 Y137.038 E11.86085
G1 X157.511 Y136.437 E11.95089
G1 X157.237 Y135.775 E12.03594
G1 X157.125 Y135.008 E12.12804
G1 X157.224 Y134.256 E12.21809
G1 X157.511 Y133.563 E12.30718
G1 X157.968 Y132.968 E12.39628
G1 X158.563 Y132.511 E12.48538
G1 X159.256 Y132.224 E12.57448
G1 X159.966 Y132.131 E12.65953 F1800.000
G1 X160.736 Y132.221 E12.75164
G1 X161.437 Y132.511 E12.84168
G1 X162.032 Y132.968 E12.93078
G1 X162.489 Y133.563 E13.01987
G1 X162.776 Y134.256 E13.10897
G1 X162.866 Y134.941 E13.19094
G1 X162.153 Y135.000 F7800.000
G1 X162.080 Y135.557 E13.25771 F1800.000
G1 X161.865 Y136.077 E13.32448
G1 X161.523 Y136.523 E13.39124
G1 X161.077 Y136.865 E13.45801
G1 X160.557 Y137.080 E13.52477
G1 X160.000 Y137.153 E13.59154
G1 X159.443 Y137.080 E13.65830
G1 X158.950 Y136.876 E13.72163
G1 X158.479 Y136.525 E13.79140
G1 X158.135 Y136.077 E13.85850
G1 X157.931 Y135.584 E13.92183
G1 X157.846 Y135.003 E13.99159
G1 X157.920 Y134.443 E14.05870
G1 X158.135 Y133.923 E14.12546
G1 X158.477 Y133.477 E14.19223
G1 X158.923 Y133.135 E14.25899
G1 X159.443 Y132.920 E14.32576
G1 X159.971 Y132.850 E14.38909 F1800.000
G1 X160.555 Y132.919 E14.45885
G1 X161.077 Y133.135 E14.52596
G1 X161.523 Y133.477 E14.59272
G1 X161.865 Y133.923 E14.65949
G1 X162.080 Y134.443 E14.72625
G1 X162.146 Y134.941 E14.78589
G1 X162.491 Y135.215 F7800.000
G1 E12.78589 F2400.00000
G92 E0
G1 X157.241 Y135.000 F7800.000
G1 X147.500 Y133.717 F7800.000
G1 X147.500 Y133.717 F7800.000
G1 X137.759 Y135.000 F7800.000
G1 X138.596 Y134.987 F7800.000
G1 E2.00000 F2400.00000
G1 X138.472 Y135.930 E2.11298 F1800.000
G1 X138.113 Y136.797 E2.22441
G1 X137.541 Y137.541 E2.33584
G1 X136.797 Y138.113 E2.44727
G1 X135.930 Y138.472 E2.55870
G1 X135.000 Y138.594 E2.67014
G1 X134.070 Y138.472 E2.78157
G1 X133.239 Y138.128 E2.88835
G1 X132.467 Y137.552 E3.00279
G1 X131.887 Y136.797 E3.11576
G1 X131.528 Y135.930 E3.22720
G1 X131.406 Y135.000 E3.33863
G1 X131.528 Y134.070 E3.45006
G1 X131.887 Y133.203 E3.56149
G1 X132.459 Y132.459 E3.67292
G1 X133.203 Y131.887 E3.78435
G1 X134.070 Y131.528 E3.89578
G1 X134.961 Y131.411 E4.00257 F1800.000
G1 X135.918 Y131.523 E4.11700
G1 X136.797 Y131.887 E4.22998
G1 X137.541 Y132.459 E4.34141
G1 X138.113 Y133.203 E4.45284
G1 X138.457 Y134.034 E4.55963
G1 X138.587 Y134.928 E4.66694
G1 X137.875 Y134.992 F7800.000
G1 X137.776 Y135.744 E4.75698 F1800.000
G1 X137.489 Y136.437 E4.84608
G1 X137.032 Y137.032 E4.93517
G1 X136.437 Y137.489 E5.02427
G1 X135.744 Y137.776 E5.11337
G1 X135.000 Y137.874 E5.20247
