; generated by Slic3r 1.2.9 on 2018-04-14 at 09:58:43

; external perimeters extrusion width = 0.40mm
; perimeters extrusion width = 0.67mm
; infill extrusion width = 0.67mm
; solid infill extrusion width = 0.67mm
; top infill extrusion width = 0.67mm
; support material extrusion width = 0.40mm

M107
M190 S80 ; set bed temperature
M104 S210 ; set temperature
G28 ; home all axes
G1 Z5 F5000 ; lift nozzle

M109 S210 ; wait for temperature to be reached
G21 ; set units to millimeters
G90 ; use absolute coordinates
M82 ; use absolute distances for extrusion
G92 E0
G1 Z0.400 F7800.000
G1 E-2.00000 F2400.00000
G92 E0
G1 X106.565 Y120.884 F7800.000
G1 E2.00000 F2400.00000
G1 X107.027 Y120.499 E2.07145 F1800.000
G1 X107.442 Y120.190 E2.13285
G1 X108.236 Y119.696 E2.24400
G1 X108.456 Y119.579 E2.27355
G1 X109.618 Y119.095 E2.42307
G1 X110.256 Y118.912 E2.50185
G1 X111.910 Y118.703 E2.69985
G1 X193.125 Y118.699 E12.34537
G1 X194.771 Y118.904 E12.54237
G1 X194.982 Y118.958 E12.56827 F1800.000
G1 X196.155 Y119.373 E12.71598
G1 X196.367 Y119.471 E12.74381
G1 X197.200 Y119.926 E12.85655
G1 X197.964 Y120.461 E12.96728
G1 X198.282 Y120.718 E13.01583
G1 X199.194 Y121.611 E13.16737
G1 X199.543 Y122.040 E13.23312
G1 X200.133 Y122.900 E13.35694
G1 X200.517 Y123.618 E13.45365
G1 X201.193 Y125.808 E13.72588
G1 X201.234 Y126.131 E13.76454
G1 X201.289 Y126.969 E13.86424
G1 X201.300 Y131.238 E14.37123
G1 X201.301 Y178.125 E19.93979
G1 X201.096 Y179.771 E20.13681
G1 X201.042 Y179.982 E20.16270
G1 X200.627 Y181.155 E20.31043
G1 X200.529 Y181.367 E20.33826
G1 X200.074 Y182.200 E20.45096
G1 X199.539 Y182.964 E20.56171
G1 X199.282 Y183.282 E20.61025
G1 X198.390 Y184.194 E20.76180
G1 X197.960 Y184.543 E20.82755
G1 X197.101 Y185.132 E20.95131
G1 X196.382 Y185.517 E21.04809
G1 X194.192 Y186.193 E21.32032
G1 X193.869 Y186.234 E21.35898
G1 X193.031 Y186.289 E21.45866
G1 X111.875 Y186.301 E31.09718
G1 X110.229 Y186.096 E31.29417
G1 X110.018 Y186.042 E31.32007
G1 X108.845 Y185.627 E31.46780
G1 X108.633 Y185.529 E31.49563
G1 X107.800 Y185.074 E31.60836
G1 X107.036 Y184.539 E31.71909
G1 X106.718 Y184.282 E31.76764
G1 X105.796 Y183.378 E31.92102
G1 X105.457 Y182.960 E31.98492
G1 X104.867 Y182.100 E32.10872
G1 X104.632 Y181.674 E32.16662
G1 X104.483 Y181.382 E32.20547
G1 X103.807 Y179.192 E32.47771
G1 X103.766 Y178.869 E32.51637
G1 X103.711 Y178.031 E32.61606
G1 X103.700 Y131.238 E38.17351
G1 X103.720 Y126.968 E38.68059
G1 X103.745 Y126.424 E38.74526
G1 X103.761 Y126.234 E38.76795
G1 X104.005 Y124.923 E38.92634
G1 X104.579 Y123.485 E39.11017
G1 X104.795 Y123.085 E39.16414
G1 X105.503 Y122.028 E39.31530
G1 X105.760 Y121.712 E39.36363
G1 X106.523 Y120.927 E39.49364
G1 E37.49364 F2400.00000
G92 E0
G1 X117.337 Y176.698 F7800.000
G1 E2.00000 F2400.00000
G1 X116.445 Y177.502 E2.14268 F1800.000
G1 X115.302 Y177.873 E2.28535
G1 X114.107 Y177.748 E2.42803
G1 X113.067 Y177.147 E2.57070
G1 X112.361 Y176.175 E2.71338
G1 X112.111 Y175.000 E2.85606
G1 X112.361 Y173.825 E2.99873
G1 X113.067 Y172.853 E3.14141
G1 X114.107 Y172.252 E3.28409
G1 X114.994 Y172.159 E3.38999
G1 X115.302 Y172.127 E3.42676 F1800.000
G1 X116.445 Y172.498 E3.56944
G1 X117.337 Y173.302 E3.71212
G1 X117.826 Y174.399 E3.85479
G1 X117.826 Y175.601 E3.99747
G1 X117.362 Y176.643 E4.13302
G1 X116.747 Y176.269 F7800.000
G1 X116.079 Y176.870 E4.23964 F1800.000
G1 X115.226 Y177.147 E4.34626
G1 X114.333 Y177.053 E4.45287
G1 X113.555 Y176.604 E4.55949
G1 X113.028 Y175.878 E4.66611
G1 X112.841 Y175.000 E4.77273
G1 X113.028 Y174.122 E4.87935
G1 X113.555 Y173.396 E4.98597
G1 X114.333 Y172.947 E5.09259
G1 X115.069 Y172.869 E5.18047
G1 X115.226 Y172.853 E5.19921 F1800.000
G1 X116.079 Y173.130 E5.30583
G1 X116.747 Y173.731 E5.41245
G1 X117.112 Y174.551 E5.51907
G1 X117.112 Y175.449 E5.62569
G1 X116.771 Y176.214 E5.72518
G1 X116.883 Y176.645 F7800.000
G1 X139.286 Y164.824 F7800.000
G1 X139.286 Y160.862 E6.19579 F1800.000
G1 X135.803 Y160.862 E6.60948
G1 X134.744 Y160.675 E6.73720
G1 X133.727 Y160.088 E6.87667
G1 X132.972 Y159.188 E7.01614
G1 X132.570 Y158.085 E7.15561
G1 X132.570 Y156.910 E7.29507
G1 X132.972 Y155.807 E7.43454
G1 X133.727 Y154.907 E7.57401
G1 X134.744 Y154.320 E7.71348
G1 X135.803 Y154.133 E7.84120
G1 X139.286 Y154.133 E8.25489
G1 X139.286 Y150.867 E8.64286
G1 X135.803 Y150.867 E9.05656
G1 X134.744 Y150.680 E9.18428
G1 X133.727 Y150.093 E9.32374
G1 X132.972 Y149.193 E9.46321
G1 X132.570 Y148.090 E9.60268
G1 X132.570 Y146.915 E9.74215
G1 X132.972 Y145.812 E9.88162
G1 X133.727 Y144.912 E10.02109
G1 X134.744 Y144.325 E10.16056
G1 X135.803 Y144.138 E10.28827
G1 X139.286 Y144.138 E10.70197
G1 X139.286 Y140.176 E11.17258
G1 X185.114 Y140.176 E16.61538
G1 X185.114 Y144.138 E17.08599
G1 X188.597 Y144.138 E17.49969
G1 X189.656 Y144.325 E17.62740
G1 X190.673 Y144.912 E17.76687
G1 X191.428 Y145.812 E17.90634
G1 X191.830 Y146.915 E18.04581
G1 X191.830 Y148.090 E18.18528
G1 X191.428 Y149.193 E18.32475
G1 X190.673 Y150.093 E18.46422
G1 X189.656 Y150.680 E18.60369
G1 X188.597 Y150.867 E18.73140
G1 X185.114 Y150.867 E19.14510
G1 X185.114 Y154.133 E19.53307
G1 X188.597 Y154.133 E19.94676
G1 X189.656 Y154.320 E20.07448
G1 X190.673 Y154.907 E20.21395
G1 X191.428 Y155.807 E20.35342
G1 X191.830 Y156.910 E20.49289
G1 X191.830 Y158.085 E20.63236
G1 X191.428 Y159.188 E20.77183
G1 X190.673 Y160.088 E20.91129
G1 X189.656 Y160.675 E21.05076
G1 X188.597 Y160.862 E21.17848
G1 X185.114 Y160.862 E21.59217
G1 X185.114 Y164.824 E22.06278
G1 X139.346 Y164.824 E27.49846
G1 X140.000 Y164.110 F7800.000
G1 X140.000 Y160.147 E27.96907 F1800.000
G1 X135.865 Y160.147 E28.46016
G1 X134.992 Y159.993 E28.56550
G1 X134.193 Y159.532 E28.67506
G1 X133.600 Y158.826 E28.78462
G1 X133.284 Y157.959 E28.89417
G1 X133.284 Y157.036 E29.00373
G1 X133.600 Y156.169 E29.11329
G1 X134.193 Y155.463 E29.22285
G1 X134.992 Y155.002 E29.33241
G1 X135.865 Y154.848 E29.43774
G1 X140.000 Y154.848 E29.92884
G1 X140.000 Y150.152 E30.48644
G1 X135.865 Y150.152 E30.97754
G1 X134.992 Y149.998 E31.08287
G1 X134.193 Y149.537 E31.19243
G1 X133.600 Y148.831 E31.30199
G1 X133.284 Y147.964 E31.41155
G1 X133.284 Y147.041 E31.52111
G1 X133.600 Y146.174 E31.63066
G1 X134.193 Y145.468 E31.74022
G1 X134.992 Y145.007 E31.84978
G1 X135.865 Y144.853 E31.95512
G1 X140.000 Y144.853 E32.44621
G1 X140.000 Y140.890 E32.91682
G1 X184.400 Y140.890 E38.18999
G1 X184.400 Y144.853 E38.66060
G1 X188.535 Y144.853 E39.15169
G1 X189.408 Y145.007 E39.25703
G1 X190.207 Y145.468 E39.36659
G1 X190.800 Y146.174 E39.47615
G1 X191.116 Y147.041 E39.58570
G1 X191.116 Y147.964 E39.69526
G1 X190.800 Y148.831 E39.80482
G1 X190.207 Y149.537 E39.91438
G1 X189.408 Y149.998 E40.02394
G1 X188.535 Y150.152 E40.12927
G1 X184.400 Y150.152 E40.62037
G1 X184.400 Y154.848 E41.17797
G1 X188.535 Y154.848 E41.66907
G1 X189.408 Y155.002 E41.77440
G1 X190.207 Y155.463 E41.88396
G1 X190.800 Y156.169 E41.99352
G1 X191.116 Y157.036 E42.10308
G1 X191.116 Y157.959 E42.21264
G1 X190.800 Y158.826 E42.32220
G1 X190.207 Y159.532 E42.43175
G1 X189.408 Y159.993 E42.54131
G1 X188.535 Y160.147 E42.64665
G1 X184.400 Y160.147 E43.13774
G1 X184.400 Y164.110 E43.60835
G1 X140.060 Y164.110 E48.87439
G1 X139.600 Y164.110 F7800.000
G1 X137.422 Y167.310 F7800.000
G1 X138.306 Y168.528 E49.05313 F1800.000
G1 X138.619 Y170.000 E49.23186
G1 X138.306 Y171.472 E49.41059
G1 X137.422 Y172.690 E49.58933
G1 X136.118 Y173.442 E49.76806
G1 X134.622 Y173.599 E49.94679
G1 X133.190 Y173.134 E50.12553
G1 X132.072 Y172.127 E50.30426
G1 X131.460 Y170.752 E50.48299
G1 X131.460 Y169.248 E50.66173
G1 X132.072 Y167.873 E50.84046
G1 X133.190 Y166.866 E51.01919
G1 X134.183 Y166.543 E51.14313
G1 X134.622 Y166.401 E51.19793 F1800.000
G1 X136.118 Y166.558 E51.37666
G1 X137.370 Y167.280 E51.54827
G1 X136.933 Y167.853 F7800.000
G1 X137.639 Y168.825 E51.69094 F1800.000
G1 X137.889 Y170.000 E51.83362
G1 X137.639 Y171.175 E51.97629
G1 X136.933 Y172.147 E52.11897
G1 X135.893 Y172.748 E52.26165
G1 X134.698 Y172.873 E52.40432
G1 X133.555 Y172.502 E52.54700
G1 X132.663 Y171.698 E52.68968
G1 X132.174 Y170.601 E52.83235
G1 X132.174 Y169.399 E52.97503
G1 X132.663 Y168.302 E53.11770
G1 X133.555 Y167.498 E53.26038
G1 X134.404 Y167.222 E53.36629
G1 X134.698 Y167.127 E53.40306 F1800.000
G1 X135.893 Y167.252 E53.54573
G1 X136.881 Y167.823 E53.68128
G1 X136.445 Y168.396 F7800.000
G1 X136.972 Y169.122 E53.78790 F1800.000
G1 X137.159 Y170.000 E53.89452
G1 X136.972 Y170.878 E54.00114
G1 X136.445 Y171.604 E54.10776
G1 X135.667 Y172.053 E54.21438
G1 X134.774 Y172.147 E54.32100
G1 X133.921 Y171.870 E54.42762
G1 X133.253 Y171.269 E54.53424
G1 X132.888 Y170.449 E54.64086
G1 X132.888 Y169.551 E54.74747
G1 X133.253 Y168.731 E54.85409
G1 X133.921 Y168.130 E54.96071
G1 X134.624 Y167.902 E55.04859
G1 X134.774 Y167.853 E55.06733 F1800.000
G1 X135.667 Y167.947 E55.17395
G1 X136.393 Y168.366 E55.27344
G1 X136.833 Y168.299 F7800.000
G1 X156.381 Y170.000 F7800.000
G1 X156.694 Y168.528 E55.45218 F1800.000
G1 X157.578 Y167.310 E55.63091
G1 X158.882 Y166.558 E55.80964
G1 X159.919 Y166.449 E55.93358
G1 X160.378 Y166.401 E55.98838 F1800.000
G1 X161.810 Y166.866 E56.16711
G1 X162.928 Y167.873 E56.34584
G1 X163.540 Y169.248 E56.52458
G1 X163.540 Y170.752 E56.70331
G1 X162.928 Y172.127 E56.88204
G1 X161.810 Y173.134 E57.06078
G1 X160.378 Y173.599 E57.23951
G1 X158.882 Y173.442 E57.41824
G1 X157.578 Y172.690 E57.59698
G1 X156.694 Y171.472 E57.77571
G1 X156.393 Y170.059 E57.94732
G1 X157.111 Y170.000 F7800.000
G1 X157.361 Y168.825 E58.08999 F1800.000
G1 X158.067 Y167.853 E58.23267
G1 X159.107 Y167.252 E58.37534
G1 X159.994 Y167.159 E58.48125
G1 X160.302 Y167.127 E58.51802 F1800.000
G1 X161.445 Y167.498 E58.66070
G1 X162.337 Y168.302 E58.80337
G1 X162.826 Y169.399 E58.94605
G1 X162.826 Y170.601 E59.08872
G1 X162.337 Y171.698 E59.23140
G1 X161.445 Y172.502 E59.37408
G1 X160.302 Y172.873 E59.51675
G1 X159.107 Y172.748 E59.65943
G1 X158.067 Y172.147 E59.80211
G1 X157.361 Y171.175 E59.94478
G1 X157.123 Y170.059 E60.08033
G1 X157.841 Y170.000 F7800.000
G1 X158.028 Y169.122 E60.18695 F1800.000
G1 X158.555 Y168.396 E60.29357
G1 X159.333 Y167.947 E60.40019
G1 X160.069 Y167.869 E60.48807
G1 X160.226 Y167.853 E60.50681 F1800.000
G1 X161.079 Y168.130 E60.61343
G1 X161.747 Y168.731 E60.72005
G1 X162.112 Y169.551 E60.82667
G1 X162.112 Y170.449 E60.93329
G1 X161.747 Y171.269 E61.03991
G1 X161.079 Y171.870 E61.14652
G1 X160.226 Y172.147 E61.25314
G1 X159.333 Y172.053 E61.35976
G1 X158.555 Y171.604 E61.46638
G1 X158.028 Y170.878 E61.57300
G1 X157.854 Y170.059 E61.67250
G1 X157.509 Y169.776 F7800.000
G1 E59.67250 F2400.00000
G92 E0
G1 X160.290 Y167.243 F7800.000
G1 X188.651 Y167.682 F7800.000
G1 X192.603 Y156.608 F7800.000
G1 X192.603 Y148.392 F7800.000
G1 X191.581 Y143.299 F7800.000
G1 X182.799 Y134.519 F7800.000
G1 X165.269 Y136.977 F7800.000
G1 X162.002 Y138.297 F7800.000
G1 X160.849 Y138.479 F7800.000
G1 X160.290 Y136.757 F7800.000
G1 X160.378 Y137.599 F7800.000
G1 E2.00000 F2400.00000
G1 X158.882 Y137.442 E2.17873 F1800.000
G1 X157.578 Y136.690 E2.35747
G1 X156.694 Y135.472 E2.53620
G1 X156.381 Y134.000 E2.71493
G1 X156.694 Y132.528 E2.89367
G1 X157.578 Y131.310 E3.07240
G1 X158.882 Y130.558 E3.25113
G1 X159.919 Y130.449 E3.37507
G1 X160.378 Y130.401 E3.42987 F1800.000
G1 X161.810 Y130.866 E3.60860
G1 X162.928 Y131.873 E3.78733
G1 X163.540 Y133.248 E3.96606
G1 X163.540 Y134.752 E4.14480
G1 X162.928 Y136.127 E4.32353
G1 X161.810 Y137.134 E4.50226
G1 X160.435 Y137.581 E4.67387
G1 X160.302 Y136.873 F7800.000
G1 X159.107 Y136.748 E4.81655 F1800.000
G1 X158.067 Y136.147 E4.95922
G1 X157.361 Y135.175 E5.10190
G1 X157.111 Y134.000 E5.24458
G1 X157.361 Y132.825 E5.38725
G1 X158.067 Y131.853 E5.52993
G1 X159.107 Y131.252 E5.67260
G1 X159.994 Y131.159 E5.77851
G1 X160.302 Y131.127 E5.81528 F1800.000
G1 X161.445 Y131.498 E5.95796
G1 X162.337 Y132.302 E6.10063
G1 X162.826 Y133.399 E6.24331
G1 X162.826 Y134.601 E6.38599
G1 X162.337 Y135.698 E6.52866
G1 X161.445 Y136.502 E6.67134
G1 X160.359 Y136.855 E6.80689
G1 X160.226 Y136.147 F7800.000
G1 X159.333 Y136.053 E6.91351 F1800.000
G1 X158.555 Y135.604 E7.02013
G1 X158.028 Y134.878 E7.12675
G1 X157.841 Y134.000 E7.23337
G1 X158.028 Y133.122 E7.33998
G1 X158.555 Y132.396 E7.44660
G1 X159.333 Y131.947 E7.55322
G1 X160.069 Y131.869 E7.64110
G1 X160.226 Y131.853 E7.65984 F1800.000
G1 X161.079 Y132.130 E7.76646
G1 X161.747 Y132.731 E7.87308
G1 X162.112 Y133.551 E7.97970
G1 X162.112 Y134.449 E8.08632
G1 X161.747 Y135.269 E8.19294
G1 X161.079 Y135.870 E8.29956
G1 X160.283 Y136.129 E8.39905
G1 X160.038 Y136.500 F7800.000
G1 X138.619 Y134.000 F7800.000
G1 X138.306 Y135.472 E8.57778 F1800.000
G1 X137.422 Y136.690 E8.75652
G1 X136.118 Y137.442 E8.93525
G1 X134.622 Y137.599 E9.11398
G1 X133.190 Y137.134 E9.29272
G1 X132.072 Y136.127 E9.47145
G1 X131.460 Y134.752 E9.65018
G1 X131.460 Y133.248 E9.82892
G1 X132.072 Y131.873 E10.00765
G1 X133.190 Y130.866 E10.18638
G1 X134.616 Y130.403 E10.36437 F1800.000
G1 X136.117 Y130.557 E10.54355
G1 X137.422 Y131.310 E10.72254
G1 X138.306 Y132.528 E10.90127
G1 X138.607 Y133.941 E11.07288
G1 X137.889 Y134.000 F7800.000
G1 X137.639 Y135.175 E11.21556 F1800.000
G1 X136.933 Y136.147 E11.35823
G1 X135.893 Y136.748 E11.50091
G1 X134.698 Y136.873 E11.64359
G1 X133.555 Y136.502 E11.78626
G1 X132.663 Y135.698 E11.92894
G1 X132.174 Y134.601 E12.07162
G1 X132.174 Y133.399 E12.21429
G1 X132.663 Y132.302 E12.35697
G1 X133.555 Y131.498 E12.49964
G1 X134.693 Y131.128 E12.64168 F1800.000
G1 X135.892 Y131.252 E12.78480
G1 X136.933 Y131.853 E12.92763
G1 X137.639 Y132.825 E13.07031
G1 X137.877 Y133.941 E13.20586
G1 X137.159 Y134.000 F7800.000
G1 X136.972 Y134.878 E13.31248 F1800.000
G1 X136.445 Y135.604 E13.41910
G1 X135.667 Y136.053 E13.52572
G1 X134.774 Y136.147 E13.63233
G1 X133.921 Y135.870 E13.73895
G1 X133.253 Y135.269 E13.84557
G1 X132.888 Y134.449 E13.95219
G1 X132.888 Y133.551 E14.05881
G1 X133.253 Y132.731 E14.16543
G1 X133.921 Y132.130 E14.27205
G1 X134.770 Y131.854 E14.37813 F1800.000
G1 X135.667 Y131.947 E14.48519
G1 X136.445 Y132.396 E14.59187
G1 X136.972 Y133.122 E14.69849
G1 X137.146 Y133.941 E14.79798
G1 X137.491 Y134.224 F7800.000
G1 X138.572 Y139.462 F7800.000
G1 X138.572 Y143.424 E15.26859 F1800.000
G1 X135.740 Y143.424 E15.60489
G1 X134.495 Y143.644 E15.75498
G1 X133.260 Y144.357 E15.92436
G1 X132.344 Y145.449 E16.09374
G1 X131.856 Y146.789 E16.26312
G1 X131.856 Y148.216 E16.43250
G1 X132.344 Y149.556 E16.60188
G1 X133.260 Y150.648 E16.77126
G1 X134.495 Y151.361 E16.94064
G1 X135.740 Y151.581 E17.09073
G1 X138.572 Y151.581 E17.42703
G1 X138.572 Y153.419 E17.64537
G1 X135.740 Y153.419 E17.98167
G1 X134.495 Y153.639 E18.13176
G1 X133.260 Y154.352 E18.30114
G1 X132.601 Y155.137 E18.42295
G1 X132.344 Y155.444 E18.47052
G1 X131.856 Y156.784 E18.63990
G1 X131.856 Y158.211 E18.80928
G1 X132.344 Y159.551 E18.97866
G1 X133.260 Y160.643 E19.14804
G1 X134.495 Y161.356 E19.31742
G1 X135.740 Y161.576 E19.46751
G1 X138.572 Y161.576 E19.80381
G1 X138.572 Y165.538 E20.27442
G1 X185.828 Y165.538 E25.88686
G1 X185.828 Y161.576 E26.35746
G1 X188.660 Y161.576 E26.69377
G1 X189.905 Y161.356 E26.84385
G1 X191.140 Y160.643 E27.01324
G1 X192.056 Y159.551 E27.18261
G1 X192.364 Y158.706 E27.28938
G1 X192.718 Y158.768 E27.33208
G1 X192.718 Y167.806 E28.40546
G1 X192.751 Y172.713 E28.98824
G1 X191.810 Y171.866 E29.13864
G1 X190.378 Y171.401 E29.31738
G1 X188.882 Y171.558 E29.49611
G1 X187.578 Y172.310 E29.67484
G1 X186.694 Y173.528 E29.85358
G1 X186.381 Y175.000 E30.03231
G1 X186.694 Y176.472 E30.21104
G1 X187.622 Y177.750 E30.39862
G1 X182.881 Y177.718 E30.96168
G1 X122.119 Y177.718 E38.17815
G1 X117.236 Y177.751 E38.75812
G1 X117.928 Y177.127 E38.86879
G1 X118.540 Y175.752 E39.04752
G1 X118.540 Y174.248 E39.22625
G1 X117.928 Y172.873 E39.40499
G1 X116.810 Y171.866 E39.58372
G1 X115.378 Y171.401 E39.76245
G1 X113.882 Y171.558 E39.94119
G1 X112.251 Y172.500 E40.16484
G1 X112.282 Y167.806 E40.72226
G1 X112.282 Y137.194 E44.35795
G1 X112.251 Y132.500 E44.91537
G1 X113.882 Y133.442 E45.13903
G1 X115.378 Y133.599 E45.31776
G1 X116.810 Y133.134 E45.49649
