; generated by Slic3r 1.2.9 on 2018-04-08 at 16:04:32

; external perimeters extrusion width = 0.40mm
; perimeters extrusion width = 0.67mm
; infill extrusion width = 0.67mm
; solid infill extrusion width = 0.67mm
; top infill extrusion width = 0.67mm

M107
M190 S80 ; set bed temperature
M104 S210 ; set temperature
G28 ; home all axes
G1 Z5 F5000 ; lift nozzle

M109 S210 ; wait for temperature to be reached
G21 ; set units to millimeters
G90 ; use absolute coordinates
M82 ; use absolute distances for extrusion
G92 E0
G1 Z0.400 F7800.000
G1 E-2.00000 F2400.00000
G92 E0
G1 X135.809 Y121.602 F7800.000
G1 E2.00000 F2400.00000
G1 X136.395 Y120.995 E2.10014 F1800.000
G1 X137.017 Y120.465 E2.19725
G1 X137.619 Y120.038 E2.28492
G1 X138.361 Y119.605 E2.38693
G1 X138.918 Y119.338 E2.46034
G1 X139.302 Y119.182 E2.50951
G1 X140.006 Y118.955 E2.59734
G1 X140.844 Y118.779 E2.69905
G1 X141.192 Y118.734 E2.74077
G1 X141.908 Y118.696 E2.82584
G1 X163.426 Y118.699 E5.38152
G1 X164.389 Y118.811 E5.49663 F1800.000
G1 X165.260 Y119.024 E5.60309
G1 X166.234 Y119.401 E5.72712
G1 X166.446 Y119.502 E5.75502
G1 X167.087 Y119.852 E5.84173
G1 X167.723 Y120.270 E5.93219
G1 X168.364 Y120.777 E6.02919
G1 X169.017 Y121.408 E6.13704
G1 X169.530 Y122.010 E6.23096
G1 X169.997 Y122.669 E6.32697
G1 X170.376 Y123.311 E6.41545
G1 X170.696 Y123.976 E6.50315
G1 X170.821 Y124.285 E6.54274
G1 X171.047 Y125.000 E6.63171
G1 X171.179 Y125.564 E6.70052
G1 X171.297 Y126.505 E6.81325
G1 X171.311 Y126.940 E6.86482
G1 X171.311 Y178.060 E12.93622
G1 X171.297 Y178.494 E12.98777
G1 X171.207 Y179.285 E13.08225
G1 X170.942 Y180.367 E13.21459
G1 X170.599 Y181.234 E13.32526
G1 X170.148 Y182.087 E13.43986
G1 X169.792 Y182.636 E13.51761
G1 X169.490 Y183.041 E13.57763
G1 X168.997 Y183.614 E13.66740
G1 X168.581 Y184.026 E13.73696
G1 X167.991 Y184.529 E13.82908
G1 X167.331 Y184.997 E13.92512
G1 X166.689 Y185.376 E14.01361
G1 X166.129 Y185.650 E14.08770
G1 X165.713 Y185.822 E14.14111
G1 X164.818 Y186.093 E14.25221
G1 X164.407 Y186.184 E14.30225
G1 X163.494 Y186.297 E14.41145
G1 X163.060 Y186.311 E14.46298
G1 X141.940 Y186.311 E16.97142
G1 X141.506 Y186.297 E17.02296
G1 X140.611 Y186.189 E17.13001
G1 X139.633 Y185.942 E17.24982
G1 X138.766 Y185.599 E17.36049
G1 X138.554 Y185.498 E17.38839
G1 X137.721 Y185.029 E17.50202
G1 X137.277 Y184.730 E17.56553
G1 X136.712 Y184.289 E17.65067
G1 X136.314 Y183.929 E17.71433
G1 X135.984 Y183.593 E17.77034
G1 X135.471 Y182.991 E17.86433
G1 X135.280 Y182.735 E17.90222
G1 X134.800 Y182.002 E18.00625
G1 X134.576 Y181.598 E18.06115
G1 X134.304 Y181.024 E18.13655
G1 X134.178 Y180.712 E18.17654
G1 X133.953 Y180.000 E18.26513
G1 X133.821 Y179.436 E18.33399
G1 X133.703 Y178.494 E18.44668
G1 X133.689 Y178.060 E18.49835
G1 X133.696 Y126.909 E24.57329
G1 X133.734 Y126.192 E24.65855
G1 X133.904 Y125.229 E24.77463
G1 X133.958 Y125.018 E24.80053
G1 X134.281 Y124.054 E24.92129
G1 X134.570 Y123.429 E25.00310
G1 X134.926 Y122.800 E25.08896
G1 X135.384 Y122.126 E25.18570
G1 X135.772 Y121.649 E25.25869
G1 E23.25869 F2400.00000
G92 E0
G1 X157.638 Y154.744 F7800.000
G1 E2.00000 F2400.00000
G1 X157.560 Y154.937 E2.02471 F1800.000
G1 X157.207 Y155.564 E2.11018
G1 X156.777 Y156.141 E2.19566
G1 X156.276 Y156.658 E2.28113
G1 X155.713 Y157.106 E2.36661
G1 X155.098 Y157.480 E2.45208
G1 X154.729 Y157.643 E2.50003
G1 X154.778 Y157.967 E2.53898
G1 X155.046 Y157.997 E2.57095
G1 X155.582 Y158.195 E2.63887
G1 X156.056 Y158.516 E2.70679
G1 X156.439 Y158.940 E2.77471
G1 X156.709 Y159.444 E2.84264
G1 X156.851 Y159.998 E2.91056
G1 X156.857 Y160.570 E2.97848
G1 X156.725 Y161.127 E3.04640
G1 X156.463 Y161.636 E3.11433
G1 X156.088 Y162.067 E3.18225
G1 X155.620 Y162.396 E3.25017
G1 X155.129 Y162.588 E3.31281
G1 X154.234 Y162.777 E3.42148
G1 X153.370 Y162.886 E3.52489
G1 X152.500 Y162.923 E3.62831
G1 X151.630 Y162.886 E3.73172
G1 X150.766 Y162.777 E3.83514
G1 X149.871 Y162.588 E3.94380
G1 X149.380 Y162.396 E4.00644
G1 X148.912 Y162.067 E4.07436
G1 X148.537 Y161.636 E4.14229
G1 X148.275 Y161.127 E4.21021
G1 X148.143 Y160.570 E4.27813
G1 X148.149 Y159.986 E4.34752
G1 X148.311 Y159.407 E4.41893
G1 X148.561 Y158.940 E4.48181
G1 X148.944 Y158.516 E4.54974
G1 X149.418 Y158.195 E4.61766
G1 X149.954 Y157.997 E4.68558
G1 X150.209 Y157.969 E4.71600
G1 X150.267 Y157.657 E4.75367
G1 X149.588 Y157.303 E4.84454
G1 X148.998 Y156.891 E4.93002
G1 X148.465 Y156.407 E5.01549
G1 X147.999 Y155.859 E5.10097
G1 X147.603 Y155.251 E5.18721
G1 X147.355 Y154.721 E5.25670
G1 X147.035 Y154.773 E5.29525
G1 X147.003 Y155.061 E5.32959
G1 X146.782 Y155.620 E5.40100
G1 X146.486 Y156.059 E5.46388
G1 X146.061 Y156.442 E5.53181
G1 X145.558 Y156.713 E5.59973
G1 X145.004 Y156.855 E5.66765
G1 X144.432 Y156.860 E5.73557
G1 X143.875 Y156.729 E5.80350
G1 X143.366 Y156.468 E5.87142
G1 X142.935 Y156.092 E5.93934
G1 X142.605 Y155.625 E6.00727
G1 X142.414 Y155.133 E6.06991
G1 X142.223 Y154.237 E6.17875
G1 X142.114 Y153.372 E6.28235
G1 X142.077 Y152.500 E6.38595
G1 X142.114 Y151.628 E6.48955
G1 X142.223 Y150.763 E6.59315
G1 X142.414 Y149.867 E6.70200
G1 X142.605 Y149.375 E6.76464
G1 X142.935 Y148.908 E6.83256
G1 X143.366 Y148.532 E6.90049
G1 X143.875 Y148.271 E6.96841
G1 X144.403 Y148.147 E7.03282
G1 X144.995 Y148.143 E7.10315
G1 X145.558 Y148.287 E7.17211
G1 X146.061 Y148.558 E7.24004
G1 X146.486 Y148.941 E7.30796
G1 X146.806 Y149.415 E7.37588
G1 X147.004 Y149.952 E7.44381
G1 X147.034 Y150.218 E7.47565
G1 X147.352 Y150.272 E7.51396
G1 X147.606 Y149.744 E7.58362
G1 X148.002 Y149.135 E7.66987
G1 X148.513 Y148.550 E7.76214
G1 X148.998 Y148.109 E7.83999
G1 X149.588 Y147.697 E7.92547
G1 X150.273 Y147.340 E8.01718
G1 X150.215 Y147.028 E8.05483
G1 X149.961 Y146.999 E8.08516
G1 X149.425 Y146.801 E8.15308
G1 X148.952 Y146.480 E8.22100
G1 X148.569 Y146.054 E8.28893
G1 X148.294 Y145.539 E8.35832
G1 X148.158 Y144.953 E8.42973
G1 X148.154 Y144.424 E8.49261
G1 X148.287 Y143.868 E8.56053
G1 X148.549 Y143.359 E8.62845
G1 X148.925 Y142.928 E8.69638
G1 X149.393 Y142.600 E8.76430
G1 X149.884 Y142.409 E8.82692
G1 X150.779 Y142.220 E8.93556
G1 X151.716 Y142.110 E9.04759
G1 X152.500 Y142.077 E9.14077
G1 X153.365 Y142.113 E9.24364
G1 X154.225 Y142.221 E9.34651
G1 X155.116 Y142.409 E9.45464
G1 X155.607 Y142.600 E9.51726
G1 X156.075 Y142.928 E9.58519
G1 X156.451 Y143.359 E9.65311
G1 X156.713 Y143.868 E9.72103
G1 X156.846 Y144.424 E9.78895
G1 X156.841 Y144.996 E9.85688
G1 X156.700 Y145.550 E9.92480
G1 X156.431 Y146.054 E9.99272
G1 X156.048 Y146.480 E10.06065
G1 X155.575 Y146.801 E10.12857
G1 X155.039 Y146.999 E10.19649
G1 X154.763 Y147.031 E10.22941
G1 X154.712 Y147.352 E10.26810
G1 X155.153 Y147.554 E10.32564
G1 X155.713 Y147.894 E10.40349
G1 X156.276 Y148.342 E10.48896
G1 X156.777 Y148.859 E10.57444
G1 X157.207 Y149.436 E10.65991
G1 X157.560 Y150.063 E10.74539
G1 X157.638 Y150.256 E10.77010
G1 X157.969 Y150.211 E10.80969
G1 X157.997 Y149.955 E10.84028
G1 X158.195 Y149.418 E10.90821
G1 X158.516 Y148.945 E10.97613
G1 X158.941 Y148.562 E11.04405
G1 X159.456 Y148.285 E11.11344
G1 X160.041 Y148.149 E11.18485
G1 X160.571 Y148.144 E11.24773
G1 X161.127 Y148.276 E11.31566
G1 X161.636 Y148.537 E11.38358
G1 X162.067 Y148.913 E11.45150
G1 X162.396 Y149.381 E11.51942
G1 X162.588 Y149.872 E11.58206
G1 X162.777 Y150.767 E11.69069
G1 X162.886 Y151.630 E11.79407
G1 X162.923 Y152.500 E11.89744
G1 X162.886 Y153.370 E12.00082
G1 X162.777 Y154.233 E12.10419
G1 X162.585 Y155.140 E12.21428
G1 X162.372 Y155.654 E12.28039
G1 X162.067 Y156.087 E12.34327
G1 X161.636 Y156.463 E12.41119
G1 X161.127 Y156.724 E12.47912
G1 X160.571 Y156.856 E12.54704
G1 X159.999 Y156.851 E12.61496
G1 X159.445 Y156.709 E12.68289
G1 X158.941 Y156.438 E12.75081
G1 X158.516 Y156.055 E12.81873
G1 X158.195 Y155.582 E12.88665
G1 X157.997 Y155.045 E12.95458
G1 X157.969 Y154.789 E12.98516
G1 X157.698 Y154.752 E13.01764
G1 X155.254 Y158.835 F7800.000
G1 X155.584 Y159.058 E13.06496 F1800.000
G1 X155.851 Y159.354 E13.11229
G1 X156.039 Y159.706 E13.15961
G1 X156.138 Y160.092 E13.20694
G1 X156.142 Y160.490 E13.25426
G1 X156.050 Y160.878 E13.30159
G1 X155.868 Y161.232 E13.34892
G1 X155.606 Y161.533 E13.39624
G1 X155.280 Y161.762 E13.44357
G1 X154.924 Y161.901 E13.48899
G1 X154.115 Y162.073 E13.58720
G1 X153.310 Y162.174 E13.68353
G1 X152.500 Y162.208 E13.77985
G1 X151.690 Y162.174 E13.87617
G1 X150.885 Y162.073 E13.97249
G1 X150.076 Y161.901 E14.07070
G1 X149.720 Y161.762 E14.11613
G1 X149.394 Y161.533 E14.16346
G1 X149.132 Y161.232 E14.21078
G1 X148.950 Y160.878 E14.25811
G1 X148.858 Y160.490 E14.30543
G1 X148.862 Y160.087 E14.35328
G1 X148.977 Y159.675 E14.40410
G1 X149.149 Y159.354 E14.44732
G1 X149.416 Y159.058 E14.49464
G1 X149.746 Y158.835 E14.54197
G1 X150.120 Y158.697 E14.58929
G1 X150.516 Y158.653 E14.63662 F1800.000
G1 X150.877 Y158.700 E14.67986
G1 X151.540 Y158.835 E14.76019
G1 X152.179 Y158.899 E14.83647
G1 X152.821 Y158.899 E14.91275
G1 X153.461 Y158.835 E14.98909
G1 X154.154 Y158.696 E15.07300
G1 X154.484 Y158.653 E15.11259
G1 X154.880 Y158.697 E15.15992
G1 X155.198 Y158.814 E15.20012
G1 X155.597 Y158.633 F7800.000
G1 X154.437 Y156.991 F7800.000
G1 X154.193 Y157.099 E15.23192 F1800.000
G1 X153.591 Y157.278 E15.30651
G1 X152.968 Y157.379 E15.38137
G1 X152.283 Y157.393 E15.46275
G1 X151.718 Y157.338 E15.53021
G1 X151.106 Y157.198 E15.60479
G1 X150.516 Y156.981 E15.67937
G1 X149.959 Y156.691 E15.75396
G1 X149.444 Y156.332 E15.82854
G1 X148.979 Y155.909 E15.90313
G1 X148.572 Y155.431 E15.97771
G1 X148.229 Y154.903 E16.05257
G1 X147.938 Y154.282 E16.13395
G1 X147.759 Y153.743 E16.20141
G1 X147.639 Y153.127 E16.27599
G1 X147.599 Y152.500 E16.35058
G1 X147.639 Y151.873 E16.42516
G1 X147.759 Y151.257 E16.49974
G1 X147.957 Y150.661 E16.57433
G1 X148.230 Y150.095 E16.64891
G1 X148.574 Y149.567 E16.72377
G1 X149.024 Y149.050 E16.80516
G1 X149.444 Y148.668 E16.87261
G1 X149.959 Y148.309 E16.94720
G1 X150.516 Y148.019 E17.02178
G1 X151.108 Y147.801 E17.09664
G1 X151.778 Y147.656 E17.17802
G1 X152.343 Y147.602 E17.24548 F1800.000
G1 X152.971 Y147.622 E17.32006
G1 X153.591 Y147.722 E17.39465
G1 X154.195 Y147.901 E17.46951
G1 X154.818 Y148.186 E17.55089
G1 X155.304 Y148.480 E17.61835
G1 X155.795 Y148.872 E17.69293
G1 X156.232 Y149.323 E17.76752
G1 X156.607 Y149.826 E17.84210
G1 X156.915 Y150.374 E17.91668
G1 X157.151 Y150.956 E17.99127
G1 X157.310 Y151.563 E18.06585
G1 X157.391 Y152.186 E18.14044
G1 X157.391 Y152.815 E18.21513
G1 X157.310 Y153.437 E18.28960
G1 X157.151 Y154.044 E18.36419
G1 X156.915 Y154.626 E18.43877
G1 X156.607 Y155.174 E18.51335
G1 X156.232 Y155.677 E18.58794
G1 X155.795 Y156.128 E18.66252
G1 X155.304 Y156.520 E18.73710
G1 X154.767 Y156.845 E18.81169
G1 X154.492 Y156.967 E18.84734
G1 X154.409 Y157.257 F7800.000
G1 E16.84734 F2400.00000
G92 E0
G1 X157.457 Y150.113 F7800.000
G1 X157.690 Y148.008 F7800.000
G1 X156.989 Y147.308 F7800.000
G1 X156.064 Y147.301 F7800.000
G1 X155.933 Y147.304 F7800.000
G1 X155.522 Y146.699 F7800.000
G1 X154.476 Y146.345 F7800.000
G1 E2.00000 F2400.00000
G1 X154.115 Y146.298 E2.04324 F1800.000
G1 X153.455 Y146.165 E2.12317
G1 X152.819 Y146.101 E2.19905
G1 X152.181 Y146.101 E2.27492
G1 X151.545 Y146.165 E2.35080
G1 X150.885 Y146.298 E2.43073
G1 X150.524 Y146.345 E2.47397
G1 X150.128 Y146.300 E2.52130
G1 X149.755 Y146.161 E2.56862
G1 X149.425 Y145.937 E2.61595
G1 X149.158 Y145.641 E2.66327
G1 X148.968 Y145.286 E2.71112
G1 X148.872 Y144.869 E2.76193
G1 X148.869 Y144.505 E2.80516
G1 X148.961 Y144.118 E2.85248
G1 X149.144 Y143.763 E2.89981
G1 X149.406 Y143.463 E2.94713
G1 X149.732 Y143.234 E2.99446
G1 X150.088 Y143.096 E3.03988
G1 X150.895 Y142.926 E3.13777
G1 X151.773 Y142.822 E3.24274
G1 X152.500 Y142.792 E3.32919 F1800.000
G1 X153.306 Y142.826 E3.42500
G1 X154.107 Y142.926 E3.52082
G1 X154.912 Y143.096 E3.61852
G1 X155.268 Y143.234 E3.66394
G1 X155.594 Y143.463 E3.71127
G1 X155.856 Y143.763 E3.75859
G1 X156.039 Y144.118 E3.80592
G1 X156.131 Y144.505 E3.85324
G1 X156.128 Y144.904 E3.90057
G1 X156.030 Y145.290 E3.94790
G1 X155.842 Y145.641 E3.99522
G1 X155.575 Y145.937 E4.04255
G1 X155.245 Y146.161 E4.08987
G1 X154.872 Y146.300 E4.13720
G1 X154.535 Y146.338 E4.17740
G1 X154.279 Y146.651 F7800.000
G1 X146.166 Y149.743 F7800.000
G1 X146.304 Y150.117 E4.22472 F1800.000
G1 X146.348 Y150.513 E4.27205
G1 X146.301 Y150.874 E4.31528
G1 X146.166 Y151.538 E4.39576
G1 X146.101 Y152.178 E4.47217
G1 X146.101 Y152.822 E4.54858
G1 X146.166 Y153.462 E4.62499
G1 X146.301 Y154.126 E4.70547
G1 X146.348 Y154.487 E4.74871
G1 X146.303 Y154.887 E4.79656
G1 X146.147 Y155.285 E4.84737
G1 X145.943 Y155.587 E4.89059
G1 X145.647 Y155.854 E4.93792
G1 X145.296 Y156.042 E4.98524
G1 X144.910 Y156.141 E5.03257
G1 X144.512 Y156.145 E5.07989
G1 X144.124 Y156.053 E5.12722
G1 X143.769 Y155.872 E5.17454
G1 X143.469 Y155.610 E5.22187
G1 X143.239 Y155.284 E5.26920
G1 X143.100 Y154.928 E5.31463
G1 X142.928 Y154.118 E5.41300
G1 X142.826 Y153.312 E5.50950
G1 X142.792 Y152.500 E5.60599
G1 X142.826 Y151.688 E5.70249
G1 X142.928 Y150.882 E5.79898
G1 X143.100 Y150.072 E5.89736
G1 X143.239 Y149.716 E5.94279
G1 X143.469 Y149.390 E5.99012
G1 X143.769 Y149.128 E6.03744
G1 X144.124 Y148.947 E6.08477
G1 X144.488 Y148.860 E6.12925
G1 X144.907 Y148.858 E6.17898 F1800.000
G1 X145.296 Y148.958 E6.22668
G1 X145.647 Y149.146 E6.27400
G1 X145.943 Y149.413 E6.32133
G1 X146.133 Y149.694 E6.36153
G1 X146.563 Y149.779 F7800.000
G1 X146.953 Y150.519 F7800.000
G1 X148.266 Y147.314 F7800.000
G1 X151.015 Y147.045 F7800.000
G1 X153.342 Y146.915 F7800.000
G1 X156.989 Y147.308 F7800.000
G1 X157.695 Y149.063 F7800.000
G1 X157.762 Y149.941 F7800.000
G1 X157.770 Y149.986 F7800.000
G1 X157.840 Y150.499 F7800.000
G1 X158.049 Y150.522 F7800.000
G1 X158.653 Y150.517 F7800.000
G1 X158.697 Y150.121 E6.40885 F1800.000
G1 X158.835 Y149.747 E6.45618
G1 X159.059 Y149.417 E6.50350
G1 X159.355 Y149.150 E6.55083
G1 X159.710 Y148.959 E6.59868
G1 X160.126 Y148.862 E6.64949
G1 X160.490 Y148.859 E6.69271 F1800.000
G1 X160.878 Y148.951 E6.74004
G1 X161.233 Y149.133 E6.78736
G1 X161.533 Y149.395 E6.83469
G1 X161.762 Y149.721 E6.88201
G1 X161.901 Y150.077 E6.92744
G1 X162.073 Y150.886 E7.02562
G1 X162.174 Y151.690 E7.12190
G1 X162.208 Y152.500 E7.21819
G1 X162.174 Y153.310 E7.31448
G1 X162.073 Y154.114 E7.41076
G1 X161.900 Y154.927 E7.50946
G1 X161.743 Y155.308 E7.55837
G1 X161.533 Y155.605 E7.60159
G1 X161.233 Y155.867 E7.64891
G1 X160.878 Y156.049 E7.69624
G1 X160.490 Y156.141 E7.74356
G1 X160.092 Y156.137 E7.79089
G1 X159.706 Y156.038 E7.83821
G1 X159.355 Y155.850 E7.88554
G1 X159.059 Y155.583 E7.93287
G1 X158.835 Y155.253 E7.98019
G1 X158.697 Y154.879 E8.02752
G1 X158.653 Y154.483 E8.07484
G1 X158.700 Y154.122 E8.11808
G1 X158.835 Y153.460 E8.19839
G1 X158.899 Y152.821 E8.27464
G1 X158.899 Y152.179 E8.35088
G1 X158.835 Y151.540 E8.42713
G1 X158.700 Y150.878 E8.50744
G1 X158.661 Y150.576 E8.54355
G1 X158.314 Y150.307 F7800.000
G1 X157.691 Y148.890 F7800.000
G1 X157.322 Y148.395 E8.61684 F1800.000
G1 X156.757 Y147.812 E8.71321
G1 X156.113 Y147.299 E8.81106
G1 X156.521 Y147.022 E8.86964
G1 X157.019 Y146.468 E8.95816
G1 X157.371 Y145.810 E9.04668
G1 X157.555 Y145.088 E9.13520
G1 X157.561 Y144.343 E9.22372
G1 X157.388 Y143.618 E9.31224
G1 X157.047 Y142.955 E9.40076
G1 X156.557 Y142.393 E9.48928
G1 X155.947 Y141.965 E9.57780
G1 X155.320 Y141.722 E9.65763
G1 X154.343 Y141.516 E9.77619
G1 X153.425 Y141.401 E9.88611
G1 X152.500 Y141.363 E9.99604
G1 X151.659 Y141.398 E10.09595
G1 X150.664 Y141.515 E10.21504
G1 X149.680 Y141.722 E10.33442
G1 X149.053 Y141.965 E10.41425
G1 X148.443 Y142.393 E10.50277
G1 X147.953 Y142.955 E10.59129
G1 X147.612 Y143.618 E10.67981
G1 X147.439 Y144.343 E10.76833
G1 X147.445 Y145.038 E10.85087
G1 X147.620 Y145.793 E10.94288
G1 X147.981 Y146.468 E11.03381
G1 X148.479 Y147.022 E11.12233
G1 X148.899 Y147.307 E11.18266
G1 X148.552 Y147.549 E11.23296
G1 X148.002 Y148.049 E11.32121
G1 X147.294 Y148.861 E11.44919
G1 X147.029 Y148.469 E11.50538
G1 X146.476 Y147.970 E11.59390
G1 X145.819 Y147.617 E11.68242
G1 X145.083 Y147.428 E11.77265
G1 X144.318 Y147.433 E11.86358
G1 X143.626 Y147.596 E11.94792
G1 X142.963 Y147.937 E12.03644
