; generated by Slic3r 1.2.9 on 2018-04-08 at 18:15:57

; external perimeters extrusion width = 0.40mm
; perimeters extrusion width = 0.67mm
; infill extrusion width = 0.67mm
; solid infill extrusion width = 0.67mm
; top infill extrusion width = 0.67mm
; support material extrusion width = 0.40mm

M107
M190 S80 ; set bed temperature
M104 S210 ; set temperature
G28 ; home all axes
G1 Z5 F5000 ; lift nozzle

M109 S210 ; wait for temperature to be reached
G21 ; set units to millimeters
G90 ; use absolute coordinates
M82 ; use absolute distances for extrusion
G92 E0
G1 Z0.400 F7800.000
G1 E-2.00000 F2400.00000
G92 E0
G1 X114.914 Y129.353 F7800.000
G1 E2.00000 F2400.00000
G1 X115.903 Y128.623 E2.14592 F1800.000
G1 X116.895 Y128.109 E2.27863
G1 X121.509 Y126.187 E2.87224
G1 X123.290 Y125.718 E3.09101
G1 X183.882 Y118.439 E10.33897
G1 X184.423 Y118.396 E10.40345
G1 X185.098 Y118.386 E10.48354
G1 X185.597 Y118.405 E10.54285 F1800.000
G1 X186.342 Y118.490 E10.63195
G1 X186.607 Y118.537 E10.66392
G1 X187.533 Y118.781 E10.77766
G1 X188.647 Y119.249 E10.92114
G1 X189.730 Y119.939 E11.07363
G1 X190.784 Y120.932 E11.24562
G1 X190.872 Y121.035 E11.26169
G1 X191.601 Y122.085 E11.41349
G1 X192.164 Y123.318 E11.57446
G1 X192.402 Y124.136 E11.67568
G1 X192.453 Y124.373 E11.70445
G1 X192.590 Y125.388 E11.82606
G1 X194.283 Y148.657 E14.59695
G1 X194.301 Y149.081 E14.64741
G1 X194.330 Y152.273 E15.02653
G1 X194.330 Y155.461 E15.40511
G1 X194.312 Y155.948 E15.46302
G1 X192.585 Y179.689 E18.28998
G1 X192.523 Y180.232 E18.35495
G1 X192.453 Y180.639 E18.40406
G1 X192.254 Y181.408 E18.49835
G1 X191.869 Y182.400 E18.62471
G1 X191.233 Y183.494 E18.77493
G1 X190.396 Y184.483 E18.92889
G1 X189.187 Y185.443 E19.11217
G1 X188.024 Y186.042 E19.26758
G1 X187.108 Y186.350 E19.38234
G1 X186.703 Y186.448 E19.43183
G1 X185.773 Y186.583 E19.54344
G1 X185.131 Y186.614 E19.61982
G1 X184.344 Y186.593 E19.71323
G1 X183.629 Y186.510 E19.79874
G1 X183.284 Y186.445 E19.84049
G1 X182.328 Y186.177 E19.95842
G1 X181.298 Y185.727 E20.09182
G1 X180.811 Y185.447 E20.15853
G1 X115.819 Y144.521 E29.28027
G1 X114.890 Y143.817 E29.41872
G1 X114.292 Y143.229 E29.51827
G1 X113.428 Y142.028 E29.69399
G1 X113.333 Y141.858 E29.71715
G1 X112.841 Y140.765 E29.85949
G1 X112.631 Y140.049 E29.94814
G1 X112.506 Y139.469 E30.01854
G1 X112.420 Y138.827 E30.09546
G1 X112.390 Y138.181 E30.17226
G1 X112.391 Y135.093 E30.53911
G1 X112.411 Y134.541 E30.60471
G1 X112.521 Y133.637 E30.71284
G1 X112.600 Y133.246 E30.76025
G1 X112.757 Y132.681 E30.82990
G1 X112.848 Y132.413 E30.86345
G1 X113.200 Y131.585 E30.97032
G1 X113.290 Y131.412 E30.99347
G1 X113.892 Y130.460 E31.12719
G1 X113.979 Y130.347 E31.14418
G1 X114.870 Y129.393 E31.29920
G1 E29.29920 F2400.00000
G92 E0
G1 X182.970 Y136.027 F7800.000
G1 E2.00000 F2400.00000
G1 X183.700 Y133.382 E2.32590 F1800.000
G1 X184.071 Y133.432 E2.37036
G1 X184.071 Y138.933 E3.02367
G1 X182.301 Y137.163 E3.32102
G1 X120.933 Y137.165 E10.60944
G1 X120.933 Y136.032 E10.74407
G1 X182.910 Y136.027 E18.10478
G1 X182.426 Y135.313 F7800.000
G1 X184.414 Y128.110 E18.99216 F1800.000
G1 X184.785 Y128.161 E19.03662
G1 X184.785 Y140.657 E20.52075
G1 X182.005 Y137.877 E20.98773
G1 X120.218 Y137.879 E28.32589
G1 X120.219 Y135.317 E28.63015
G1 X182.366 Y135.313 E36.01105
G1 X181.883 Y134.599 F7800.000
G1 X184.311 Y125.801 E37.09504 F1800.000
G1 X184.413 Y125.615 E37.12021
G1 X184.513 Y125.541 E37.13490
G1 X184.671 Y125.511 E37.15403
G1 X185.042 Y125.501 E37.19815
G1 X185.283 Y125.534 E37.22708
G1 X185.390 Y125.578 E37.24080
G1 X185.456 Y125.674 E37.25464
G1 X185.500 Y125.977 E37.29098
G1 X185.500 Y179.027 E43.59146
G1 X185.473 Y179.253 E43.61845
G1 X185.391 Y179.430 E43.64159
G1 X185.211 Y179.487 E43.66404
G1 X184.801 Y179.491 E43.71278
G1 X184.578 Y179.412 E43.74088
G1 X184.526 Y179.240 E43.76216
G1 X184.500 Y179.028 E43.78752
G1 X184.505 Y141.387 E48.25801
G1 X181.709 Y138.591 E48.72763
G1 X119.965 Y138.593 E56.06069
G1 X119.700 Y138.544 E56.09269
G1 X119.604 Y138.496 E56.10541
G1 X119.558 Y138.414 E56.11668
G1 X119.504 Y138.158 E56.14770
G1 X119.505 Y135.116 E56.50894
G1 X119.530 Y134.872 E56.53812
G1 X119.599 Y134.704 E56.55969
G1 X119.738 Y134.635 E56.57817
G1 X119.963 Y134.603 E56.60512
G1 X181.823 Y134.599 E63.95189
G1 X182.276 Y134.670 F7800.000
G1 X183.693 Y134.827 F7800.000
G1 X183.482 Y136.384 E64.13852 F1800.000
G1 X183.289 Y136.819 F7800.000
G1 X183.636 Y137.166 E64.19669 F1800.000
G1 X182.238 Y136.595 F7800.000
G1 X121.290 Y136.598 E71.43521 F1800.000
G1 X181.958 Y136.595 F7800.000
G1 X183.594 Y135.543 F7800.000
G1 X183.824 Y133.843 F7800.000
G1 X183.936 Y133.023 F7800.000
G1 X183.934 Y133.053 F7800.000
G1 X184.221 Y130.936 E71.97321 F1800.000
G1 X184.221 Y130.936 F7800.000
G1 X184.408 Y129.556 E72.13864 F1800.000
G1 X184.648 Y127.782 F7800.000
G1 X184.908 Y125.862 E72.62658 F1800.000
G1 X185.002 Y141.379 F7800.000
G1 X185.000 Y179.132 E77.11033 F1800.000
G1 Z0.400 F7800.000
G1 E75.11033 F2400.00000
G92 E0
G1 X182.617 Y155.871 F7800.000
G1 E2.00000 F2400.00000
G1 X183.516 Y154.078 E2.23821 F1800.000
G1 X182.384 Y153.149 E2.41214
G1 X183.516 Y150.891 E2.71218
G1 X182.384 Y149.962 E2.88611
G1 X182.802 Y149.129 E2.99677
G1 E0.99677 F2400.00000
G92 E0
G1 X187.587 Y149.144 F7800.000
G1 E2.00000 F2400.00000
G1 X186.484 Y151.344 E2.29231 F1800.000
G1 X187.616 Y152.273 E2.46624
G1 X186.484 Y154.532 E2.76628
G1 X187.616 Y155.461 E2.94021
G1 X187.410 Y155.871 E2.99473
G1 E0.99473 F2400.00000
G92 E0
G1 X177.386 Y140.808 F7800.000
G1 E2.00000 F2400.00000
G1 X178.049 Y139.485 E2.17577 F1800.000
G1 X176.451 Y139.485 E2.36551
G1 X175.788 Y140.808 E2.54128
G1 X174.190 Y140.808 E2.73103
G1 X174.854 Y139.485 E2.90679
G1 X173.256 Y139.485 E3.09654
G1 X172.593 Y140.808 E3.27231
G1 X170.995 Y140.808 E3.46206
G1 X171.658 Y139.485 E3.63782
G1 X170.061 Y139.485 E3.82757
G1 X169.397 Y140.808 E4.00334
G1 X167.800 Y140.808 E4.19308
G1 X168.463 Y139.485 E4.36885
G1 X166.865 Y139.485 E4.55860
G1 X166.202 Y140.808 E4.73436
G1 X164.604 Y140.808 E4.92411
G1 X165.268 Y139.485 E5.09988
G1 X163.670 Y139.485 E5.28963
G1 X163.007 Y140.808 E5.46539
G1 X161.409 Y140.808 E5.65514
G1 X162.072 Y139.485 E5.83091
G1 X160.474 Y139.485 E6.02065
G1 X159.811 Y140.808 E6.19642
G1 X158.214 Y140.808 E6.38617
G1 X158.877 Y139.485 E6.56193
G1 X157.279 Y139.485 E6.75168
G1 X156.616 Y140.808 E6.92745
G1 X155.018 Y140.808 E7.11720
G1 X155.681 Y139.485 E7.29296
G1 X154.084 Y139.485 E7.48271
G1 X153.421 Y140.808 E7.65848
G1 X151.823 Y140.808 E7.84822
G1 X152.486 Y139.485 E8.02399
G1 X150.888 Y139.485 E8.21374
G1 X150.225 Y140.808 E8.38950
G1 X148.628 Y140.808 E8.57925
G1 X149.291 Y139.485 E8.75502
G1 X147.693 Y139.485 E8.94477
G1 X147.030 Y140.808 E9.12053
G1 X145.432 Y140.808 E9.31028
G1 X146.095 Y139.485 E9.48605
G1 X144.498 Y139.485 E9.67579
G1 X143.835 Y140.808 E9.85156
G1 X142.237 Y140.808 E10.04131
G1 X142.900 Y139.485 E10.21707
G1 X141.302 Y139.485 E10.40682
G1 X140.639 Y140.808 E10.58259
G1 X139.042 Y140.808 E10.77234
G1 X139.705 Y139.485 E10.94810
G1 X138.107 Y139.485 E11.13785
G1 X137.444 Y140.808 E11.31362
G1 X135.846 Y140.808 E11.50336
G1 X136.509 Y139.485 E11.67913
G1 X134.912 Y139.485 E11.86888
G1 X134.249 Y140.808 E12.04464
G1 X132.651 Y140.808 E12.23439
G1 X133.314 Y139.485 E12.41016
G1 X131.716 Y139.485 E12.59991
G1 X131.053 Y140.808 E12.77567
G1 X129.455 Y140.808 E12.96542
G1 X130.119 Y139.485 E13.14119
G1 X128.521 Y139.485 E13.33093
G1 X127.858 Y140.808 E13.50670
G1 X126.260 Y140.808 E13.69645
G1 X126.923 Y139.485 E13.87221
G1 X125.326 Y139.485 E14.06196
G1 X124.662 Y140.808 E14.23773
G1 X123.308 Y140.322 E14.40859
G1 X123.781 Y139.379 E14.53382
G1 E12.53382 F2400.00000
G92 E0
G1 X123.375 Y133.813 F7800.000
G1 E2.00000 F2400.00000
G1 X124.091 Y132.385 E2.18976 F1800.000
G1 X125.689 Y132.385 E2.37951
G1 X125.026 Y133.708 E2.55528
G1 X126.623 Y133.708 E2.74503
G1 X127.286 Y132.385 E2.92079
G1 X128.884 Y132.385 E3.11054
G1 X128.221 Y133.708 E3.28631
G1 X129.819 Y133.708 F7800.000
G1 X130.482 Y132.385 E3.46207 F1800.000
G1 X132.079 Y132.385 E3.65182
G1 X131.416 Y133.708 E3.82759
G1 X133.014 Y133.708 E4.01733
G1 X133.677 Y132.385 E4.19310
G1 X135.275 Y132.385 E4.38285
G1 X134.612 Y133.708 E4.55861
G1 X136.209 Y133.708 E4.74836
G1 X136.873 Y132.385 E4.92413
G1 X138.470 Y132.385 E5.11388
G1 X137.807 Y133.708 E5.28964
G1 E3.28964 F2400.00000
G92 E0
G1 X140.068 Y132.385 F7800.000
G1 E2.00000 F2400.00000
G1 X139.758 Y133.002 E2.08207 F1800.000
G1 X141.002 Y133.708 E2.25192
G1 X141.666 Y132.385 E2.42769
G1 X143.263 Y132.385 E2.61744
G1 X142.600 Y133.708 E2.79320
G1 X144.198 Y133.708 E2.98295
G1 X144.861 Y132.385 E3.15872
G1 X146.459 Y132.385 E3.34846
G1 X145.795 Y133.708 E3.52423
G1 X147.393 Y133.708 E3.71398
G1 X148.056 Y132.385 E3.88974
G1 X149.190 Y133.310 E4.06356
G1 X148.991 Y133.708 E4.11642
G1 X150.588 Y133.708 F7800.000
G1 X151.252 Y132.385 E4.29219 F1800.000
G1 X152.849 Y132.385 E4.48193
G1 X152.186 Y133.708 E4.65770
G1 X153.784 Y133.708 E4.84745
G1 X154.447 Y132.385 E5.02321
G1 X156.045 Y132.385 E5.21296
G1 X155.382 Y133.708 E5.38873
G1 X156.979 Y133.708 E5.57848
G1 X157.642 Y132.385 E5.75424
G1 X159.190 Y132.484 E5.93846
G1 X158.577 Y133.708 E6.10104
G1 X160.175 Y133.708 F7800.000
G1 X160.838 Y132.385 E6.27681 F1800.000
G1 X162.435 Y132.385 E6.46655
G1 X161.772 Y133.708 E6.64232
G1 X163.370 Y133.708 E6.83207
G1 X164.033 Y132.385 E7.00783
G1 X165.631 Y132.385 E7.19758
G1 X164.968 Y133.708 E7.37335
G1 X166.565 Y133.708 E7.56310
G1 X167.228 Y132.385 E7.73886
G1 X168.826 Y132.385 E7.92861
G1 X168.163 Y133.708 E8.10438
G1 X169.761 Y133.708 F7800.000
G1 X170.424 Y132.385 E8.28014 F1800.000
G1 X172.021 Y132.385 E8.46989
G1 X171.358 Y133.708 E8.64565
G1 X172.956 Y133.708 E8.83540
G1 X173.619 Y132.385 E9.01117
G1 X175.217 Y132.385 E9.20092
G1 X174.554 Y133.708 E9.37668
G1 X176.151 Y133.708 E9.56643
G1 X176.814 Y132.385 E9.74220
G1 X178.412 Y132.385 E9.93195
G1 X177.749 Y133.708 E10.10771
G1 Z0.600 F7800.000
G1 E8.10771 F2400.00000
G92 E0
G1 X182.507 Y135.417 F7800.000
G1 E2.00000 F2400.00000
G1 X184.352 Y128.703 E2.36380 F3600.000
G1 X184.679 Y128.747 E2.38102
G1 X184.679 Y140.407 E2.99020
G1 X182.047 Y137.775 E3.18463
G1 X120.321 Y137.775 E6.40951
G1 X120.321 Y135.423 E6.53242
G1 X182.447 Y135.417 E9.77818
G1 X182.028 Y134.789 F7800.000
G1 X184.437 Y126.023 E10.25313 F3600.000
G1 X184.541 Y125.695 E10.27112
G1 X185.302 Y125.698 E10.31084
G1 X185.306 Y179.090 E13.10029
G1 X185.291 Y179.304 E13.11150
G1 X184.698 Y179.303 E13.14247
G1 X184.693 Y141.309 E15.12744
G1 X181.787 Y138.404 E15.34213
G1 X120.017 Y138.404 E18.56931
G1 X119.711 Y138.389 E18.58532
G1 X119.693 Y138.076 E18.60166
G1 X119.693 Y135.114 E18.75643
G1 X119.709 Y134.794 E18.77315
G1 X181.968 Y134.789 E22.02585
G1 X181.652 Y134.296 F7800.000
G1 X183.965 Y125.883 E22.28490 F1800.000
G1 X184.066 Y125.563 E22.29489
G1 X184.186 Y125.346 E22.30223
G1 X184.236 Y125.297 E22.30432
G1 X184.314 Y125.255 E22.30696
G1 X184.456 Y125.217 E22.31131
G1 X184.600 Y125.202 E22.31561
G1 X185.301 Y125.205 E22.33642
G1 X185.469 Y125.235 E22.34151
G1 X185.591 Y125.284 E22.34540
G1 X185.703 Y125.392 E22.35003
G1 X185.752 Y125.506 E22.35371
G1 X185.795 Y125.731 E22.36053
G1 X185.800 Y126.002 E22.36855
G1 X185.799 Y179.108 E23.94533
G1 X185.779 Y179.380 E23.95345
G1 X185.676 Y179.651 E23.96205
G1 X185.509 Y179.756 E23.96790
G1 X185.276 Y179.796 E23.97493
G1 X184.690 Y179.795 E23.99234
G1 X184.446 Y179.737 E23.99979
G1 X184.339 Y179.666 E24.00358
G1 X184.295 Y179.606 E24.00578
G1 X184.247 Y179.493 E24.00943
G1 X184.205 Y179.270 E24.01618
G1 X184.200 Y141.513 E25.13722
G1 X181.583 Y138.896 E25.24711
G1 X120.005 Y138.896 E27.07544
G1 X119.643 Y138.879 E27.08618
G1 X119.401 Y138.800 E27.09376
G1 X119.333 Y138.744 E27.09637
G1 X119.276 Y138.657 E27.09947
G1 X119.223 Y138.489 E27.10470
G1 X119.200 Y138.091 E27.11654
G1 X119.200 Y135.101 E27.20530
G1 X119.219 Y134.732 E27.21629
G1 X119.290 Y134.514 E27.22308
G1 X119.370 Y134.416 E27.22684
G1 X119.511 Y134.346 E27.23152
G1 X119.731 Y134.302 E27.23816
G1 X181.592 Y134.296 E29.07492
G1 X182.046 Y134.367 F7800.000
G1 X183.929 Y133.071 F7800.000
G1 X184.190 Y131.136 E29.28587 F1200.000
G1 X184.190 Y131.136 F7800.000
G1 X184.347 Y129.972 E29.34722 F1200.000
G1 X184.558 Y128.413 F7800.000
G1 X184.819 Y126.479 E29.55816 F1200.000
G1 X183.128 Y134.747 F7800.000
G1 X184.298 Y133.576 E29.64555 F1200.000
G1 X184.298 Y134.474 E29.69297
G1 X181.378 Y137.394 E29.91101
G1 X182.201 Y137.469 E29.95467
G1 X184.298 Y135.372 E30.11122
G1 X184.298 Y136.270 E30.15864
G1 X182.650 Y137.918 E30.28167
G1 X183.099 Y138.367 E30.31519
G1 X184.298 Y137.168 E30.40470
G1 X184.298 Y138.066 E30.45211
G1 X183.548 Y138.816 E30.50809
G1 X184.298 Y138.964 E30.54844
G1 X183.997 Y139.265 E30.57089
G1 X182.076 Y135.798 F7800.000
G1 X180.480 Y137.394 E30.69010 F1200.000
G1 X179.582 Y137.394 E30.73751
G1 X181.178 Y135.798 E30.85671
G1 X180.280 Y135.798 E30.90412
G1 X178.684 Y137.394 E31.02332
G1 X177.786 Y137.394 E31.07073
G1 X179.382 Y135.798 E31.18991
G1 X178.484 Y135.798 E31.23733
G1 X176.888 Y137.394 E31.35651
G1 X175.990 Y137.394 E31.40392
G1 X177.586 Y135.798 E31.52310
G1 X176.688 Y135.798 E31.57051
G1 X175.092 Y137.394 E31.68968
G1 X174.194 Y137.394 E31.73709
G1 X175.790 Y135.799 E31.85626
G1 X174.892 Y135.799 E31.90367
G1 X173.296 Y137.394 E32.02283
G1 X172.398 Y137.394 E32.07024
G1 X173.994 Y135.799 E32.18939
G1 X173.096 Y135.799 E32.23681
G1 X171.500 Y137.394 E32.35595
G1 X170.602 Y137.394 E32.40336
G1 X172.198 Y135.799 E32.52250
G1 X171.300 Y135.799 E32.56992
G1 X169.704 Y137.394 E32.68905
G1 X168.806 Y137.394 E32.73646
G1 X170.402 Y135.799 E32.85559
G1 X169.504 Y135.799 E32.90301
G1 X167.908 Y137.394 E33.02213
G1 X167.010 Y137.394 E33.06954
G1 X168.605 Y135.799 E33.18865
G1 X167.707 Y135.799 E33.23607
G1 X166.112 Y137.394 E33.35518
G1 X165.214 Y137.394 E33.40259
G1 X166.809 Y135.799 E33.52169
G1 X165.911 Y135.799 E33.56911
G1 X164.316 Y137.394 E33.68821
G1 X163.418 Y137.394 E33.73562
G1 X165.013 Y135.800 E33.85471
G1 X164.115 Y135.800 E33.90213
G1 X162.520 Y137.394 E34.02121
G1 X161.622 Y137.394 E34.06862
G1 X163.217 Y135.800 E34.18770
G1 X162.319 Y135.800 E34.23512
G1 X160.724 Y137.394 E34.35419
G1 X159.826 Y137.394 E34.40160
G1 X161.421 Y135.800 E34.52067
G1 X160.523 Y135.800 E34.56809
G1 X158.928 Y137.394 E34.68715
G1 X158.030 Y137.394 E34.73456
G1 X159.625 Y135.800 E34.85362
G1 X158.727 Y135.800 E34.90103
G1 X157.132 Y137.394 E35.02008
G1 X156.234 Y137.394 E35.06749
G1 X157.829 Y135.800 E35.18654
G1 X156.931 Y135.800 E35.23395
G1 X155.336 Y137.394 E35.35299
G1 X154.438 Y137.394 E35.40040
G1 X156.033 Y135.800 E35.51943
G1 X155.135 Y135.800 E35.56685
G1 X153.540 Y137.394 E35.68588
G1 X152.642 Y137.394 E35.73329
G1 X154.237 Y135.800 E35.85231
G1 X153.338 Y135.801 E35.89972
G1 X151.745 Y137.394 E36.01874
G1 X150.847 Y137.394 E36.06615
G1 X152.440 Y135.801 E36.18516
G1 X151.542 Y135.801 E36.23257
G1 X149.949 Y137.394 E36.35157
G1 X149.051 Y137.394 E36.39899
G1 X150.644 Y135.801 E36.51798
G1 X149.746 Y135.801 E36.56540
G1 X148.153 Y137.394 E36.68439
G1 X147.255 Y137.394 E36.73180
G1 X148.848 Y135.801 E36.85078
G1 X147.950 Y135.801 E36.89820
G1 X146.357 Y137.394 E37.01718
G1 X145.459 Y137.394 E37.06459
G1 X147.052 Y135.801 E37.18356
G1 X146.154 Y135.801 E37.23098
G1 X144.561 Y137.394 E37.34994
G1 X143.663 Y137.394 E37.39736
G1 X145.256 Y135.801 E37.51632
G1 X144.358 Y135.801 E37.56373
G1 X142.765 Y137.394 E37.68269
G1 X141.867 Y137.394 E37.73010
G1 X143.460 Y135.801 E37.84905
G1 X142.562 Y135.801 E37.89646
G1 X140.969 Y137.394 E38.01540
G1 X140.071 Y137.394 E38.06282
G1 X141.664 Y135.802 E38.18175
G1 X140.766 Y135.802 E38.22917
G1 X139.173 Y137.394 E38.34810
G1 X138.275 Y137.394 E38.39551
G1 X139.868 Y135.802 E38.51444
G1 X138.969 Y135.802 E38.56185
G1 X137.377 Y137.394 E38.68077
G1 X136.479 Y137.394 E38.72818
G1 X138.071 Y135.802 E38.84709
G1 X137.173 Y135.802 E38.89451
G1 X135.581 Y137.394 E39.01342
G1 X134.683 Y137.394 E39.06083
G1 X136.275 Y135.802 E39.17973
G1 X135.377 Y135.802 E39.22715
G1 X133.785 Y137.394 E39.34604
