; generated by Slic3r 1.2.9 on 2018-04-14 at 22:59:37

; external perimeters extrusion width = 0.40mm
; perimeters extrusion width = 0.67mm
; infill extrusion width = 0.67mm
; solid infill extrusion width = 0.67mm
; top infill extrusion width = 0.67mm
; support material extrusion width = 0.40mm

M107
M190 S80 ; set bed temperature
M104 S210 ; set temperature
G28 ; home all axes
G1 Z5 F5000 ; lift nozzle

M109 S210 ; wait for temperature to be reached
G21 ; set units to millimeters
G90 ; use absolute coordinates
M82 ; use absolute distances for extrusion
G92 E0
G1 Z0.400 F7800.000
G1 E-2.00000 F2400.00000
G92 E0
G1 X133.916 Y120.879 F7800.000
G1 E2.00000 F2400.00000
G1 X134.904 Y119.950 E2.16110 F1800.000
G1 X135.534 Y119.515 E2.25200
G1 X136.229 Y119.139 E2.34588
G1 X137.060 Y118.803 E2.45238
G1 X137.658 Y118.632 E2.52627
G1 X138.411 Y118.478 E2.61749
G1 X139.089 Y118.404 E2.69853
G1 X139.563 Y118.388 E2.75478
G1 X165.471 Y118.389 E5.83185
G1 X166.045 Y118.414 E5.89998 F1800.000
G1 X166.505 Y118.466 E5.95504
G1 X167.232 Y118.599 E6.04282
G1 X167.884 Y118.784 E6.12332
G1 X168.420 Y118.981 E6.19109
G1 X169.052 Y119.279 E6.27410
G1 X169.700 Y119.667 E6.36374
G1 X170.727 Y120.500 E6.52079
G1 X171.270 Y121.096 E6.61664
G1 X172.114 Y122.386 E6.79970
G1 X172.377 Y122.949 E6.87343
G1 X172.744 Y124.099 E7.01685
G1 X172.819 Y124.447 E7.05913
G1 X172.934 Y125.265 E7.15720
G1 X172.963 Y125.869 E7.22910
G1 X172.962 Y179.000 E13.53919
G1 X172.925 Y179.791 E13.63324
G1 X172.854 Y180.336 E13.69846
G1 X172.757 Y180.835 E13.75884
G1 X172.597 Y181.414 E13.83014
G1 X172.505 Y181.683 E13.86397
G1 X172.161 Y182.495 E13.96866
G1 X172.064 Y182.684 E13.99397
G1 X171.462 Y183.636 E14.12771
G1 X170.514 Y184.676 E14.29480
G1 X169.451 Y185.473 E14.45265
G1 X168.414 Y186.005 E14.59106
G1 X167.414 Y186.345 E14.71652
G1 X167.003 Y186.442 E14.76668
G1 X166.113 Y186.572 E14.87346
G1 X165.354 Y186.609 E14.96379
G1 X139.646 Y186.609 E18.01691
G1 X138.891 Y186.574 E18.10675
G1 X138.310 Y186.500 E18.17623
G1 X137.796 Y186.400 E18.23846
G1 X137.230 Y186.243 E18.30822
G1 X136.963 Y186.152 E18.34173
G1 X136.153 Y185.809 E18.44625
G1 X135.962 Y185.710 E18.47174
G1 X134.897 Y185.022 E18.62232
G1 X133.903 Y184.085 E18.78451
G1 X133.173 Y183.098 E18.93041
G1 X132.641 Y182.061 E19.06881
G1 X132.319 Y181.129 E19.18585
G1 X132.204 Y180.650 E19.24443
G1 X132.074 Y179.760 E19.35125
G1 X132.038 Y179.000 E19.44151
G1 X132.034 Y125.948 E25.74227
G1 X132.067 Y125.236 E25.82691
G1 X132.209 Y124.310 E25.93815
G1 X132.280 Y123.999 E25.97616
G1 X132.671 Y122.842 E26.12111
G1 X132.987 Y122.187 E26.20747
G1 X133.879 Y120.926 E26.39090
G1 E24.39090 F2400.00000
G92 E0
G1 X157.832 Y157.832 F7800.000
G1 E2.00000 F2400.00000
G1 X158.192 Y158.736 E2.11564 F1800.000
G1 X158.314 Y159.631 E2.22297
G1 X158.259 Y160.426 E2.31754
G1 X158.010 Y161.249 E2.41966
G1 X157.585 Y161.996 E2.52179
G1 X157.003 Y162.630 E2.62391
G1 X156.296 Y163.118 E2.72603
G1 X155.547 Y163.417 E2.82172
G1 X154.311 Y163.685 E2.97202
G1 X153.106 Y163.815 E3.11593
G1 X151.894 Y163.815 E3.25983
G1 X150.689 Y163.685 E3.40373
G1 X149.453 Y163.417 E3.55404
G1 X148.704 Y163.118 E3.64973
G1 X147.997 Y162.630 E3.75185
G1 X147.415 Y161.996 E3.85397
G1 X146.990 Y161.249 E3.95609
G1 X146.741 Y160.426 E4.05821
G1 X146.682 Y159.568 E4.16034
G1 X146.814 Y158.718 E4.26246
G1 X147.168 Y157.832 E4.37587
G1 X146.281 Y158.185 E4.48927
G1 X145.413 Y158.321 E4.59363
G1 X144.513 Y158.241 E4.70095
G1 X143.751 Y158.010 E4.79553
G1 X143.004 Y157.585 E4.89765
G1 X142.370 Y157.003 E4.99977
G1 X141.882 Y156.296 E5.10189
G1 X141.583 Y155.547 E5.19758
G1 X141.315 Y154.311 E5.34789
G1 X141.185 Y153.106 E5.49179
G1 X141.185 Y151.894 E5.63569
G1 X141.315 Y150.689 E5.77960
G1 X141.583 Y149.453 E5.92991
G1 X141.882 Y148.704 E6.02559
G1 X142.370 Y147.997 E6.12771
G1 X143.004 Y147.415 E6.22984
G1 X143.767 Y146.980 E6.33419
G1 X144.638 Y146.737 E6.44151
G1 X145.432 Y146.682 E6.53609
G1 X146.281 Y146.814 E6.63821
G1 X147.168 Y147.168 E6.75162
G1 X146.814 Y146.281 E6.86503
G1 X146.679 Y145.413 E6.96938
G1 X146.759 Y144.513 E7.07671
G1 X146.990 Y143.751 E7.17128
G1 X147.425 Y142.988 E7.27564
G1 X148.049 Y142.334 E7.38296
G1 X148.704 Y141.882 E7.47754
G1 X149.453 Y141.583 E7.57322
G1 X150.689 Y141.315 E7.72353
G1 X151.894 Y141.185 E7.86743
G1 X153.106 Y141.185 E8.01134
G1 X154.306 Y141.314 E8.15472
G1 X155.516 Y141.571 E8.30165
G1 X156.296 Y141.882 E8.40129
G1 X157.003 Y142.370 E8.50341
G1 X157.585 Y143.004 E8.60553
G1 X158.010 Y143.751 E8.70765
G1 X158.259 Y144.574 E8.80977
G1 X158.318 Y145.432 E8.91189
G1 X158.185 Y146.281 E9.01402
G1 X157.835 Y147.160 E9.12638
G1 X158.781 Y146.805 E9.24646
G1 X159.568 Y146.682 E9.34103
G1 X160.426 Y146.741 E9.44316
G1 X161.249 Y146.990 E9.54528
G1 X161.996 Y147.415 E9.64740
G1 X162.630 Y147.997 E9.74952
G1 X163.118 Y148.704 E9.85164
G1 X163.417 Y149.453 E9.94733
G1 X163.685 Y150.689 E10.09764
G1 X163.815 Y151.894 E10.24154
G1 X163.815 Y153.106 E10.38544
G1 X163.685 Y154.311 E10.52935
G1 X163.417 Y155.547 E10.67965
G1 X163.118 Y156.296 E10.77534
G1 X162.666 Y156.951 E10.86991
G1 X162.012 Y157.575 E10.97724
G1 X161.249 Y158.010 E11.08159
G1 X160.426 Y158.259 E11.18371
G1 X159.568 Y158.318 E11.28584
G1 X158.719 Y158.186 E11.38796
G1 X157.887 Y157.854 E11.49424
G1 X155.020 Y156.656 F7800.000
G1 X155.714 Y156.866 E11.58031 F1800.000
G1 X156.321 Y157.212 E11.66332
G1 X156.836 Y157.684 E11.74633
G1 X157.233 Y158.259 E11.82934
G1 X157.497 Y158.919 E11.91371
G1 X157.597 Y159.655 E12.00192
G1 X157.552 Y160.296 E12.07825
G1 X157.350 Y160.965 E12.16126
G1 X157.004 Y161.573 E12.24427
G1 X156.531 Y162.088 E12.32727
G1 X155.956 Y162.485 E12.41028
G1 X155.338 Y162.731 E12.48937
G1 X154.196 Y162.979 E12.62809
G1 X153.068 Y163.101 E12.76291
G1 X151.932 Y163.101 E12.89773
G1 X150.804 Y162.979 E13.03255
G1 X149.662 Y162.731 E13.17128
G1 X149.044 Y162.485 E13.25036
G1 X148.469 Y162.088 E13.33337
G1 X147.996 Y161.573 E13.41638
G1 X147.650 Y160.965 E13.49939
G1 X147.448 Y160.296 E13.58240
G1 X147.400 Y159.599 E13.66541
G1 X147.508 Y158.908 E13.74842
G1 X147.767 Y158.259 E13.83142
G1 X148.164 Y157.684 E13.91443
G1 X148.679 Y157.212 E13.99744
G1 X149.286 Y156.866 E14.08045
G1 X149.980 Y156.656 E14.16652
G1 X149.371 Y156.229 E14.25481
G1 X148.771 Y155.629 E14.35560
G1 X148.344 Y155.020 E14.44389
G1 X148.134 Y155.714 E14.52996
G1 X147.783 Y156.331 E14.61433
G1 X147.270 Y156.868 E14.70254
G1 X146.741 Y157.233 E14.77887
G1 X146.092 Y157.492 E14.86188
G1 X145.390 Y157.602 E14.94625
G1 X144.650 Y157.536 E15.03446
G1 X144.035 Y157.350 E15.11079
G1 X143.427 Y157.004 E15.19380
G1 X142.912 Y156.531 E15.27681
G1 X142.515 Y155.956 E15.35982
G1 X142.269 Y155.338 E15.43890
G1 X142.021 Y154.196 E15.57763
G1 X141.899 Y153.068 E15.71245
G1 X141.899 Y151.932 E15.84727
G1 X142.021 Y150.804 E15.98209
G1 X142.269 Y149.662 E16.12081
G1 X142.515 Y149.044 E16.19990
G1 X142.912 Y148.469 E16.28291
G1 X143.427 Y147.996 E16.36592
G1 X144.045 Y147.644 E16.45029
G1 X144.760 Y147.444 E16.53850
G1 X145.401 Y147.400 E16.61483
G1 X146.092 Y147.508 E16.69784
G1 X146.741 Y147.767 E16.78084
G1 X147.316 Y148.164 E16.86385
G1 X147.788 Y148.679 E16.94686
G1 X148.134 Y149.286 E17.02987
G1 X148.344 Y149.980 E17.11594
G1 X148.771 Y149.371 E17.20423
G1 X149.371 Y148.771 E17.30502
G1 X149.980 Y148.344 E17.39332
G1 X149.286 Y148.134 E17.47939
G1 X148.679 Y147.788 E17.56239
G1 X148.164 Y147.316 E17.64540
G1 X147.767 Y146.741 E17.72841
G1 X147.508 Y146.092 E17.81142
G1 X147.398 Y145.390 E17.89579
G1 X147.464 Y144.650 E17.98400
G1 X147.650 Y144.035 E18.06033
G1 X148.002 Y143.418 E18.14470
G1 X148.515 Y142.881 E18.23291
G1 X149.044 Y142.515 E18.30924
G1 X149.662 Y142.269 E18.38833
G1 X150.804 Y142.021 E18.52705
G1 X151.932 Y141.899 E18.66187
G1 X153.068 Y141.899 E18.79669
G1 X154.194 Y142.020 E18.93119
G1 X155.308 Y142.257 E19.06654
G1 X155.956 Y142.515 E19.14937
G1 X156.531 Y142.912 E19.23238
G1 X157.004 Y143.427 E19.31539
G1 X157.350 Y144.035 E19.39840
G1 X157.552 Y144.704 E19.48141
G1 X157.600 Y145.401 E19.56441
G1 X157.492 Y146.092 E19.64742
G1 X157.233 Y146.741 E19.73043
G1 X156.836 Y147.316 E19.81344
G1 X156.321 Y147.788 E19.89645
G1 X155.714 Y148.134 E19.97946
G1 X155.020 Y148.344 E20.06553
G1 X155.629 Y148.771 E20.15382
G1 X156.229 Y149.371 E20.25461
G1 X156.656 Y149.980 E20.34290
G1 X156.866 Y149.286 E20.42897
G1 X157.212 Y148.679 E20.51198
G1 X157.684 Y148.164 E20.59499
G1 X158.269 Y147.760 E20.67936
G1 X158.964 Y147.499 E20.76757
G1 X159.599 Y147.400 E20.84390
G1 X160.296 Y147.448 E20.92691
G1 X160.965 Y147.650 E21.00992
G1 X161.573 Y147.996 E21.09292
G1 X162.088 Y148.469 E21.17593
G1 X162.485 Y149.044 E21.25894
G1 X162.731 Y149.662 E21.33803
G1 X162.979 Y150.804 E21.47675
G1 X163.101 Y151.932 E21.61157
G1 X163.101 Y153.068 E21.74639
G1 X162.979 Y154.196 E21.88121
G1 X162.731 Y155.338 E22.01994
G1 X162.485 Y155.956 E22.09902
G1 X162.119 Y156.485 E22.17536
G1 X161.582 Y156.998 E22.26356
G1 X160.965 Y157.350 E22.34793
G1 X160.296 Y157.552 E22.43094
G1 X159.599 Y157.600 E22.51395
G1 X158.908 Y157.492 E22.59696
G1 X158.259 Y157.233 E22.67997
G1 X157.684 Y156.836 E22.76298
G1 X157.212 Y156.321 E22.84598
G1 X156.866 Y155.714 E22.92899
G1 X156.656 Y155.020 E23.01506
G1 X156.229 Y155.629 E23.10336
G1 X155.629 Y156.229 E23.20415
G1 X155.070 Y156.621 E23.28531
G1 X154.915 Y157.370 F7800.000
G1 X155.430 Y157.526 E23.34921 F1800.000
G1 X155.898 Y157.792 E23.41310
G1 X156.294 Y158.156 E23.47700
G1 X156.600 Y158.599 E23.54090
G1 X156.801 Y159.102 E23.60528
G1 X156.879 Y159.679 E23.67437
G1 X156.845 Y160.167 E23.73246
G1 X156.690 Y160.682 E23.79636
G1 X156.423 Y161.149 E23.86025
G1 X156.060 Y161.545 E23.92415
G1 X155.617 Y161.851 E23.98804
G1 X155.128 Y162.046 E24.05053
G1 X154.082 Y162.273 E24.17767
G1 X153.029 Y162.386 E24.30341
G1 X151.971 Y162.386 E24.42915
G1 X150.918 Y162.273 E24.55488
G1 X149.872 Y162.046 E24.68202
G1 X149.383 Y161.851 E24.74451
G1 X148.940 Y161.545 E24.80840
G1 X148.577 Y161.149 E24.87230
G1 X148.310 Y160.682 E24.93620
G1 X148.155 Y160.167 E25.00009
G1 X148.118 Y159.630 E25.06399
G1 X148.201 Y159.098 E25.12788
G1 X148.400 Y158.599 E25.19178
G1 X148.706 Y158.156 E25.25567
G1 X149.102 Y157.792 E25.31957
G1 X149.570 Y157.526 E25.38346
G1 X150.085 Y157.370 E25.44736
G1 X150.621 Y157.333 E25.51125 F1800.000
G1 X151.117 Y157.411 E25.57087
G1 X151.820 Y157.554 E25.65606
G1 X152.500 Y157.599 E25.73698
G1 X153.180 Y157.554 E25.81797
G1 X154.379 Y157.333 E25.96268
G1 X154.856 Y157.366 E26.01945
G1 X155.186 Y157.075 F7800.000
G1 X154.366 Y156.193 F7800.000
G1 X153.920 Y156.401 E26.07797 F1800.000
G1 X153.221 Y156.588 E26.16391
G1 X152.500 Y156.652 E26.24986
G1 X151.779 Y156.588 E26.33580
G1 X151.080 Y156.401 E26.42175
G1 X150.424 Y156.095 E26.50769
G1 X149.831 Y155.680 E26.59364
G1 X149.320 Y155.169 E26.67958
G1 X148.886 Y154.549 E26.76935
G1 X148.598 Y153.918 E26.85174
G1 X148.412 Y153.221 E26.93748
G1 X148.348 Y152.500 E27.02342
G1 X148.412 Y151.779 E27.10937
G1 X148.599 Y151.080 E27.19532
G1 X148.905 Y150.424 E27.28126
G1 X149.320 Y149.831 E27.36721
G1 X149.831 Y149.320 E27.45315
G1 X150.424 Y148.905 E27.53910
G1 X151.080 Y148.599 E27.62504
G1 X151.779 Y148.412 E27.71099
G1 X152.432 Y148.354 E27.78879 F1800.000
G1 X153.218 Y148.411 E27.88239
G1 X153.920 Y148.599 E27.96872
G1 X154.576 Y148.905 E28.05466
G1 X155.169 Y149.320 E28.14061
G1 X155.680 Y149.831 E28.22656
G1 X156.056 Y150.368 E28.30436
G1 X156.400 Y151.077 E28.39796
G1 X156.588 Y151.779 E28.48429
G1 X156.652 Y152.500 E28.57023
G1 X156.588 Y153.221 E28.65618
G1 X156.401 Y153.920 E28.74212
G1 X156.095 Y154.576 E28.82807
G1 X155.680 Y155.169 E28.91401
G1 X155.169 Y155.680 E28.99996
G1 X154.576 Y156.095 E29.08590
G1 X154.421 Y156.168 E29.10621
G1 X154.332 Y156.591 F7800.000
G1 E27.10621 F2400.00000
G92 E0
G1 X156.747 Y150.402 F7800.000
G1 X156.513 Y149.073 F7800.000
G1 X155.930 Y148.487 F7800.000
G1 X155.802 Y148.469 F7800.000
G1 X155.063 Y148.351 F7800.000
G1 X155.024 Y148.224 F7800.000
G1 X154.379 Y147.667 F7800.000
G1 E2.00000 F2400.00000
G1 X153.883 Y147.589 E2.05962 F1800.000
G1 X153.180 Y147.446 E2.14480
G1 X152.500 Y147.401 E2.22573
G1 X151.820 Y147.446 E2.30666
G1 X151.117 Y147.589 E2.39184
G1 X150.621 Y147.667 E2.45146
G1 X150.085 Y147.630 E2.51536
G1 X149.570 Y147.474 E2.57925
G1 X149.102 Y147.208 E2.64315
G1 X148.706 Y146.844 E2.70704
G1 X148.400 Y146.401 E2.77094
G1 X148.201 Y145.902 E2.83484
G1 X148.117 Y145.366 E2.89922
G1 X148.169 Y144.787 E2.96831
G1 X148.310 Y144.318 E3.02640
G1 X148.579 Y143.847 E3.09079
G1 X148.981 Y143.427 E3.15988
G1 X149.383 Y143.149 E3.21797
G1 X149.872 Y142.954 E3.28046
G1 X150.918 Y142.727 E3.40759
G1 X151.971 Y142.614 E3.53333
G1 X153.029 Y142.614 E3.65907 F1800.000
G1 X154.081 Y142.727 E3.78469
G1 X155.100 Y142.943 E3.90845
G1 X155.617 Y143.149 E3.97448
G1 X156.060 Y143.455 E4.03838
G1 X156.423 Y143.851 E4.10227
G1 X156.690 Y144.318 E4.16617
G1 X156.845 Y144.833 E4.23006
G1 X156.882 Y145.370 E4.29396
G1 X156.799 Y145.902 E4.35786
G1 X156.600 Y146.401 E4.42175
G1 X156.294 Y146.844 E4.48565
G1 X155.898 Y147.208 E4.54954
G1 X155.430 Y147.474 E4.61344
G1 X154.915 Y147.630 E4.67733
G1 X154.439 Y147.663 E4.73410
G1 X154.152 Y147.996 F7800.000
G1 X147.525 Y149.739 F7800.000
G1 X147.630 Y150.085 E4.77703 F1800.000
G1 X147.667 Y150.621 E4.84093
G1 X147.589 Y151.117 E4.90055
G1 X147.446 Y151.820 E4.98573
G1 X147.401 Y152.500 E5.06666
G1 X147.446 Y153.180 E5.14759
G1 X147.589 Y153.883 E5.23277
G1 X147.667 Y154.379 E5.29239
G1 X147.630 Y154.915 E5.35629
G1 X147.474 Y155.430 E5.42018
G1 X147.206 Y155.901 E5.48456
G1 X146.804 Y156.322 E5.55366
G1 X146.401 Y156.600 E5.61175
G1 X145.902 Y156.799 E5.67564
G1 X145.366 Y156.883 E5.74003
G1 X144.787 Y156.831 E5.80912
G1 X144.318 Y156.690 E5.86721
G1 X143.851 Y156.423 E5.93110
G1 X143.455 Y156.060 E5.99500
G1 X143.149 Y155.617 E6.05890
G1 X142.954 Y155.128 E6.12138
G1 X142.727 Y154.082 E6.24852
G1 X142.614 Y153.029 E6.37426
G1 X142.614 Y151.971 E6.50000
G1 X142.727 Y150.918 E6.62574
G1 X142.954 Y149.872 E6.75287
G1 X143.149 Y149.383 E6.81536
G1 X143.455 Y148.940 E6.87926
G1 X143.851 Y148.577 E6.94315
G1 X144.322 Y148.308 E7.00754
G1 X144.882 Y148.151 E7.07663
G1 X145.370 Y148.118 E7.13472 F1800.000
G1 X145.902 Y148.201 E7.19861
G1 X146.401 Y148.400 E7.26251
G1 X146.844 Y148.706 E7.32640
G1 X147.208 Y149.102 E7.39030
G1 X147.474 Y149.570 E7.45419
G1 X147.508 Y149.681 E7.46803
G1 X147.877 Y149.821 F7800.000
G1 X148.253 Y150.402 F7800.000
G1 X148.244 Y148.244 F7800.000
G1 X144.513 Y144.513 F7800.000
G1 X149.964 Y134.142 F7800.000
G1 X161.159 Y142.897 F7800.000
G1 X157.347 Y147.653 F7800.000
G1 X156.513 Y149.070 F7800.000
G1 X156.646 Y149.916 F7800.000
G1 X156.686 Y150.075 F7800.000
G1 X156.689 Y150.090 F7800.000
G1 X156.747 Y150.402 F7800.000
G1 X157.347 Y150.419 F7800.000
G1 X157.370 Y150.085 E7.50780 F1800.000
G1 X157.526 Y149.570 E7.57170
G1 X157.792 Y149.102 E7.63560
G1 X158.156 Y148.706 E7.69949
G1 X158.602 Y148.398 E7.76387
G1 X159.147 Y148.193 E7.83297
G1 X159.630 Y148.118 E7.89106 F1800.000
G1 X160.167 Y148.155 E7.95495
G1 X160.682 Y148.310 E8.01885
G1 X161.149 Y148.577 E8.08274
G1 X161.545 Y148.940 E8.14664
G1 X161.851 Y149.383 E8.21053
G1 X162.046 Y149.872 E8.27302
G1 X162.273 Y150.918 E8.40016
G1 X162.386 Y151.971 E8.52590
G1 X162.386 Y153.029 E8.65163
G1 X162.273 Y154.082 E8.77737
G1 X162.046 Y155.128 E8.90451
G1 X161.851 Y155.617 E8.96700
G1 X161.573 Y156.019 E9.02509
G1 X161.153 Y156.421 E9.09418
G1 X160.682 Y156.690 E9.15857
G1 X160.167 Y156.845 E9.22246
G1 X159.630 Y156.882 E9.28636
G1 X159.098 Y156.799 E9.35025
G1 X158.599 Y156.600 E9.41415
G1 X158.156 Y156.294 E9.47804
G1 X157.792 Y155.898 E9.54194
G1 X157.526 Y155.430 E9.60583
G1 X157.370 Y154.915 E9.66973
G1 X157.333 Y154.379 E9.73362
G1 X157.411 Y153.883 E9.79324
G1 X157.554 Y153.180 E9.87843
G1 X157.599 Y152.500 E9.95935
G1 X157.554 Y151.820 E10.04028
G1 X157.411 Y151.117 E10.12547
G1 X157.333 Y150.621 E10.18509
G1 X157.343 Y150.479 E10.20208
G1 X157.069 Y150.232 F7800.000
G1 X164.421 Y126.932 F7800.000
G1 X164.420 Y178.066 E16.27510 F1800.000
