; generated by Slic3r 1.2.9 on 2018-04-14 at 23:27:37

; external perimeters extrusion width = 0.40mm
; perimeters extrusion width = 0.67mm
; infill extrusion width = 0.67mm
; solid infill extrusion width = 0.67mm
; top infill extrusion width = 0.67mm
; support material extrusion width = 0.40mm

M107
M190 S80 ; set bed temperature
M104 S210 ; set temperature
G28 ; home all axes
G1 Z5 F5000 ; lift nozzle

M109 S210 ; wait for temperature to be reached
G21 ; set units to millimeters
G90 ; use absolute coordinates
M82 ; use absolute distances for extrusion
G92 E0
G1 Z0.400 F7800.000
G1 E-2.00000 F2400.00000
G92 E0
G1 X134.722 Y95.688 F7800.000
G1 E2.00000 F2400.00000
G1 X134.880 Y95.474 E2.03164 F1800.000
G1 X135.532 Y94.715 E2.15040
G1 X135.849 Y94.409 E2.20271
G1 X136.056 Y94.221 E2.23597
G1 X136.802 Y93.635 E2.34861
G1 X137.351 Y93.288 E2.42575
G1 X137.577 Y93.159 E2.45670
G1 X138.350 Y92.781 E2.55884
G1 X138.739 Y92.621 E2.60887
G1 X139.446 Y92.376 E2.69768
G1 X140.402 Y92.126 E2.81509
G1 X141.077 Y92.007 E2.89651
G1 X141.547 Y91.960 E2.95262
G1 X142.320 Y91.924 E3.04444
G1 X162.578 Y91.948 E5.45037
G1 X163.086 Y91.954 E5.51071 F1800.000
G1 X164.237 Y92.062 E5.64806
G1 X164.851 Y92.186 E5.72249
G1 X165.833 Y92.454 E5.84337
G1 X166.608 Y92.759 E5.94220
G1 X167.043 Y92.962 E5.99924
G1 X167.816 Y93.387 E6.10404
G1 X168.526 Y93.880 E6.20672
G1 X169.285 Y94.531 E6.32547
G1 X169.779 Y95.056 E6.41105
G1 X170.365 Y95.802 E6.52367
G1 X170.841 Y96.577 E6.63175
G1 X171.219 Y97.350 E6.73390
G1 X171.379 Y97.739 E6.78393
G1 X171.624 Y98.446 E6.87272
G1 X171.874 Y99.402 E6.99014
G1 X172.003 Y100.151 E7.08041
G1 X172.062 Y100.871 E7.16622
G1 X172.076 Y101.312 E7.21852
G1 X172.076 Y203.689 E19.37735
G1 X172.056 Y204.267 E19.44602
G1 X171.975 Y205.048 E19.53932
G1 X171.774 Y206.042 E19.65977
G1 X171.660 Y206.464 E19.71164
G1 X171.434 Y207.149 E19.79734
G1 X171.260 Y207.577 E19.85220
G1 X171.151 Y207.822 E19.88406
G1 X170.768 Y208.559 E19.98275
G1 X170.442 Y209.082 E20.05592
G1 X169.789 Y209.932 E20.18323
G1 X169.601 Y210.140 E20.21651
G1 X169.294 Y210.460 E20.26913
G1 X168.536 Y211.113 E20.38801
G1 X167.976 Y211.514 E20.46983
G1 X167.130 Y212.001 E20.58579
G1 X166.507 Y212.290 E20.66731
G1 X165.696 Y212.591 E20.77001
G1 X164.797 Y212.834 E20.88066
G1 X164.036 Y212.972 E20.97251
G1 X163.309 Y213.050 E21.05935
G1 X162.602 Y213.083 E21.14338
G1 X142.359 Y213.051 E23.54755
G1 X141.914 Y213.046 E23.60037
G1 X140.970 Y212.970 E23.71287
G1 X140.149 Y212.814 E23.81219
G1 X139.167 Y212.546 E23.93306
G1 X138.392 Y212.241 E24.03189
G1 X137.957 Y212.038 E24.08893
G1 X137.184 Y211.613 E24.19374
G1 X136.688 Y211.278 E24.26479
G1 X136.474 Y211.120 E24.29643
G1 X135.715 Y210.468 E24.41520
G1 X135.221 Y209.944 E24.50075
G1 X134.635 Y209.198 E24.61340
G1 X134.159 Y208.423 E24.72145
G1 X133.781 Y207.650 E24.82361
G1 X133.621 Y207.261 E24.87363
G1 X133.376 Y206.554 E24.96242
G1 X133.253 Y206.124 E25.01553
G1 X133.126 Y205.598 E25.07988
G1 X133.007 Y204.923 E25.16129
G1 X132.960 Y204.453 E25.21740
G1 X132.924 Y203.687 E25.30845
G1 X132.954 Y100.914 E37.51423
G1 X133.062 Y99.763 E37.65158
G1 X133.186 Y99.149 E37.72602
G1 X133.454 Y98.167 E37.84689
G1 X133.759 Y97.392 E37.94572
G1 X133.962 Y96.957 E38.00276
G1 X134.387 Y96.184 E38.10757
G1 X134.688 Y95.737 E38.17149
G1 E36.17149 F2400.00000
G92 E0
G1 X163.136 Y195.051 F7800.000
G1 E2.00000 F2400.00000
G1 X160.180 Y195.051 E2.35115 F1800.000
G1 X160.180 Y199.176 E2.84096
G1 X160.106 Y199.786 E2.91403
G1 X159.879 Y200.384 E2.98998
G1 X159.515 Y200.911 E3.06594
G1 X159.037 Y201.335 E3.14190
G1 X158.470 Y201.632 E3.21785
G1 X157.850 Y201.785 E3.29381
G1 X157.210 Y201.785 E3.36977
G1 X156.589 Y201.632 E3.44572
G1 X156.021 Y201.334 E3.52190
G1 X155.531 Y200.891 E3.60036
G1 X155.181 Y200.384 E3.67352
G1 X154.954 Y199.786 E3.74948
G1 X154.880 Y199.176 E3.82254
G1 X154.880 Y195.051 E4.31235
G1 X150.185 Y195.051 E4.86995
G1 X150.185 Y199.176 E5.35976
G1 X150.111 Y199.786 E5.43283
G1 X149.884 Y200.384 E5.50878
G1 X149.520 Y200.911 E5.58474
G1 X149.042 Y201.335 E5.66070
G1 X148.475 Y201.632 E5.73665
G1 X147.855 Y201.785 E5.81261
G1 X147.215 Y201.785 E5.88857
G1 X146.592 Y201.632 E5.96474
G1 X146.010 Y201.319 E6.04320
G1 X145.549 Y200.911 E6.11636
G1 X145.186 Y200.384 E6.19232
G1 X144.959 Y199.786 E6.26828
G1 X144.885 Y199.176 E6.34134
G1 X144.885 Y195.051 E6.83115
G1 X141.922 Y195.051 E7.18296
G1 X141.896 Y150.651 E12.45614
G1 X144.885 Y150.651 E12.81112
G1 X144.885 Y146.527 E13.30093
G1 X144.959 Y145.915 E13.37421
G1 X145.199 Y145.299 E13.45268
G1 X145.549 Y144.792 E13.52583
G1 X146.028 Y144.368 E13.60179
G1 X146.594 Y144.071 E13.67775
G1 X147.215 Y143.918 E13.75370
G1 X147.855 Y143.918 E13.82966
G1 X148.475 Y144.071 E13.90562
G1 X149.042 Y144.368 E13.98157
G1 X149.520 Y144.792 E14.05753
G1 X149.884 Y145.319 E14.13349
G1 X150.111 Y145.917 E14.20944
G1 X150.185 Y146.527 E14.28250
G1 X150.185 Y150.651 E14.77232
G1 X154.880 Y150.651 E15.32992
G1 X154.880 Y146.527 E15.81973
G1 X154.954 Y145.917 E15.89279
G1 X155.181 Y145.319 E15.96875
G1 X155.544 Y144.792 E16.04470
G1 X156.024 Y144.367 E16.12088
G1 X156.612 Y144.065 E16.19935
G1 X157.210 Y143.918 E16.27250
G1 X157.850 Y143.918 E16.34846
G1 X158.470 Y144.071 E16.42442
G1 X159.037 Y144.368 E16.50037
G1 X159.515 Y144.792 E16.57633
G1 X159.879 Y145.319 E16.65229
G1 X160.106 Y145.917 E16.72824
G1 X160.180 Y146.527 E16.80130
G1 X160.180 Y150.651 E17.29112
G1 X163.142 Y150.651 E17.64296
G1 X163.136 Y194.991 E22.90901
G1 X163.136 Y195.451 F7800.000
G1 E20.90901 F2400.00000
G92 E0
G1 X160.780 Y150.051 F7800.000
G1 X162.185 Y143.816 F7800.000
G1 X160.600 Y121.141 F7800.000
G1 X157.762 Y116.226 F7800.000
G1 X156.511 Y114.975 F7800.000
G1 X155.966 Y115.033 F7800.000
G1 X155.316 Y115.113 F7800.000
G1 X154.974 Y115.199 F7800.000
G1 X155.107 Y115.133 F7800.000
G1 E2.00000 F2400.00000
G1 X156.073 Y115.527 E2.12387 F1800.000
G1 X156.723 Y116.020 E2.22072
G1 X157.223 Y116.664 E2.31757
G1 X157.539 Y117.416 E2.41442
G1 X157.650 Y118.224 E2.51127
G1 X157.548 Y119.033 E2.60812
G1 X157.240 Y119.788 E2.70497
G1 X156.748 Y120.438 E2.80182
G1 X156.104 Y120.938 E2.89867
G1 X155.392 Y121.237 E2.99033
G1 X154.240 Y121.487 E3.13030
G1 X153.112 Y121.608 E3.26512
G1 X151.977 Y121.608 E3.39994
G1 X150.848 Y121.487 E3.53476
G1 X149.696 Y121.237 E3.67474
G1 X148.985 Y120.938 E3.76640
G1 X148.341 Y120.437 E3.86325
G1 X147.848 Y119.788 E3.96010
G1 X147.540 Y119.033 E4.05694
G1 X147.438 Y118.223 E4.15379
G1 X147.549 Y117.416 E4.25064
G1 X147.866 Y116.664 E4.34749
G1 X148.366 Y116.020 E4.44434
G1 X149.016 Y115.527 E4.54119
G1 X149.928 Y115.155 E4.65827
G1 X149.020 Y114.368 E4.80101
G1 X148.410 Y113.592 E4.91825
G1 X148.025 Y114.537 E5.03939
G1 X147.532 Y115.186 E5.13624
G1 X146.888 Y115.686 E5.23309
G1 X146.136 Y116.003 E5.32994
G1 X145.329 Y116.114 E5.42679
G1 X144.519 Y116.012 E5.52364
G1 X143.764 Y115.704 E5.62049
G1 X143.115 Y115.211 E5.71734
G1 X142.615 Y114.567 E5.81418
G1 X142.315 Y113.856 E5.90585
G1 X142.065 Y112.704 E6.04582
G1 X141.944 Y111.575 E6.18064
G1 X141.944 Y110.440 E6.31546
G1 X142.065 Y109.312 E6.45028
G1 X142.315 Y108.160 E6.59025
G1 X142.615 Y107.449 E6.68191
G1 X143.115 Y106.804 E6.77876
G1 X143.764 Y106.312 E6.87561
G1 X144.519 Y106.004 E6.97246
G1 X145.302 Y105.905 E7.06616
G1 X146.131 Y106.011 E7.16541
G1 X146.888 Y106.329 E7.26293
G1 X147.532 Y106.829 E7.35978
G1 X148.025 Y107.479 E7.45663
G1 X148.410 Y108.424 E7.57777
G1 X149.020 Y107.648 E7.69501
G1 X149.928 Y106.861 E7.83774
G1 X149.016 Y106.489 E7.95483
G1 X148.366 Y105.996 E8.05168
G1 X147.866 Y105.352 E8.14853
G1 X147.549 Y104.600 E8.24538
G1 X147.438 Y103.792 E8.34223
G1 X147.540 Y102.983 E8.43907
G1 X147.848 Y102.228 E8.53592
G1 X148.341 Y101.578 E8.63277
G1 X148.985 Y101.078 E8.72962
G1 X149.696 Y100.779 E8.82129
G1 X150.848 Y100.529 E8.96126
G1 X151.977 Y100.407 E9.09608
G1 X153.112 Y100.407 E9.23090
G1 X154.241 Y100.529 E9.36572
G1 X155.392 Y100.779 E9.50569
G1 X156.104 Y101.078 E9.59735
G1 X156.748 Y101.578 E9.69420
G1 X157.240 Y102.228 E9.79105
G1 X157.548 Y102.983 E9.88790
G1 X157.650 Y103.792 E9.98475
G1 X157.539 Y104.600 E10.08160
G1 X157.223 Y105.352 E10.17845
G1 X156.723 Y105.996 E10.27530
G1 X156.073 Y106.489 E10.37214
G1 X155.107 Y106.882 E10.49602
G1 X155.733 Y107.328 E10.58727
G1 X156.372 Y107.998 E10.69721
G1 X156.666 Y108.455 E10.76178
G1 X157.063 Y107.479 E10.88697
G1 X157.556 Y106.829 E10.98381
G1 X158.200 Y106.329 E11.08066
G1 X158.952 Y106.013 E11.17751
G1 X159.760 Y105.902 E11.27436
G1 X160.569 Y106.004 E11.37121
G1 X161.324 Y106.312 E11.46806
G1 X161.974 Y106.804 E11.56491
G1 X162.474 Y107.449 E11.66176
G1 X162.773 Y108.160 E11.75342
G1 X163.024 Y109.312 E11.89339
G1 X163.145 Y110.440 E12.02821
G1 X163.145 Y111.575 E12.16303
G1 X163.024 Y112.704 E12.29785
G1 X162.773 Y113.856 E12.43782
G1 X162.474 Y114.567 E12.52949
G1 X161.974 Y115.211 E12.62634
G1 X161.324 Y115.704 E12.72319
G1 X160.569 Y116.012 E12.82004
G1 X159.760 Y116.114 E12.91688
G1 X158.952 Y116.003 E13.01373
G1 X158.200 Y115.686 E13.11058
G1 X157.556 Y115.186 E13.20743
G1 X157.063 Y114.537 E13.30428
G1 X156.666 Y113.560 E13.42947
G1 X156.372 Y114.018 E13.49404
G1 X155.733 Y114.688 E13.60398
G1 X155.156 Y115.099 E13.68810
G1 X155.018 Y115.902 F7800.000
G1 X155.133 Y115.915 E13.70189 F1800.000
G1 X155.716 Y116.153 E13.77665
G1 X156.216 Y116.532 E13.85117
G1 X156.601 Y117.028 E13.92568
G1 X156.844 Y117.606 E14.00020
G1 X156.930 Y118.228 E14.07472
G1 X156.851 Y118.850 E14.14923
G1 X156.615 Y119.431 E14.22375
G1 X156.235 Y119.931 E14.29827
G1 X155.740 Y120.316 E14.37278
G1 X155.176 Y120.553 E14.44544
G1 X154.126 Y120.781 E14.57302
G1 X153.074 Y120.894 E14.69876
G1 X152.015 Y120.894 E14.82450
G1 X150.962 Y120.781 E14.95024
G1 X149.912 Y120.553 E15.07782
G1 X149.349 Y120.316 E15.15048
G1 X148.853 Y119.931 E15.22499
G1 X148.474 Y119.431 E15.29951
G1 X148.237 Y118.850 E15.37403
G1 X148.159 Y118.228 E15.44854
G1 X148.244 Y117.606 E15.52306
G1 X148.487 Y117.028 E15.59758
G1 X148.872 Y116.532 E15.67209
G1 X149.372 Y116.153 E15.74661
G1 X149.953 Y115.916 E15.82113
G1 X150.576 Y115.838 E15.89564 F1800.000
G1 X151.158 Y115.918 E15.96543
G1 X151.864 Y116.061 E16.05106
G1 X152.544 Y116.107 E16.13198
G1 X153.224 Y116.061 E16.21291
G1 X153.931 Y115.918 E16.29854
G1 X154.490 Y115.841 E16.36560
G1 X154.958 Y115.895 E16.42160
G1 X155.087 Y115.809 F7800.000
G1 X154.459 Y114.677 F7800.000
G1 X153.902 Y114.931 E16.49426 F1800.000
G1 X153.135 Y115.117 E16.58801
G1 X152.347 Y115.155 E16.68175
G1 X151.565 Y115.043 E16.77549
G1 X150.819 Y114.784 E16.86924
G1 X150.136 Y114.390 E16.96298
G1 X149.539 Y113.873 E17.05672
G1 X149.051 Y113.253 E17.15046
G1 X148.690 Y112.551 E17.24421
G1 X148.467 Y111.794 E17.33795
G1 X148.392 Y111.008 E17.43169
G1 X148.467 Y110.222 E17.52543
G1 X148.690 Y109.465 E17.61918
G1 X149.051 Y108.763 E17.71292
G1 X149.539 Y108.143 E17.80666
G1 X150.136 Y107.626 E17.90040
G1 X150.821 Y107.230 E17.99432
G1 X151.595 Y106.969 E18.09139
G1 X152.347 Y106.861 E18.18157 F1800.000
G1 X153.135 Y106.898 E18.27532
G1 X153.902 Y107.084 E18.36906
G1 X154.620 Y107.412 E18.46280
G1 X155.263 Y107.870 E18.55654
G1 X155.808 Y108.441 E18.65029
G1 X156.234 Y109.105 E18.74403
G1 X156.528 Y109.838 E18.83777
G1 X156.677 Y110.613 E18.93151
G1 X156.677 Y111.403 E19.02526
G1 X156.528 Y112.178 E19.11900
G1 X156.234 Y112.910 E19.21274
G1 X155.808 Y113.574 E19.30649
G1 X155.263 Y114.146 E19.40023
G1 X154.620 Y114.603 E19.49397
G1 X154.513 Y114.652 E19.50793
G1 X154.421 Y115.075 F7800.000
G1 E17.50793 F2400.00000
G92 E0
G1 X156.790 Y108.878 F7800.000
G1 X156.598 Y107.767 F7800.000
G1 X156.090 Y107.003 F7800.000
G1 X155.382 Y106.914 F7800.000
G1 X155.289 Y106.685 F7800.000
G1 X154.513 Y106.178 F7800.000
G1 E2.00000 F2400.00000
G1 X153.931 Y106.098 E2.06978 F1800.000
G1 X153.224 Y105.954 E2.15541
G1 X152.544 Y105.909 E2.23634
G1 X151.864 Y105.954 E2.31727
G1 X151.158 Y106.098 E2.40290
G1 X150.576 Y106.178 E2.47268
G1 X149.953 Y106.100 E2.54720
G1 X149.372 Y105.863 E2.62171
G1 X148.872 Y105.484 E2.69623
G1 X148.487 Y104.988 E2.77075
G1 X148.244 Y104.410 E2.84526
G1 X148.159 Y103.788 E2.91978
G1 X148.237 Y103.166 E2.99430
G1 X148.474 Y102.585 E3.06881
G1 X148.853 Y102.085 E3.14333
G1 X149.349 Y101.700 E3.21785
G1 X149.912 Y101.463 E3.29050
G1 X150.962 Y101.234 E3.41809
G1 X152.015 Y101.121 E3.54383 F1800.000
G1 X153.074 Y101.121 E3.66956
G1 X154.126 Y101.234 E3.79530
G1 X155.176 Y101.463 E3.92289
G1 X155.740 Y101.700 E3.99554
G1 X156.235 Y102.085 E4.07006
G1 X156.615 Y102.585 E4.14457
G1 X156.851 Y103.166 E4.21909
G1 X156.930 Y103.788 E4.29361
G1 X156.844 Y104.410 E4.36812
G1 X156.601 Y104.988 E4.44264
G1 X156.216 Y105.484 E4.51716
G1 X155.716 Y105.863 E4.59167
G1 X155.135 Y106.100 E4.66619
G1 X154.572 Y106.170 E4.73358
G1 X154.296 Y106.514 F7800.000
G1 X147.636 Y108.417 F7800.000
G1 X147.714 Y109.039 E4.80810 F1800.000
G1 X147.634 Y109.621 E4.87788
G1 X147.491 Y110.328 E4.96351
G1 X147.445 Y111.008 E5.04444
G1 X147.491 Y111.688 E5.12536
G1 X147.634 Y112.394 E5.21099
G1 X147.714 Y112.976 E5.28078
G1 X147.636 Y113.599 E5.35529
G1 X147.399 Y114.180 E5.42981
G1 X147.020 Y114.680 E5.50433
G1 X146.524 Y115.065 E5.57884
G1 X145.946 Y115.308 E5.65336
G1 X145.324 Y115.393 E5.72788
G1 X144.702 Y115.315 E5.80239
G1 X144.121 Y115.078 E5.87691
G1 X143.621 Y114.699 E5.95143
G1 X143.236 Y114.203 E6.02594
G1 X142.999 Y113.640 E6.09860
G1 X142.771 Y112.590 E6.22618
G1 X142.658 Y111.537 E6.35192
G1 X142.658 Y110.479 E6.47766
G1 X142.771 Y109.426 E6.60340
G1 X142.999 Y108.376 E6.73098
G1 X143.236 Y107.812 E6.80364
G1 X143.621 Y107.317 E6.87815
G1 X144.121 Y106.937 E6.95267
G1 X144.702 Y106.701 E7.02719
G1 X145.302 Y106.625 E7.09898 F1800.000
G1 X145.944 Y106.707 E7.17590
G1 X146.524 Y106.951 E7.25066
G1 X147.020 Y107.336 E7.32517
G1 X147.399 Y107.836 E7.39969
G1 X147.613 Y108.361 E7.46708
G1 X148.017 Y108.539 F7800.000
G1 E5.46708 F2400.00000
G92 E0
G1 X148.302 Y108.907 F7800.000
G1 X148.567 Y107.305 F7800.000
G1 X148.604 Y107.068 F7800.000
G1 X149.596 Y106.916 F7800.000
G1 X149.786 Y107.135 F7800.000
G1 X157.374 Y109.039 F7800.000
G1 E2.00000 F2400.00000
G1 X157.453 Y108.417 E2.07452 F1800.000
G1 X157.689 Y107.836 E2.14903
G1 X158.068 Y107.336 E2.22355
G1 X158.564 Y106.951 E2.29807
G1 X159.142 Y106.708 E2.37258
G1 X159.648 Y106.638 E2.43320
G1 X159.764 Y106.622 E2.44710 F1800.000
G1 X160.386 Y106.701 E2.52162
G1 X160.967 Y106.937 E2.59613
G1 X161.467 Y107.317 E2.67065
G1 X161.852 Y107.812 E2.74516
G1 X162.089 Y108.376 E2.81782
G1 X162.318 Y109.426 E2.94541
G1 X162.431 Y110.478 E3.07114
G1 X162.431 Y111.537 E3.19688
G1 X162.318 Y112.590 E3.32262
G1 X162.089 Y113.640 E3.45020
G1 X161.852 Y114.203 E3.52286
G1 X161.467 Y114.699 E3.59738
G1 X160.967 Y115.078 E3.67189
G1 X160.386 Y115.315 E3.74641
G1 X159.764 Y115.393 E3.82093
G1 X159.142 Y115.308 E3.89544
G1 X158.564 Y115.065 E3.96996
G1 X158.068 Y114.680 E4.04447
G1 X157.689 Y114.180 E4.11899
G1 X157.461 Y113.620 E4.19079
G1 X157.374 Y112.978 E4.26770
G1 X157.454 Y112.394 E4.33773
G1 X157.598 Y111.688 E4.42336
G1 X157.643 Y111.008 E4.50428
G1 X157.598 Y110.328 E4.58521
G1 X157.454 Y109.621 E4.67084
G1 X157.382 Y109.099 E4.73350
G1 X157.036 Y108.826 F7800.000
G1 E2.73350 F2400.00000
G92 E0
G1 X150.429 Y106.764 F7800.000
G1 X148.578 Y107.041 F7800.000
G1 X147.886 Y106.349 F7800.000
G1 X147.326 Y105.790 F7800.000
G1 X147.326 Y105.790 F7800.000
G1 X147.166 Y105.630 F7800.000
G1 X147.238 Y105.702 F7800.000
G1 E2.00000 F2400.00000
G1 X146.318 Y105.315 E2.11854 F1800.000
G1 X145.303 Y105.185 E2.24012
G1 X144.337 Y105.307 E2.35573
G1 X143.408 Y105.686 E2.47491
G1 X142.608 Y106.292 E2.59409
G1 X141.993 Y107.085 E2.71327
G1 X141.839 Y107.450 E2.76029
G1 X141.495 Y107.380 E2.80194
G1 X141.496 Y101.131 E3.54417
G1 X141.547 Y100.924 E3.56947
G1 X141.666 Y100.654 E3.60451
G1 X141.893 Y100.561 E3.63358
G1 X142.235 Y100.473 E3.67555
G1 X142.374 Y100.492 E3.69219
G1 X148.101 Y100.493 E4.37244
G1 X148.201 Y100.783 E4.40879
G1 X147.829 Y101.072 E4.46475
G1 X147.222 Y101.871 E4.58393
G1 X146.843 Y102.801 E4.70311
G1 X146.718 Y103.796 E4.82229
