; generated by Slic3r 1.2.9 on 2018-04-15 at 12:18:51

; external perimeters extrusion width = 0.40mm
; perimeters extrusion width = 0.67mm
; infill extrusion width = 0.67mm
; solid infill extrusion width = 0.67mm
; top infill extrusion width = 0.67mm
; support material extrusion width = 0.40mm

M107
M190 S80 ; set bed temperature
M104 S210 ; set temperature
G28 ; home all axes
G1 Z5 F5000 ; lift nozzle

M109 S210 ; wait for temperature to be reached
G21 ; set units to millimeters
G90 ; use absolute coordinates
M82 ; use absolute distances for extrusion
G92 E0
G1 Z0.400 F7800.000
G1 E-2.00000 F2400.00000
G92 E0
G1 X134.094 Y111.794 F7800.000
G1 E2.00000 F2400.00000
G1 X134.979 Y110.839 E2.15462 F1800.000
G1 X135.147 Y110.689 E2.18139
G1 X136.165 Y109.943 E2.33121
G1 X136.376 Y109.816 E2.36052
G1 X137.374 Y109.327 E2.49250
G1 X137.645 Y109.222 E2.52699
G1 X138.584 Y108.932 E2.64370
G1 X139.229 Y108.806 E2.72177
G1 X140.452 Y108.700 E2.86756
G1 X165.369 Y108.699 E5.82690
G1 X166.135 Y108.742 E5.91801
G1 X167.545 Y109.042 E6.08917 F1800.000
G1 X167.697 Y109.092 E6.10820
G1 X169.604 Y110.077 E6.36312
G1 X169.793 Y110.216 E6.39097
G1 X170.854 Y111.196 E6.56246
G1 X170.904 Y111.254 E6.57160
G1 X172.152 Y113.362 E6.86261
G1 X172.244 Y113.612 E6.89418
G1 X172.635 Y115.430 E7.11506
G1 X172.655 Y115.949 E7.17671
G1 X172.666 Y188.093 E15.74496
G1 X172.641 Y188.679 E15.81454
G1 X172.558 Y189.449 E15.90656
G1 X172.453 Y189.990 E15.97203
G1 X172.302 Y190.593 E16.04583
G1 X172.061 Y191.291 E16.13350
G1 X171.872 Y191.733 E16.19061
G1 X171.210 Y192.884 E16.34839
G1 X170.702 Y193.536 E16.44646
G1 X169.297 Y194.819 E16.67243
G1 X168.801 Y195.132 E16.74208
G1 X168.333 Y195.391 E16.80567
G1 X167.028 Y195.915 E16.97263
G1 X166.121 Y196.147 E17.08381
G1 X165.326 Y196.262 E17.17919
G1 X164.455 Y196.308 E17.28279
G1 X139.644 Y196.300 E20.22947
G1 X138.714 Y196.235 E20.34018
G1 X138.414 Y196.188 E20.37624
G1 X137.991 Y196.105 E20.42747
G1 X135.865 Y195.233 E20.70036
G1 X135.655 Y195.101 E20.72980
G1 X133.545 Y192.991 E21.08430
G1 X133.413 Y192.781 E21.11364
G1 X132.541 Y190.655 E21.38661
G1 X132.411 Y189.930 E21.47412
G1 X132.346 Y189.000 E21.58475
G1 X132.343 Y116.737 E30.16709
G1 X132.432 Y115.694 E30.29148
G1 X132.569 Y114.964 E30.37965
G1 X132.794 Y114.193 E30.47504
G1 X133.162 Y113.301 E30.58967
G1 X133.314 Y113.000 E30.62966
G1 X133.936 Y112.003 E30.76930
G1 X134.058 Y111.842 E30.79328
G1 E28.79328 F2400.00000
G92 E0
G1 X156.750 Y185.928 F7800.000
G1 E2.00000 F2400.00000
G1 X156.494 Y186.447 E2.06880 F1800.000
G1 X156.121 Y186.891 E2.13760
G1 X155.653 Y187.232 E2.20640
G1 X155.130 Y187.446 E2.27358
G1 X154.082 Y187.674 E2.40092
G1 X153.029 Y187.787 E2.52666
G1 X151.971 Y187.787 E2.65240
G1 X150.918 Y187.674 E2.77814
G1 X149.867 Y187.445 E2.90584
G1 X149.318 Y187.211 E2.97673
G1 X148.879 Y186.891 E3.04135
G1 X148.506 Y186.447 E3.11015
G1 X148.250 Y185.928 E3.17895
G1 X148.126 Y185.362 E3.24775
G1 X148.141 Y184.783 E3.31655
G1 X148.294 Y184.224 E3.38535
G1 X148.576 Y183.718 E3.45415
G1 X148.971 Y183.295 E3.52295
G1 X149.456 Y182.978 E3.59174
G1 X150.003 Y182.787 E3.66054
G1 X150.580 Y182.732 E3.72934 F1800.000
G1 X151.116 Y182.811 E3.79365
G1 X151.820 Y182.954 E3.87904
G1 X152.500 Y182.999 E3.95997
G1 X153.180 Y182.954 E4.04090
G1 X153.884 Y182.811 E4.12629
G1 X154.385 Y182.737 E4.18642
G1 X154.994 Y182.786 E4.25894
G1 X155.544 Y182.978 E4.32810
G1 X156.029 Y183.295 E4.39690
G1 X156.424 Y183.718 E4.46569
G1 X156.708 Y184.227 E4.53486
G1 X156.860 Y184.818 E4.60737
G1 X156.874 Y185.362 E4.67199
G1 X156.763 Y185.869 E4.73366
G1 X156.999 Y186.241 F7800.000
G1 X156.418 Y182.832 F7800.000
G1 X156.446 Y181.847 F7800.000
G1 X156.000 Y181.893 F7800.000
G1 X155.617 Y181.971 F7800.000
G1 X155.365 Y181.694 F7800.000
G1 X154.351 Y181.617 F7800.000
G1 X153.636 Y181.894 E4.82465 F1800.000
G1 X152.883 Y182.034 E4.91565
G1 X152.117 Y182.034 E5.00664
G1 X151.364 Y181.894 E5.09763
G1 X150.649 Y181.617 E5.18862
G1 X149.998 Y181.213 E5.27961
G1 X149.432 Y180.697 E5.37060
G1 X148.970 Y180.086 E5.46159
G1 X148.628 Y179.398 E5.55286
G1 X148.414 Y178.615 E5.64924
G1 X148.348 Y177.900 E5.73448
G1 X148.419 Y177.137 E5.82547
G1 X148.629 Y176.401 E5.91646
G1 X148.970 Y175.715 E6.00745
G1 X149.432 Y175.103 E6.09844
G1 X149.998 Y174.587 E6.18943
G1 X150.649 Y174.184 E6.28043
G1 X151.364 Y173.907 E6.37142
G1 X152.117 Y173.766 E6.46241
G1 X152.883 Y173.766 E6.55340 F1800.000
G1 X153.636 Y173.907 E6.64439
G1 X154.351 Y174.184 E6.73538
G1 X155.002 Y174.587 E6.82637
G1 X155.568 Y175.103 E6.91736
G1 X156.030 Y175.715 E7.00836
G1 X156.371 Y176.401 E7.09935
G1 X156.581 Y177.137 E7.19034
G1 X156.652 Y177.900 E7.28133
G1 X156.581 Y178.663 E7.37232
G1 X156.371 Y179.400 E7.46331
G1 X156.051 Y180.043 E7.54855
G1 X155.570 Y180.696 E7.64493
G1 X155.002 Y181.213 E7.73620
G1 X154.402 Y181.585 E7.82006
G1 X154.314 Y182.015 F7800.000
G1 E5.82006 F2400.00000
G92 E0
G1 X156.745 Y175.805 F7800.000
G1 X156.481 Y174.228 F7800.000
G1 X156.001 Y173.908 F7800.000
G1 X155.544 Y173.818 F7800.000
G1 X155.187 Y173.779 F7800.000
G1 X155.126 Y173.605 F7800.000
G1 X154.420 Y173.069 F7800.000
G1 E2.00000 F2400.00000
G1 X153.884 Y172.990 E2.06432 F1800.000
G1 X153.180 Y172.847 E2.14971
G1 X152.500 Y172.801 E2.23064
G1 X151.820 Y172.847 E2.31156
G1 X151.116 Y172.990 E2.39695
G1 X150.580 Y173.069 E2.46127
G1 X150.003 Y173.014 E2.53008
G1 X149.489 Y172.834 E2.59470
G1 X148.973 Y172.508 E2.66723
G1 X148.576 Y172.082 E2.73639
G1 X148.311 Y171.607 E2.80102
G1 X148.141 Y171.021 E2.87355
G1 X148.126 Y170.439 E2.94271
G1 X148.242 Y169.907 E3.00737
G1 X148.508 Y169.350 E3.08060
G1 X148.882 Y168.907 E3.14947
G1 X149.322 Y168.587 E3.21410
G1 X149.868 Y168.355 E3.28454
G1 X150.918 Y168.127 E3.41219
G1 X151.971 Y168.014 E3.53792
G1 X153.029 Y168.014 E3.66366 F1800.000
G1 X154.082 Y168.127 E3.78940
G1 X155.130 Y168.355 E3.91673
G1 X155.651 Y168.568 E3.98365
G1 X156.119 Y168.908 E4.05237
G1 X156.504 Y169.372 E4.12396
G1 X156.750 Y169.873 E4.19027
G1 X156.875 Y170.441 E4.25938
G1 X156.850 Y171.052 E4.33192
G1 X156.706 Y171.576 E4.39654
G1 X156.424 Y172.082 E4.46534
G1 X156.029 Y172.506 E4.53415
G1 X155.544 Y172.823 E4.60295
G1 X154.997 Y173.014 E4.67176
G1 X154.480 Y173.063 E4.73344
G1 X154.198 Y173.402 F7800.000
G1 X157.578 Y174.857 F7800.000
G1 X157.894 Y174.372 E4.80224 F1800.000
G1 X158.318 Y173.977 E4.87104
G1 X158.826 Y173.693 E4.94020
G1 X159.417 Y173.540 E5.01271
G1 X159.961 Y173.526 E5.07733 F1800.000
G1 X160.527 Y173.650 E5.14613
G1 X161.047 Y173.906 E5.21493
G1 X161.490 Y174.279 E5.28373
G1 X161.831 Y174.747 E5.35253
G1 X162.046 Y175.271 E5.41971
G1 X162.273 Y176.318 E5.54705
G1 X162.386 Y177.371 E5.67279
G1 X162.386 Y178.430 E5.79853
G1 X162.273 Y179.482 E5.92427
G1 X162.046 Y180.530 E6.05161
G1 X161.832 Y181.054 E6.11879
G1 X161.490 Y181.522 E6.18759
G1 X161.047 Y181.895 E6.25639
G1 X160.527 Y182.151 E6.32519
G1 X159.961 Y182.275 E6.39399
G1 X159.382 Y182.260 E6.46279
G1 X158.821 Y182.106 E6.53195
G1 X158.292 Y181.800 E6.60446
G1 X157.894 Y181.429 E6.66908
G1 X157.578 Y180.944 E6.73788
G1 X157.386 Y180.397 E6.80668
G1 X157.331 Y179.821 E6.87548
G1 X157.410 Y179.285 E6.93979
G1 X157.554 Y178.580 E7.02518
G1 X157.599 Y177.900 E7.10611
G1 X157.554 Y177.220 E7.18703
G1 X157.410 Y176.516 E7.27243
G1 X157.331 Y175.980 E7.33674
G1 X157.386 Y175.404 E7.40554
G1 X157.558 Y174.913 E7.46721
G1 X157.369 Y174.516 F7800.000
G1 X156.745 Y175.805 F7800.000
G1 X156.492 Y174.336 F7800.000
G1 X160.987 Y168.215 F7800.000
G1 X156.063 Y158.860 F7800.000
G1 X143.869 Y169.269 F7800.000
G1 X147.414 Y172.815 F7800.000
G1 X148.524 Y174.190 F7800.000
G1 X148.372 Y175.215 F7800.000
G1 X148.347 Y175.314 F7800.000
G1 X148.341 Y175.340 F7800.000
G1 X148.255 Y175.805 F7800.000
G1 X147.652 Y175.803 F7800.000
G1 X147.669 Y175.980 E7.48837 F1800.000
G1 X147.590 Y176.516 E7.55268
G1 X147.446 Y177.220 E7.63808
G1 X147.401 Y177.900 E7.71900
G1 X147.447 Y178.583 E7.80032
G1 X147.672 Y179.790 E7.94611
G1 X147.614 Y180.397 E8.01852
G1 X147.422 Y180.944 E8.08732
G1 X147.104 Y181.432 E8.15648
G1 X146.652 Y181.841 E8.22899
G1 X146.176 Y182.107 E8.29361
G1 X145.618 Y182.260 E8.36241
G1 X145.039 Y182.275 E8.43121
G1 X144.473 Y182.151 E8.50001
G1 X143.953 Y181.895 E8.56880
G1 X143.510 Y181.522 E8.63760
G1 X143.168 Y181.054 E8.70640
G1 X142.954 Y180.530 E8.77358
G1 X142.727 Y179.482 E8.90093
G1 X142.614 Y178.430 E9.02667
G1 X142.614 Y177.371 E9.15241
G1 X142.727 Y176.318 E9.27814
G1 X142.954 Y175.271 E9.40549
G1 X143.168 Y174.747 E9.47267
G1 X143.510 Y174.279 E9.54147
G1 X143.955 Y173.904 E9.61063
G1 X144.507 Y173.643 E9.68314
G1 X145.039 Y173.526 E9.74776 F1800.000
G1 X145.618 Y173.541 E9.81656
G1 X146.176 Y173.694 E9.88536
G1 X146.682 Y173.977 E9.95416
G1 X147.106 Y174.372 E10.02296
G1 X147.422 Y174.857 E10.09176
G1 X147.614 Y175.404 E10.16056
G1 X147.646 Y175.743 E10.20107
G1 X147.814 Y175.877 F7800.000
G1 E8.20107 F2400.00000
G92 E0
G1 X154.631 Y182.149 F7800.000
G1 X156.818 Y182.218 F7800.000
G1 X157.455 Y182.855 F7800.000
G1 X157.586 Y182.986 F7800.000
G1 X157.586 Y182.986 F7800.000
G1 X158.119 Y183.519 F7800.000
G1 X157.957 Y183.350 F7800.000
G1 E2.00000 F2400.00000
G1 X159.172 Y183.683 E2.14967 F1800.000
G1 X160.098 Y183.707 E2.25967
G1 X161.003 Y183.509 E2.36966
G1 X161.833 Y183.099 E2.47965
G1 X162.542 Y182.503 E2.58965
G1 X163.088 Y181.755 E2.69964
G1 X163.415 Y180.955 E2.80224
G1 X163.685 Y179.711 E2.95349
G1 X163.706 Y179.520 E2.97629
G1 X164.111 Y179.542 E3.02453
G1 X164.111 Y187.765 E4.00120
G1 X157.254 Y187.763 E4.81562
G1 X157.699 Y187.234 E4.89777
G1 X158.108 Y186.403 E5.00777
G1 X158.307 Y185.498 E5.11776
G1 X158.284 Y184.618 E5.22229
G1 X157.972 Y183.408 E5.37075
G1 X160.323 Y185.723 F7800.000
G1 X155.369 Y188.300 F7800.000
G1 X153.061 Y188.486 F7800.000
G1 X148.890 Y188.157 F7800.000
G1 X144.677 Y185.723 F7800.000
G1 X146.101 Y184.299 F7800.000
G1 X146.691 Y183.709 F7800.000
G1 X146.881 Y183.519 F7800.000
G1 X146.881 Y183.519 F7800.000
G1 X147.053 Y183.347 F7800.000
G1 X146.717 Y184.572 E5.52160 F1800.000
G1 X146.693 Y185.498 E5.63160
G1 X146.892 Y186.403 E5.74159
G1 X147.301 Y187.234 E5.85158
G1 X147.744 Y187.760 E5.93328
G1 X140.889 Y187.758 E6.74742
G1 X140.888 Y179.537 E7.72380
G1 X141.294 Y179.515 E7.77204
G1 X141.315 Y179.711 E7.79540
G1 X141.585 Y180.955 E7.94666
G1 X141.912 Y181.755 E8.04926
G1 X142.458 Y182.503 E8.15925
G1 X143.167 Y183.099 E8.26924
G1 X143.997 Y183.509 E8.37924
G1 X144.902 Y183.707 E8.48923
G1 X145.828 Y183.683 E8.59923
G1 X146.995 Y183.363 E8.74296
G1 X142.982 Y185.342 F7800.000
G1 X141.233 Y180.958 F7800.000
G1 X141.037 Y178.462 F7800.000
G1 X141.040 Y177.234 F7800.000
G1 X141.100 Y176.111 F7800.000
G1 X141.293 Y176.288 F7800.000
G1 X140.888 Y176.266 E8.79120 F1800.000
G1 X140.884 Y117.243 E15.80110
G1 X164.113 Y117.251 E18.55989
G1 X164.111 Y176.260 E25.56809
G1 X163.706 Y176.281 E25.61633
G1 X163.685 Y176.090 E25.63920
G1 X163.415 Y174.845 E25.79046
G1 X163.088 Y174.046 E25.89306
G1 X162.542 Y173.297 E26.00305
G1 X161.833 Y172.701 E26.11304
G1 X161.002 Y172.292 E26.22304
G1 X160.098 Y172.094 E26.33303
G1 X159.218 Y172.117 E26.43756
G1 X157.950 Y172.444 E26.59313
G1 X158.271 Y171.272 E26.73740
G1 X158.309 Y170.315 E26.85115
G1 X158.108 Y169.399 E26.96256
G1 X157.712 Y168.590 E27.06951
G1 X157.104 Y167.858 E27.18258
G1 X156.351 Y167.311 E27.29307
G1 X155.555 Y166.985 E27.39529
G1 X154.311 Y166.715 E27.54649
G1 X153.106 Y166.586 E27.69039
G1 X151.894 Y166.586 E27.83429
G1 X150.689 Y166.715 E27.97820
G1 X149.434 Y166.988 E28.13081
G1 X148.613 Y167.336 E28.23667
G1 X147.902 Y167.854 E28.34122
G1 X147.297 Y168.569 E28.45240
G1 X146.882 Y169.441 E28.56702
G1 X146.694 Y170.302 E28.67176
G1 X146.718 Y171.241 E28.78338
G1 X147.070 Y172.458 E28.93383
G1 X145.828 Y172.118 E29.08681
G1 X144.902 Y172.094 E29.19681
G1 X144.042 Y172.282 E29.30133
G1 X143.177 Y172.692 E29.41504
G1 X142.458 Y173.297 E29.52669
G1 X141.912 Y174.046 E29.63668
G1 X141.585 Y174.845 E29.73928
G1 X141.315 Y176.090 E29.89054
G1 X141.300 Y176.228 E29.90707
G1 X142.982 Y170.458 F7800.000
G1 X146.993 Y172.394 F7800.000
G1 X148.554 Y173.954 F7800.000
G1 X148.499 Y174.403 F7800.000
G1 X148.363 Y175.259 F7800.000
G1 X148.347 Y175.314 F7800.000
G1 X148.341 Y175.340 F7800.000
G1 X148.351 Y175.349 F7800.000
G1 X148.068 Y174.539 E30.00900 F1800.000
G1 X147.656 Y173.909 E30.09839
G1 X147.106 Y173.395 E30.18779
G1 X146.449 Y173.028 E30.27719
G1 X145.723 Y172.829 E30.36658
G1 X144.970 Y172.810 E30.45598
G1 X144.275 Y172.962 E30.54055
G1 X143.566 Y173.298 E30.63366
G1 X142.984 Y173.788 E30.72407
G1 X142.540 Y174.396 E30.81346
G1 X142.270 Y175.058 E30.89835
G1 X142.021 Y176.204 E31.03765
G1 X141.899 Y177.333 E31.17247
G1 X141.899 Y178.468 E31.30729
G1 X142.021 Y179.597 E31.44212
G1 X142.270 Y180.743 E31.58141
G1 X142.540 Y181.404 E31.66631
G1 X142.984 Y182.013 E31.75570
G1 X143.560 Y182.497 E31.84510
G1 X144.235 Y182.830 E31.93450
G1 X144.970 Y182.991 E32.02389
G1 X145.723 Y182.971 E32.11329
G1 X146.449 Y182.772 E32.20268
G1 X147.071 Y182.425 E32.28726
G1 X147.652 Y181.899 E32.38037
G1 X148.068 Y181.262 E32.47077
G1 X148.351 Y180.452 E32.57270
G1 X148.902 Y181.181 E32.68117
G1 X149.566 Y181.786 E32.78788
G1 X149.976 Y182.040 E32.84512
G1 X149.139 Y182.332 E32.95043
G1 X148.508 Y182.744 E33.03982
G1 X147.995 Y183.294 E33.12922
G1 X147.628 Y183.952 E33.21861
G1 X147.429 Y184.677 E33.30801
G1 X147.410 Y185.430 E33.39741
G1 X147.571 Y186.165 E33.48680
G1 X147.903 Y186.840 E33.57620
G1 X148.388 Y187.417 E33.66559
G1 X148.963 Y187.836 E33.75017
G1 X149.657 Y188.132 E33.83979
G1 X149.587 Y188.475 E33.88134
G1 X140.175 Y188.472 E34.99923
G1 X140.169 Y116.951 E43.49345
G1 X140.187 Y116.781 E43.51372
G1 X140.269 Y116.601 E43.53725
G1 X140.515 Y116.529 E43.56770
G1 X164.827 Y116.537 E46.45507
G1 X164.831 Y188.117 E54.95633
G1 X164.780 Y188.416 E54.99229
G1 X164.577 Y188.468 E55.01720
G1 X164.438 Y188.480 E55.03379
G1 X155.410 Y188.477 E56.10604
G1 X155.342 Y188.131 E56.14789
G1 X156.004 Y187.860 E56.23288
G1 X156.612 Y187.417 E56.32228
G1 X157.097 Y186.841 E56.41168
G1 X157.429 Y186.165 E56.50107
G1 X157.590 Y185.430 E56.59047
G1 X157.572 Y184.718 E56.67504
G1 X157.376 Y183.959 E56.76815
G1 X157.005 Y183.294 E56.85856
G1 X156.492 Y182.744 E56.94795
G1 X155.861 Y182.332 E57.03735
G1 X155.024 Y182.040 E57.14266
G1 X155.434 Y181.786 E57.19989
G1 X156.103 Y181.176 E57.30737
G1 X156.645 Y180.441 E57.41583
G1 X156.932 Y181.262 E57.51909
G1 X157.344 Y181.892 E57.60848
G1 X157.864 Y182.378 E57.69306
G1 X158.543 Y182.770 E57.78617
G1 X159.277 Y182.971 E57.87657
G1 X160.030 Y182.991 E57.96597
G1 X160.765 Y182.830 E58.05537
G1 X161.440 Y182.497 E58.14476
G1 X162.016 Y182.013 E58.23416
G1 X162.460 Y181.404 E58.32355
G1 X162.730 Y180.743 E58.40845
G1 X162.979 Y179.597 E58.54774
G1 X163.101 Y178.468 E58.68257
G1 X163.101 Y177.333 E58.81739
G1 X162.979 Y176.204 E58.95221
G1 X162.730 Y175.058 E59.09150
G1 X162.460 Y174.396 E59.17640
G1 X162.016 Y173.788 E59.26579
G1 X161.440 Y173.304 E59.35519
G1 X160.765 Y172.971 E59.44459
G1 X160.030 Y172.810 E59.53398
G1 X159.318 Y172.828 E59.61855
G1 X158.559 Y173.024 E59.71167
G1 X157.894 Y173.395 E59.80207
G1 X157.344 Y173.909 E59.89147
G1 X156.932 Y174.539 E59.98086
G1 X156.649 Y175.349 E60.08279
G1 X156.098 Y174.620 E60.19126
G1 X155.434 Y174.015 E60.29797
G1 X155.024 Y173.761 E60.35520
G1 X155.862 Y173.468 E60.46053
G1 X156.492 Y173.057 E60.54994
G1 X157.005 Y172.506 E60.63935
G1 X157.372 Y171.849 E60.72874
G1 X157.560 Y171.162 E60.81333
G1 X157.592 Y170.378 E60.90646
G1 X157.429 Y169.636 E60.99672
G1 X157.108 Y168.981 E61.08336
G1 X156.612 Y168.383 E61.17568
G1 X156.001 Y167.939 E61.26530
G1 X155.342 Y167.670 E61.34986
G1 X154.196 Y167.421 E61.48913
G1 X153.068 Y167.300 E61.62395
G1 X151.932 Y167.300 E61.75877
G1 X150.804 Y167.421 E61.89359
G1 X149.651 Y167.672 E62.03371
G1 X148.967 Y167.961 E62.12187
G1 X148.392 Y168.381 E62.20646
G1 X147.903 Y168.960 E62.29649
G1 X147.562 Y169.674 E62.39041
G1 X147.410 Y170.370 E62.47511
G1 X147.429 Y171.131 E62.56550
G1 X147.648 Y171.884 E62.65864
G1 X147.995 Y172.506 E62.74322
