; generated by Slic3r 1.2.9 on 2018-04-15 at 15:11:01

; external perimeters extrusion width = 0.40mm
; perimeters extrusion width = 0.67mm
; infill extrusion width = 0.67mm
; solid infill extrusion width = 0.67mm
; top infill extrusion width = 0.67mm
; support material extrusion width = 0.40mm

M107
M190 S80 ; set bed temperature
M104 S210 ; set temperature
G28 ; home all axes
G1 Z5 F5000 ; lift nozzle

M109 S210 ; wait for temperature to be reached
G21 ; set units to millimeters
G90 ; use absolute coordinates
M82 ; use absolute distances for extrusion
G92 E0
G1 Z0.400 F7800.000
G1 E-2.00000 F2400.00000
G92 E0
G1 X133.625 Y121.251 F7800.000
G1 E2.00000 F2400.00000
G1 X134.561 Y120.257 E2.16213 F1800.000
G1 X135.644 Y119.469 E2.32117
G1 X136.586 Y118.995 E2.44644
G1 X137.517 Y118.673 E2.56346
G1 X137.997 Y118.558 E2.62206
G1 X138.887 Y118.428 E2.72886
G1 X139.646 Y118.391 E2.81918
G1 X165.564 Y118.394 E5.89733
G1 X166.145 Y118.429 E5.96639 F1800.000
G1 X166.689 Y118.499 E6.03161
G1 X167.205 Y118.600 E6.09396
G1 X168.037 Y118.848 E6.19708
G1 X168.848 Y119.192 E6.30171
G1 X169.038 Y119.290 E6.32711
G1 X169.989 Y119.892 E6.46083
G1 X171.030 Y120.839 E6.62792
G1 X171.827 Y121.902 E6.78576
G1 X172.410 Y123.064 E6.94010
G1 X172.681 Y123.871 E7.04119
G1 X172.796 Y124.350 E7.09974
G1 X172.926 Y125.240 E7.20658
G1 X172.962 Y126.000 E7.29689
G1 X172.962 Y179.000 E13.59146
G1 X172.925 Y179.791 E13.68553
G1 X172.854 Y180.336 E13.75076
G1 X172.757 Y180.835 E13.81114
G1 X172.597 Y181.414 E13.88243
G1 X172.505 Y181.683 E13.91627
G1 X172.161 Y182.495 E14.02095
G1 X172.064 Y182.684 E14.04626
G1 X171.462 Y183.636 E14.18001
G1 X170.514 Y184.676 E14.34710
G1 X169.451 Y185.473 E14.50494
G1 X168.414 Y186.005 E14.64335
G1 X167.414 Y186.345 E14.76881
G1 X167.003 Y186.442 E14.81897
G1 X166.113 Y186.572 E14.92576
G1 X165.354 Y186.609 E15.01608
G1 X139.646 Y186.609 E18.06921
G1 X138.714 Y186.560 E18.18010
G1 X137.919 Y186.422 E18.27589
G1 X137.272 Y186.252 E18.35539
G1 X136.212 Y185.837 E18.49057
G1 X135.503 Y185.444 E18.58686
G1 X134.319 Y184.522 E18.76506
G1 X133.810 Y183.978 E18.85357
G1 X132.941 Y182.690 E19.03807
G1 X132.858 Y182.529 E19.05961
G1 X132.624 Y182.028 E19.12531
G1 X132.302 Y181.056 E19.24691
G1 X132.227 Y180.745 E19.28491
G1 X132.085 Y179.895 E19.38722
G1 X132.039 Y179.228 E19.46663
G1 X132.038 Y126.000 E25.78828
G1 X132.072 Y125.244 E25.87815
G1 X132.146 Y124.664 E25.94757
G1 X132.246 Y124.149 E26.00987
G1 X132.404 Y123.583 E26.07962
G1 X132.495 Y123.317 E26.11307
G1 X132.890 Y122.404 E26.23115
G1 X133.589 Y121.298 E26.38654
G1 E24.38654 F2400.00000
G92 E0
G1 X157.957 Y157.950 F7800.000
G1 E2.00000 F2400.00000
G1 X158.284 Y159.218 E2.15558 F1800.000
G1 X158.307 Y160.098 E2.26011
G1 X158.108 Y161.003 E2.37010
G1 X157.699 Y161.833 E2.48009
G1 X157.103 Y162.542 E2.59009
G1 X156.355 Y163.088 E2.70008
G1 X155.555 Y163.415 E2.80268
G1 X154.311 Y163.685 E2.95393
G1 X153.106 Y163.815 E3.09784
G1 X151.894 Y163.815 E3.24174
G1 X150.689 Y163.685 E3.38564
G1 X149.445 Y163.415 E3.53690
G1 X148.645 Y163.088 E3.63950
G1 X147.897 Y162.542 E3.74949
G1 X147.301 Y161.833 E3.85948
G1 X146.892 Y161.003 E3.96948
G1 X146.693 Y160.098 E4.07947
G1 X146.717 Y159.172 E4.18947
G1 X147.053 Y157.947 E4.34032
G1 X145.828 Y158.283 E4.49118
G1 X144.902 Y158.307 E4.60118
G1 X143.997 Y158.108 E4.71117
G1 X143.167 Y157.699 E4.82116
G1 X142.458 Y157.103 E4.93116
G1 X141.912 Y156.355 E5.04115
G1 X141.585 Y155.555 E5.14375
G1 X141.315 Y154.311 E5.29500
G1 X141.185 Y153.106 E5.43891
G1 X141.185 Y151.894 E5.58281
G1 X141.315 Y150.689 E5.72672
G1 X141.585 Y149.445 E5.87797
G1 X141.912 Y148.645 E5.98057
G1 X142.458 Y147.897 E6.09056
G1 X143.177 Y147.292 E6.20221
G1 X144.042 Y146.882 E6.31592
G1 X144.902 Y146.693 E6.42044
G1 X145.828 Y146.717 E6.53044
G1 X147.053 Y147.053 E6.68130
G1 X146.714 Y145.815 E6.83381
G1 X146.703 Y144.857 E6.94752
G1 X146.892 Y143.997 E7.05205
G1 X147.301 Y143.167 E7.16204
G1 X147.897 Y142.458 E7.27203
G1 X148.645 Y141.912 E7.38203
G1 X149.445 Y141.585 E7.48463
G1 X150.689 Y141.315 E7.63588
G1 X151.894 Y141.185 E7.77978
G1 X153.106 Y141.185 E7.92369
G1 X154.311 Y141.315 E8.06759
G1 X155.555 Y141.585 E8.21884
G1 X156.355 Y141.912 E8.32144
G1 X157.103 Y142.458 E8.43144
G1 X157.699 Y143.167 E8.54143
G1 X158.108 Y143.997 E8.65142
G1 X158.307 Y144.902 E8.76142
G1 X158.283 Y145.828 E8.87141
G1 X157.950 Y147.043 E9.02108
G1 X159.218 Y146.716 E9.17666
G1 X160.098 Y146.693 E9.28119
G1 X161.003 Y146.892 E9.39118
G1 X161.833 Y147.301 E9.50117
G1 X162.542 Y147.897 E9.61117
G1 X163.088 Y148.645 E9.72116
G1 X163.415 Y149.445 E9.82376
G1 X163.685 Y150.689 E9.97501
G1 X163.815 Y151.894 E10.11892
G1 X163.815 Y153.106 E10.26282
G1 X163.685 Y154.311 E10.40672
G1 X163.415 Y155.555 E10.55797
G1 X163.088 Y156.355 E10.66058
G1 X162.542 Y157.103 E10.77057
G1 X161.833 Y157.699 E10.88056
G1 X161.003 Y158.108 E10.99056
G1 X160.098 Y158.307 E11.10055
G1 X159.172 Y158.283 E11.21054
G1 X158.014 Y157.965 E11.35309
G1 X156.644 Y155.038 F7800.000
G1 X156.241 Y155.613 E11.43649 F1800.000
G1 X155.631 Y156.228 E11.53934
G1 X155.038 Y156.644 E11.62544
G1 X155.861 Y156.932 E11.72910
G1 X156.492 Y157.344 E11.81850
G1 X157.005 Y157.894 E11.90789
G1 X157.376 Y158.559 E11.99829
G1 X157.572 Y159.318 E12.09141
G1 X157.590 Y160.030 E12.17598
G1 X157.429 Y160.765 E12.26538
G1 X157.097 Y161.440 E12.35477
G1 X156.612 Y162.016 E12.44417
G1 X156.004 Y162.460 E12.53357
G1 X155.342 Y162.730 E12.61846
G1 X154.196 Y162.979 E12.75776
G1 X153.068 Y163.101 E12.89258
G1 X151.932 Y163.101 E13.02740
G1 X150.804 Y162.979 E13.16222
G1 X149.658 Y162.730 E13.30152
G1 X148.996 Y162.460 E13.38641
G1 X148.388 Y162.016 E13.47580
G1 X147.903 Y161.440 E13.56520
G1 X147.571 Y160.765 E13.65460
G1 X147.410 Y160.030 E13.74399
G1 X147.429 Y159.277 E13.83339
G1 X147.628 Y158.551 E13.92278
G1 X147.995 Y157.894 E14.01218
G1 X148.508 Y157.344 E14.10158
G1 X149.139 Y156.932 E14.19097
G1 X149.962 Y156.644 E14.29463
G1 X149.371 Y156.229 E14.38043
G1 X148.771 Y155.629 E14.48121
G1 X148.356 Y155.038 E14.56701
G1 X148.068 Y155.861 E14.67067
G1 X147.656 Y156.492 E14.76006
G1 X147.106 Y157.005 E14.84946
G1 X146.449 Y157.372 E14.93886
G1 X145.723 Y157.571 E15.02825
G1 X144.970 Y157.590 E15.11765
G1 X144.235 Y157.429 E15.20705
G1 X143.560 Y157.097 E15.29644
G1 X142.984 Y156.612 E15.38584
G1 X142.540 Y156.004 E15.47523
G1 X142.270 Y155.342 E15.56013
G1 X142.021 Y154.196 E15.69942
G1 X141.899 Y153.068 E15.83425
G1 X141.899 Y151.932 E15.96907
G1 X142.021 Y150.804 E16.10389
G1 X142.270 Y149.658 E16.24319
G1 X142.540 Y148.996 E16.32808
G1 X142.984 Y148.388 E16.41747
G1 X143.566 Y147.898 E16.50788
G1 X144.275 Y147.562 E16.60099
G1 X144.970 Y147.410 E16.68556
G1 X145.723 Y147.429 E16.77496
G1 X146.449 Y147.628 E16.86435
G1 X147.106 Y147.995 E16.95375
G1 X147.656 Y148.508 E17.04315
G1 X148.068 Y149.139 E17.13254
G1 X148.356 Y149.962 E17.23620
G1 X148.742 Y149.411 E17.31610
G1 X149.366 Y148.774 E17.42199
G1 X149.962 Y148.356 E17.50851
G1 X149.139 Y148.068 E17.61216
G1 X148.508 Y147.656 E17.70166
G1 X147.993 Y147.103 E17.79138
G1 X147.628 Y146.449 E17.88034
G1 X147.427 Y145.715 E17.97075
G1 X147.418 Y144.931 E18.06386
G1 X147.571 Y144.235 E18.14843
G1 X147.903 Y143.560 E18.23783
G1 X148.388 Y142.984 E18.32722
G1 X148.996 Y142.540 E18.41662
G1 X149.658 Y142.270 E18.50151
G1 X150.804 Y142.021 E18.64081
G1 X151.932 Y141.899 E18.77563
G1 X153.068 Y141.899 E18.91045
G1 X154.196 Y142.021 E19.04527
G1 X155.342 Y142.270 E19.18457
G1 X156.004 Y142.540 E19.26946
G1 X156.612 Y142.984 E19.35886
G1 X157.097 Y143.560 E19.44826
G1 X157.429 Y144.235 E19.53765
G1 X157.590 Y144.970 E19.62705
G1 X157.571 Y145.723 E19.71644
G1 X157.372 Y146.449 E19.80584
G1 X157.005 Y147.106 E19.89524
G1 X156.492 Y147.656 E19.98463
G1 X155.861 Y148.068 E20.07403
G1 X155.038 Y148.356 E20.17768
G1 X155.629 Y148.771 E20.26348
G1 X156.229 Y149.371 E20.36427
G1 X156.641 Y149.958 E20.44950
G1 X156.954 Y149.105 E20.55751
G1 X157.344 Y148.508 E20.64209
G1 X157.894 Y147.995 E20.73148
G1 X158.559 Y147.624 E20.82189
G1 X159.318 Y147.428 E20.91500
G1 X160.030 Y147.410 E20.99957
G1 X160.765 Y147.571 E21.08897
G1 X161.440 Y147.903 E21.17836
G1 X162.016 Y148.388 E21.26776
G1 X162.460 Y148.996 E21.35716
G1 X162.730 Y149.658 E21.44205
G1 X162.979 Y150.804 E21.58135
G1 X163.101 Y151.932 E21.71617
G1 X163.101 Y153.068 E21.85099
G1 X162.979 Y154.196 E21.98581
G1 X162.730 Y155.342 E22.12511
G1 X162.460 Y156.004 E22.21000
G1 X162.016 Y156.612 E22.29939
G1 X161.440 Y157.097 E22.38879
G1 X160.765 Y157.429 E22.47819
G1 X160.030 Y157.590 E22.56758
G1 X159.277 Y157.571 E22.65698
G1 X158.551 Y157.372 E22.74638
G1 X157.894 Y157.005 E22.83577
G1 X157.344 Y156.492 E22.92517
G1 X156.932 Y155.861 E23.01456
G1 X156.664 Y155.094 E23.11109
G1 X155.544 Y157.578 F7800.000
G1 X156.029 Y157.894 E23.17989 F1800.000
G1 X156.424 Y158.318 E23.24869
G1 X156.708 Y158.826 E23.31785
G1 X156.860 Y159.417 E23.39037
G1 X156.874 Y159.961 E23.45499
G1 X156.750 Y160.527 E23.52379
G1 X156.494 Y161.047 E23.59258
G1 X156.121 Y161.490 E23.66138
G1 X155.653 Y161.832 E23.73018
G1 X155.130 Y162.046 E23.79736
G1 X154.082 Y162.273 E23.92471
G1 X153.029 Y162.386 E24.05045
G1 X151.971 Y162.386 E24.17619
G1 X150.918 Y162.273 E24.30192
G1 X149.870 Y162.046 E24.42927
G1 X149.347 Y161.832 E24.49645
G1 X148.879 Y161.490 E24.56525
G1 X148.506 Y161.047 E24.63405
G1 X148.250 Y160.527 E24.70285
G1 X148.126 Y159.961 E24.77165
G1 X148.141 Y159.382 E24.84044
G1 X148.294 Y158.824 E24.90924
G1 X148.576 Y158.318 E24.97804
G1 X148.971 Y157.894 E25.04684
G1 X149.456 Y157.578 E25.11564
G1 X150.003 Y157.386 E25.18444
G1 X150.580 Y157.331 E25.25324
G1 X151.116 Y157.410 E25.31755
G1 X151.820 Y157.554 E25.40294
G1 X152.500 Y157.599 E25.48387
G1 X153.180 Y157.554 E25.56485
G1 X153.917 Y157.406 E25.65405
G1 X154.420 Y157.331 E25.71449 F1800.000
G1 X154.997 Y157.386 E25.78329
G1 X155.487 Y157.558 E25.84496
G1 X155.885 Y157.369 F7800.000
G1 X154.576 Y156.095 F7800.000
G1 X153.920 Y156.401 E25.93091 F1800.000
G1 X153.221 Y156.588 E26.01685
G1 X152.500 Y156.652 E26.10280
G1 X151.779 Y156.588 E26.18875
G1 X151.080 Y156.401 E26.27469
G1 X150.424 Y156.095 E26.36064
G1 X149.831 Y155.680 E26.44658
G1 X149.320 Y155.169 E26.53253
G1 X148.905 Y154.576 E26.61847
G1 X148.599 Y153.920 E26.70442
G1 X148.412 Y153.221 E26.79036
G1 X148.348 Y152.500 E26.87631
G1 X148.412 Y151.779 E26.96225
G1 X148.599 Y151.080 E27.04820
G1 X148.905 Y150.424 E27.13415
G1 X149.293 Y149.869 E27.21466
G1 X149.830 Y149.321 E27.30570
G1 X150.424 Y148.905 E27.39191
G1 X151.080 Y148.599 E27.47785
G1 X151.779 Y148.412 E27.56380
G1 X152.500 Y148.348 E27.64975 F1800.000
G1 X153.221 Y148.412 E27.73569
G1 X153.920 Y148.599 E27.82164
G1 X154.576 Y148.905 E27.90758
G1 X155.169 Y149.320 E27.99353
G1 X155.680 Y149.831 E28.07947
G1 X156.095 Y150.424 E28.16542
G1 X156.401 Y151.080 E28.25136
G1 X156.588 Y151.779 E28.33731
G1 X156.652 Y152.500 E28.42325
G1 X156.588 Y153.221 E28.50920
G1 X156.401 Y153.920 E28.59515
G1 X156.095 Y154.576 E28.68109
G1 X155.691 Y155.153 E28.76484
G1 X155.169 Y155.680 E28.85284
G1 X154.625 Y156.061 E28.93177
G1 X154.564 Y156.495 F7800.000
G1 E26.93177 F2400.00000
G92 E0
G1 X156.746 Y150.399 F7800.000
G1 X156.471 Y148.821 F7800.000
G1 X155.998 Y148.499 F7800.000
G1 X155.831 Y148.466 F7800.000
G1 X155.187 Y148.377 F7800.000
G1 X155.126 Y148.204 F7800.000
G1 X154.420 Y147.669 F7800.000
G1 E2.00000 F2400.00000
G1 X153.884 Y147.590 E2.06431 F1800.000
G1 X153.180 Y147.446 E2.14970
G1 X152.500 Y147.401 E2.23063
G1 X151.820 Y147.446 E2.31156
G1 X151.116 Y147.590 E2.39695
G1 X150.577 Y147.669 E2.46162
G1 X149.970 Y147.602 E2.53413
G1 X149.456 Y147.422 E2.59875
G1 X148.971 Y147.106 E2.66759
G1 X148.575 Y146.680 E2.73672
G1 X148.294 Y146.176 E2.80514
G1 X148.140 Y145.615 E2.87430
G1 X148.133 Y145.004 E2.94682
G1 X148.250 Y144.473 E3.01144
G1 X148.506 Y143.953 E3.08023
G1 X148.879 Y143.510 E3.14903
G1 X149.347 Y143.168 E3.21783
G1 X149.870 Y142.954 E3.28501
G1 X150.918 Y142.727 E3.41236
G1 X151.971 Y142.614 E3.53810
G1 X153.029 Y142.614 E3.66383 F1800.000
G1 X154.082 Y142.727 E3.78957
G1 X155.130 Y142.954 E3.91692
G1 X155.653 Y143.168 E3.98410
G1 X156.121 Y143.510 E4.05290
G1 X156.494 Y143.953 E4.12170
G1 X156.750 Y144.473 E4.19050
G1 X156.874 Y145.039 E4.25930
G1 X156.859 Y145.618 E4.32809
G1 X156.706 Y146.176 E4.39689
G1 X156.424 Y146.682 E4.46569
G1 X156.029 Y147.106 E4.53449
G1 X155.544 Y147.422 E4.60329
G1 X154.997 Y147.614 E4.67209
G1 X154.480 Y147.663 E4.73376
G1 X154.198 Y148.001 F7800.000
G1 X157.597 Y149.427 F7800.000
G1 X157.894 Y148.971 E4.79838 F1800.000
G1 X158.318 Y148.576 E4.86718
G1 X158.826 Y148.292 E4.93634
G1 X159.417 Y148.140 E5.00885
G1 X159.961 Y148.126 E5.07347 F1800.000
G1 X160.527 Y148.250 E5.14227
G1 X161.047 Y148.506 E5.21107
G1 X161.490 Y148.879 E5.27987
G1 X161.832 Y149.347 E5.34867
G1 X162.046 Y149.870 E5.41585
G1 X162.273 Y150.918 E5.54320
G1 X162.386 Y151.971 E5.66893
G1 X162.386 Y153.029 E5.79467
G1 X162.273 Y154.082 E5.92041
G1 X162.046 Y155.130 E6.04775
G1 X161.832 Y155.653 E6.11494
G1 X161.490 Y156.121 E6.18374
G1 X161.047 Y156.494 E6.25253
G1 X160.527 Y156.750 E6.32133
G1 X159.961 Y156.874 E6.39013
G1 X159.382 Y156.859 E6.45893
G1 X158.824 Y156.706 E6.52773
G1 X158.318 Y156.424 E6.59653
G1 X157.894 Y156.029 E6.66533
G1 X157.578 Y155.544 E6.73413
G1 X157.386 Y154.997 E6.80293
G1 X157.331 Y154.420 E6.87172
G1 X157.410 Y153.884 E6.93604
G1 X157.554 Y153.180 E7.02143
G1 X157.599 Y152.500 E7.10235
G1 X157.554 Y151.820 E7.18328
G1 X157.410 Y151.116 E7.26867
G1 X157.331 Y150.580 E7.33298
G1 X157.386 Y150.000 E7.40214
G1 X157.576 Y149.483 E7.46753
G1 X157.390 Y149.085 F7800.000
G1 X156.746 Y150.399 F7800.000
G1 X156.444 Y148.556 F7800.000
G1 X160.733 Y144.267 F7800.000
G1 X151.939 Y134.059 F7800.000
G1 X143.930 Y142.427 F7800.000
G1 X147.414 Y147.414 F7800.000
G1 X148.499 Y149.002 F7800.000
G1 X148.377 Y149.813 F7800.000
G1 X148.311 Y150.073 F7800.000
G1 X148.308 Y150.088 F7800.000
G1 X148.254 Y150.399 F7800.000
G1 X147.649 Y150.375 F7800.000
G1 X147.669 Y150.580 E7.49196 F1800.000
G1 X147.590 Y151.116 E7.55627
G1 X147.446 Y151.820 E7.64166
G1 X147.401 Y152.500 E7.72259
G1 X147.446 Y153.180 E7.80352
G1 X147.590 Y153.884 E7.88891
G1 X147.669 Y154.420 E7.95322
G1 X147.614 Y154.997 E8.02202
G1 X147.422 Y155.544 E8.09082
G1 X147.106 Y156.029 E8.15962
G1 X146.682 Y156.424 E8.22842
G1 X146.176 Y156.706 E8.29721
G1 X145.618 Y156.859 E8.36601
G1 X145.039 Y156.874 E8.43481
G1 X144.473 Y156.750 E8.50361
G1 X143.953 Y156.494 E8.57241
G1 X143.510 Y156.121 E8.64121
G1 X143.168 Y155.653 E8.71001
G1 X142.954 Y155.130 E8.77719
G1 X142.727 Y154.082 E8.90453
G1 X142.614 Y153.029 E9.03027
G1 X142.614 Y151.971 E9.15601
G1 X142.727 Y150.918 E9.28175
G1 X142.954 Y149.870 E9.40909
G1 X143.168 Y149.347 E9.47628
G1 X143.510 Y148.879 E9.54507
G1 X143.955 Y148.504 E9.61423
G1 X144.507 Y148.242 E9.68675
G1 X145.039 Y148.126 E9.75137 F1800.000
G1 X145.618 Y148.141 E9.82017
G1 X146.176 Y148.294 E9.88897
G1 X146.682 Y148.576 E9.95776
G1 X147.106 Y148.971 E10.02656
G1 X147.422 Y149.456 E10.09536
G1 X147.614 Y150.003 E10.16416
G1 X147.644 Y150.315 E10.20141
G1 X147.836 Y150.461 F7800.000
G1 X140.580 Y126.934 F7800.000
G1 X164.420 Y126.935 E13.03274 F1800.000
G1 X164.420 Y178.066 E19.10533
G1 X140.579 Y178.066 E21.93679
G1 X140.580 Y126.994 E28.00242
G1 X139.866 Y126.220 F7800.000
G1 X165.134 Y126.221 E31.00339 F1800.000
G1 X165.134 Y178.780 E37.24561
G1 X139.865 Y178.780 E40.24670
G1 X139.866 Y126.280 E46.48197
G1 X139.200 Y125.695 F7800.000
G1 X139.270 Y125.584 E46.49750 F1800.000
G1 X139.486 Y125.517 E46.52435
G1 X139.660 Y125.505 E46.54510
G1 X165.382 Y125.507 E49.59994
G1 X165.669 Y125.559 E49.63460
G1 X165.740 Y125.604 E49.64458
G1 X165.791 Y125.674 E49.65490
G1 X165.835 Y125.825 E49.67361
G1 X165.848 Y126.013 E49.69601
G1 X165.848 Y178.980 E55.98658
G1 X165.822 Y179.237 E56.01731
G1 X165.730 Y179.416 E56.04114
G1 X165.514 Y179.483 E56.06799
G1 X165.340 Y179.495 E56.08874
G1 X139.568 Y179.495 E59.14954
G1 X139.260 Y179.423 E59.18707
G1 X139.197 Y179.300 E59.20349
