; generated by Slic3r 1.2.9 on 2018-04-23 at 23:27:38

; external perimeters extrusion width = 0.40mm
; perimeters extrusion width = 0.67mm
; infill extrusion width = 0.67mm
; solid infill extrusion width = 0.67mm
; top infill extrusion width = 0.67mm
; support material extrusion width = 0.40mm

M107
M190 S80 ; set bed temperature
M104 S210 ; set temperature
G28 ; home all axes
G1 Z5 F5000 ; lift nozzle

M109 S210 ; wait for temperature to be reached
G21 ; set units to millimeters
G90 ; use absolute coordinates
M82 ; use absolute distances for extrusion
G92 E0
G1 Z0.400 F7800.000
G1 E-2.00000 F2400.00000
G92 E0
G1 X133.863 Y109.061 F7800.000
G1 E2.00000 F2400.00000
G1 X134.900 Y107.949 E2.18060 F1800.000
G1 X137.009 Y106.701 E2.47157
G1 X137.259 Y106.610 E2.50317
G1 X139.077 Y106.219 E2.72404
G1 X139.596 Y106.198 E2.78582
G1 X165.370 Y106.199 E5.84679
G1 X166.222 Y106.252 E5.94817 F1800.000
G1 X167.545 Y106.542 E6.10905
G1 X167.697 Y106.592 E6.12808
G1 X169.604 Y107.577 E6.38300
G1 X169.793 Y107.716 E6.41084
G1 X170.854 Y108.696 E6.58234
G1 X170.904 Y108.754 E6.59147
G1 X172.152 Y110.862 E6.88248
G1 X172.244 Y111.112 E6.91406
G1 X172.635 Y112.930 E7.13494
G1 X172.655 Y113.449 E7.19660
G1 X172.666 Y190.593 E16.35868
G1 X172.641 Y191.179 E16.42825
G1 X172.558 Y191.949 E16.52024
G1 X172.453 Y192.490 E16.58574
G1 X172.302 Y193.092 E16.65945
G1 X172.061 Y193.791 E16.74721
G1 X171.872 Y194.233 E16.80434
G1 X171.210 Y195.384 E16.96209
G1 X170.702 Y196.036 E17.06016
G1 X169.297 Y197.319 E17.28614
G1 X168.801 Y197.632 E17.35579
G1 X168.333 Y197.891 E17.41938
G1 X167.028 Y198.415 E17.58633
G1 X166.121 Y198.647 E17.69751
G1 X165.326 Y198.762 E17.79290
G1 X164.456 Y198.808 E17.89642
G1 X140.572 Y198.803 E20.73304
G1 X139.726 Y198.755 E20.83359
G1 X139.313 Y198.703 E20.88305
G1 X138.195 Y198.454 E21.01908
G1 X137.260 Y198.121 E21.13694
G1 X136.023 Y197.460 E21.30360
G1 X135.736 Y197.266 E21.34472
G1 X135.153 Y196.823 E21.43171
G1 X134.108 Y195.716 E21.61245
G1 X133.850 Y195.369 E21.66382
G1 X133.136 Y194.147 E21.83184
G1 X132.764 Y193.185 E21.95446
G1 X132.655 Y192.849 E21.99631
G1 X132.404 Y191.569 E22.15130
G1 X132.360 Y190.993 E22.21986
G1 X132.346 Y190.500 E22.27843
G1 X132.345 Y113.484 E31.42527
G1 X132.399 Y112.632 E31.52666
G1 X132.688 Y111.309 E31.68755
G1 X132.738 Y111.156 E31.70659
G1 X133.723 Y109.249 E31.96149
G1 X133.827 Y109.109 E31.98222
G1 E29.98222 F2400.00000
G92 E0
G1 X156.807 Y188.243 F7800.000
G1 E2.00000 F2400.00000
G1 X156.570 Y188.824 E2.07452 F1800.000
G1 X156.191 Y189.324 E2.14903
G1 X155.696 Y189.708 E2.22355
G1 X155.132 Y189.946 E2.29620
G1 X154.082 Y190.174 E2.42379
G1 X153.029 Y190.287 E2.54953
G1 X151.971 Y190.287 E2.67527
G1 X150.918 Y190.174 E2.80100
G1 X149.868 Y189.946 E2.92859
G1 X149.304 Y189.708 E3.00124
G1 X148.809 Y189.324 E3.07576
G1 X148.430 Y188.824 E3.15028
G1 X148.193 Y188.243 E3.22479
G1 X148.119 Y187.658 E3.29479
G1 X148.199 Y187.002 E3.37330
G1 X148.443 Y186.420 E3.44821
G1 X148.828 Y185.925 E3.52273
G1 X149.328 Y185.545 E3.59725
G1 X149.909 Y185.309 E3.67176
G1 X150.531 Y185.230 E3.74628 F1800.000
G1 X151.114 Y185.310 E3.81606
G1 X151.820 Y185.454 E3.90169
G1 X152.500 Y185.499 E3.98262
G1 X153.180 Y185.454 E4.06355
G1 X153.886 Y185.310 E4.14918
G1 X154.431 Y185.235 E4.21443
G1 X155.088 Y185.307 E4.29295
G1 X155.672 Y185.545 E4.36786
G1 X156.172 Y185.925 E4.44238
G1 X156.557 Y186.420 E4.51690
G1 X156.800 Y186.999 E4.59141
G1 X156.886 Y187.620 E4.66593
G1 X156.815 Y188.183 E4.73332
G1 X157.079 Y188.536 F7800.000
G1 X156.597 Y185.494 F7800.000
G1 X156.433 Y184.333 F7800.000
G1 X155.338 Y184.494 F7800.000
G1 X154.930 Y184.592 F7800.000
G1 X154.877 Y184.518 F7800.000
G1 X154.576 Y183.996 F7800.000
G1 X153.858 Y184.324 E4.82706 F1800.000
G1 X153.091 Y184.510 E4.92080
G1 X152.302 Y184.547 E5.01455
G1 X151.521 Y184.435 E5.10829
G1 X150.775 Y184.177 E5.20203
G1 X150.092 Y183.782 E5.29578
G1 X149.495 Y183.265 E5.38952
G1 X149.007 Y182.645 E5.48326
G1 X148.646 Y181.943 E5.57700
G1 X148.423 Y181.186 E5.67075
G1 X148.348 Y180.400 E5.76449
G1 X148.423 Y179.615 E5.85823
G1 X148.646 Y178.857 E5.95197
G1 X149.007 Y178.156 E6.04572
G1 X149.495 Y177.535 E6.13946
G1 X150.092 Y177.018 E6.23320
G1 X150.775 Y176.624 E6.32695
G1 X151.521 Y176.366 E6.42069
G1 X152.253 Y176.260 E6.50850 F1800.000
G1 X153.089 Y176.290 E6.60779
G1 X153.858 Y176.477 E6.70182
G1 X154.576 Y176.805 E6.79556
G1 X155.219 Y177.263 E6.88931
G1 X155.764 Y177.834 E6.98305
G1 X156.190 Y178.498 E7.07679
G1 X156.484 Y179.231 E7.17053
G1 X156.633 Y180.006 E7.26428
G1 X156.633 Y180.795 E7.35802
G1 X156.484 Y181.570 E7.45176
G1 X156.190 Y182.303 E7.54550
G1 X155.764 Y182.967 E7.63925
G1 X155.219 Y183.538 E7.73299
G1 X154.625 Y183.961 E7.81961
G1 X154.563 Y184.396 F7800.000
G1 E5.81961 F2400.00000
G92 E0
G1 X156.746 Y178.270 F7800.000
G1 X156.553 Y177.160 F7800.000
G1 X156.188 Y176.426 F7800.000
G1 X155.921 Y176.375 F7800.000
G1 X155.490 Y176.325 F7800.000
G1 X155.369 Y176.028 F7800.000
G1 X154.501 Y175.567 F7800.000
G1 E2.00000 F2400.00000
G1 X153.889 Y175.491 E2.07319 F1800.000
G1 X153.180 Y175.347 E2.15913
G1 X152.500 Y175.301 E2.24006
G1 X151.820 Y175.347 E2.32098
G1 X151.114 Y175.490 E2.40660
G1 X150.532 Y175.571 E2.47633
G1 X149.882 Y175.482 E2.55429
G1 X149.336 Y175.259 E2.62431
G1 X148.837 Y174.885 E2.69838
G1 X148.452 Y174.394 E2.77251
G1 X148.205 Y173.819 E2.84681
G1 X148.115 Y173.166 E2.92508
G1 X148.197 Y172.546 E2.99935
G1 X148.431 Y171.976 E3.07253
G1 X148.794 Y171.494 E3.14418
G1 X149.307 Y171.091 E3.22174
G1 X149.868 Y170.855 E3.29401
G1 X150.918 Y170.627 E3.42157
G1 X151.971 Y170.514 E3.54731
G1 X153.029 Y170.514 E3.67305 F1800.000
G1 X154.082 Y170.627 E3.79878
G1 X155.132 Y170.855 E3.92635
G1 X155.691 Y171.090 E3.99838
G1 X156.184 Y171.470 E4.07238
G1 X156.576 Y171.987 E4.14937
G1 X156.803 Y172.546 E4.22108
G1 X156.885 Y173.166 E4.29530
G1 X156.795 Y173.819 E4.37357
G1 X156.548 Y174.394 E4.44787
G1 X156.163 Y174.885 E4.52200
G1 X155.664 Y175.260 E4.59614
G1 X155.085 Y175.493 E4.67024
G1 X154.560 Y175.560 E4.73311
G1 X154.287 Y175.905 F7800.000
G1 X157.645 Y177.228 F7800.000
G1 X158.024 Y176.728 E4.80763 F1800.000
G1 X158.520 Y176.344 E4.88214
G1 X159.098 Y176.100 E4.95666
G1 X159.682 Y176.020 E5.02665 F1800.000
G1 X160.339 Y176.092 E5.10517
G1 X160.923 Y176.330 E5.18008
G1 X161.423 Y176.709 E5.25459
G1 X161.808 Y177.205 E5.32911
G1 X162.045 Y177.769 E5.40176
G1 X162.273 Y178.818 E5.52935
G1 X162.386 Y179.871 E5.65509
G1 X162.386 Y180.930 E5.78083
G1 X162.273 Y181.982 E5.90657
G1 X162.045 Y183.032 E6.03415
G1 X161.808 Y183.596 E6.10681
G1 X161.423 Y184.092 E6.18132
G1 X160.923 Y184.471 E6.25584
G1 X160.342 Y184.708 E6.33036
G1 X159.720 Y184.786 E6.40487
G1 X159.098 Y184.700 E6.47939
G1 X158.555 Y184.472 E6.54938
G1 X158.026 Y184.075 E6.62790
G1 X157.645 Y183.572 E6.70281
G1 X157.408 Y182.991 E6.77732
G1 X157.330 Y182.369 E6.85184
G1 X157.410 Y181.787 E6.92163
G1 X157.554 Y181.080 E7.00726
G1 X157.599 Y180.400 E7.08818
G1 X157.554 Y179.720 E7.16911
G1 X157.410 Y179.014 E7.25474
G1 X157.330 Y178.432 E7.32452
G1 X157.408 Y177.809 E7.39904
G1 X157.622 Y177.284 E7.46643
G1 X157.458 Y176.875 F7800.000
G1 E5.46643 F2400.00000
G92 E0
G1 X156.746 Y178.270 F7800.000
G1 X156.566 Y177.250 F7800.000
G1 X156.362 Y176.455 F7800.000
G1 X156.045 Y176.396 F7800.000
G1 X155.614 Y176.807 F7800.000
G1 X147.670 Y178.432 F7800.000
G1 E2.00000 F2400.00000
G1 X147.590 Y179.014 E2.06978 F1800.000
G1 X147.446 Y179.720 E2.15541
G1 X147.401 Y180.400 E2.23634
G1 X147.446 Y181.080 E2.31727
G1 X147.590 Y181.787 E2.40290
G1 X147.670 Y182.369 E2.47268
G1 X147.592 Y182.991 E2.54720
G1 X147.355 Y183.572 E2.62171
G1 X146.976 Y184.072 E2.69623
G1 X146.480 Y184.457 E2.77075
G1 X145.902 Y184.700 E2.84526
G1 X145.280 Y184.786 E2.91978
G1 X144.658 Y184.708 E2.99430
G1 X144.077 Y184.471 E3.06881
G1 X143.577 Y184.092 E3.14333
G1 X143.192 Y183.596 E3.21785
G1 X142.955 Y183.032 E3.29050
G1 X142.727 Y181.982 E3.41809
G1 X142.614 Y180.930 E3.54382
G1 X142.614 Y179.871 E3.66956
G1 X142.727 Y178.818 E3.79530
G1 X142.955 Y177.769 E3.92289
G1 X143.192 Y177.205 E3.99554
G1 X143.577 Y176.709 E4.07006
G1 X144.077 Y176.330 E4.14457
G1 X144.658 Y176.093 E4.21909
G1 X145.242 Y176.020 E4.28908 F1800.000
G1 X145.899 Y176.099 E4.36760
G1 X146.480 Y176.344 E4.44251
G1 X146.976 Y176.728 E4.51703
G1 X147.355 Y177.228 E4.59154
G1 X147.592 Y177.809 E4.66606
G1 X147.663 Y178.372 E4.73345
G1 X148.006 Y178.649 F7800.000
G1 E2.73345 F2400.00000
G92 E0
G1 X154.604 Y184.643 F7800.000
G1 X156.467 Y184.367 F7800.000
G1 X157.158 Y185.059 F7800.000
G1 X157.718 Y185.619 F7800.000
G1 X157.718 Y185.619 F7800.000
G1 X157.878 Y185.778 F7800.000
G1 X157.806 Y185.706 F7800.000
G1 E2.00000 F2400.00000
G1 X158.717 Y186.090 E2.11744 F1800.000
G1 X159.712 Y186.227 E2.23662
G1 X160.707 Y186.101 E2.35581
G1 X161.637 Y185.722 E2.47499
G1 X162.436 Y185.116 E2.59417
G1 X163.051 Y184.323 E2.71335
G1 X163.413 Y183.464 E2.82402
G1 X163.728 Y182.013 E3.00048
G1 X164.111 Y182.054 E3.04620
G1 X164.111 Y190.266 E4.02148
G1 X157.271 Y190.263 E4.83384
G1 X157.822 Y189.537 E4.94210
G1 X158.201 Y188.608 E5.06129
G1 X158.326 Y187.612 E5.18047
G1 X158.190 Y186.618 E5.29965
G1 X157.829 Y185.762 E5.40997
G1 X161.883 Y188.029 F7800.000
G1 X163.766 Y183.463 F7800.000
G1 X163.963 Y180.962 F7800.000
G1 X163.960 Y179.734 F7800.000
G1 X163.900 Y178.611 F7800.000
G1 X163.728 Y178.788 F7800.000
G1 X163.413 Y177.336 E5.58640 F1800.000
G1 X163.051 Y176.477 E5.69707
G1 X162.436 Y175.685 E5.81626
G1 X161.637 Y175.078 E5.93544
G1 X160.693 Y174.694 E6.05641
G1 X159.662 Y174.581 E6.17960
G1 X158.717 Y174.711 E6.29286
G1 X157.801 Y175.096 E6.41094
G1 X158.183 Y174.205 E6.52616
G1 X158.326 Y173.170 E6.65018
G1 X158.196 Y172.177 E6.76913
G1 X157.827 Y171.274 E6.88496
G1 X157.208 Y170.456 E7.00688
G1 X156.416 Y169.845 E7.12569
G1 X155.563 Y169.487 E7.23548
G1 X154.311 Y169.215 E7.38772
G1 X153.106 Y169.086 E7.53162
G1 X151.894 Y169.086 E7.67552
G1 X150.689 Y169.215 E7.81943
G1 X149.437 Y169.487 E7.97167
G1 X148.576 Y169.848 E8.08253
G1 X147.766 Y170.486 E8.20500
G1 X147.179 Y171.262 E8.32054
G1 X146.805 Y172.175 E8.43773
G1 X146.674 Y173.170 E8.55694
G1 X146.817 Y174.205 E8.68096
G1 X147.199 Y175.096 E8.79618
G1 X146.269 Y174.705 E8.91606
G1 X145.239 Y174.580 E9.03924
G1 X144.293 Y174.700 E9.15250
G1 X143.364 Y175.078 E9.27168
G1 X142.564 Y175.685 E9.39087
G1 X141.949 Y176.477 E9.51005
G1 X141.587 Y177.336 E9.62072
G1 X141.315 Y178.590 E9.77307
G1 X141.294 Y178.781 E9.79590
G1 X140.889 Y178.759 E9.84414
G1 X140.888 Y114.742 E17.44712
G1 X164.110 Y114.741 E20.20518
G1 X164.111 Y178.747 E27.80681
G1 X163.788 Y178.782 E27.84540
G1 X162.623 Y186.842 F7800.000
G1 X157.080 Y190.339 F7800.000
G1 X155.374 Y190.800 F7800.000
G1 X153.061 Y190.986 F7800.000
G1 X148.826 Y190.641 F7800.000
G1 X144.771 Y188.129 F7800.000
G1 X146.250 Y186.651 F7800.000
G1 X146.522 Y186.378 F7800.000
G1 X147.122 Y185.778 F7800.000
G1 X147.122 Y185.778 F7800.000
G1 X147.194 Y185.706 F7800.000
G1 X146.805 Y186.632 E27.96464 F1800.000
G1 X146.680 Y187.661 E28.08782
G1 X146.799 Y188.608 E28.20108
G1 X147.178 Y189.537 E28.32026
G1 X147.726 Y190.260 E28.42806
G1 X140.889 Y190.258 E29.24013
G1 X140.889 Y182.042 E30.21587
G1 X141.294 Y182.020 E30.26410
G1 X141.315 Y182.211 E30.28687
G1 X141.587 Y183.464 E30.43922
G1 X141.949 Y184.323 E30.54989
G1 X142.564 Y185.116 E30.66908
G1 X143.364 Y185.722 E30.78826
G1 X144.293 Y186.101 E30.90744
G1 X145.288 Y186.227 E31.02662
G1 X146.283 Y186.090 E31.14581
G1 X147.139 Y185.730 E31.25612
G1 X149.884 Y184.548 F7800.000
G1 X148.971 Y184.920 E31.37320 F1800.000
G1 X148.322 Y185.412 E31.47005
G1 X147.821 Y186.057 E31.56690
G1 X147.502 Y186.817 E31.66484
G1 X147.400 Y187.660 E31.76570
G1 X147.496 Y188.425 E31.85732
G1 X147.804 Y189.180 E31.95417
G1 X148.297 Y189.830 E32.05102
G1 X148.941 Y190.330 E32.14787
G1 X149.656 Y190.631 E32.24002
G1 X149.586 Y190.975 E32.28167
G1 X140.574 Y190.972 E33.35203
G1 X140.449 Y190.956 E33.36701
G1 X140.264 Y190.898 E33.39005
G1 X140.193 Y190.708 E33.41416
G1 X140.175 Y190.458 E33.44385
G1 X140.173 Y114.028 E42.52110
G1 X164.825 Y114.027 E45.44879
G1 X164.831 Y190.617 E54.54503
G1 X164.781 Y190.913 E54.58062
G1 X164.575 Y190.968 E54.60587
G1 X164.416 Y190.980 E54.62488
G1 X155.409 Y190.977 E55.69463
G1 X155.339 Y190.633 E55.73626
G1 X156.059 Y190.330 E55.82903
G1 X156.703 Y189.830 E55.92589
G1 X157.196 Y189.180 E56.02273
G1 X157.504 Y188.425 E56.11958
G1 X157.606 Y187.616 E56.21643
G1 X157.495 Y186.808 E56.31328
G1 X157.179 Y186.057 E56.41013
G1 X156.678 Y185.412 E56.50698
G1 X156.029 Y184.920 E56.60383
G1 X155.063 Y184.526 E56.72771
G1 X155.689 Y184.080 E56.81895
G1 X156.327 Y183.410 E56.92889
G1 X156.621 Y182.953 E56.99347
G1 X157.019 Y183.929 E57.11865
G1 X157.518 Y184.586 E57.21659
G1 X158.197 Y185.096 E57.31745
G1 X158.908 Y185.395 E57.40907
G1 X159.716 Y185.506 E57.50592
G1 X160.525 Y185.404 E57.60277
G1 X161.280 Y185.097 E57.69962
G1 X161.930 Y184.604 E57.79647
G1 X162.430 Y183.960 E57.89332
G1 X162.729 Y183.248 E57.98498
G1 X162.979 Y182.097 E58.12495
G1 X163.101 Y180.968 E58.25978
G1 X163.101 Y179.833 E58.39460
G1 X162.979 Y178.704 E58.52942
G1 X162.729 Y177.552 E58.66939
G1 X162.430 Y176.841 E58.76105
G1 X161.930 Y176.197 E58.85790
G1 X161.280 Y175.704 E58.95475
G1 X160.516 Y175.393 E59.05269
G1 X159.672 Y175.300 E59.15354
G1 X158.908 Y175.406 E59.24517
G1 X158.156 Y175.722 E59.34202
G1 X157.512 Y176.222 E59.43887
G1 X157.019 Y176.872 E59.53572
G1 X156.621 Y177.848 E59.66090
G1 X156.327 Y177.390 E59.72547
G1 X155.689 Y176.720 E59.83541
G1 X155.061 Y176.273 E59.92693
G1 X156.018 Y175.887 E60.04953
G1 X156.667 Y175.399 E60.14589
G1 X157.168 Y174.761 E60.24226
G1 X157.489 Y174.012 E60.33909
G1 X157.606 Y173.168 E60.44024
G1 X157.499 Y172.362 E60.53682
G1 X157.201 Y171.631 E60.63059
G1 X156.696 Y170.963 E60.73004
G1 X156.053 Y170.467 E60.82645
G1 X155.347 Y170.171 E60.91736
G1 X154.196 Y169.921 E61.05726
G1 X153.068 Y169.800 E61.19208
G1 X151.932 Y169.800 E61.32690
G1 X150.804 Y169.921 E61.46172
G1 X149.653 Y170.171 E61.60162
G1 X148.942 Y170.469 E61.69318
G1 X148.280 Y170.990 E61.79320
G1 X147.805 Y171.619 E61.88680
G1 X147.501 Y172.361 E61.98198
G1 X147.394 Y173.168 E62.07872
G1 X147.511 Y174.012 E62.17987
G1 X147.832 Y174.761 E62.27670
G1 X148.333 Y175.399 E62.37306
G1 X148.981 Y175.886 E62.46922
G1 X149.884 Y176.254 E62.58503
G1 X148.976 Y177.040 E62.72766
G1 X148.366 Y177.816 E62.84490
G1 X147.981 Y176.872 E62.96604
G1 X147.488 Y176.222 E63.06289
G1 X146.844 Y175.722 E63.15974
G1 X146.084 Y175.402 E63.25768
G1 X145.241 Y175.300 E63.35853
G1 X144.475 Y175.396 E63.45016
G1 X143.720 Y175.704 E63.54701
G1 X143.070 Y176.197 E63.64386
G1 X142.570 Y176.841 E63.74071
G1 X142.271 Y177.552 E63.83237
G1 X142.021 Y178.704 E63.97234
G1 X141.899 Y179.833 E64.10716
G1 X141.899 Y180.968 E64.24198
G1 X142.021 Y182.097 E64.37680
G1 X142.271 Y183.248 E64.51677
G1 X142.570 Y183.960 E64.60844
G1 X143.070 Y184.604 E64.70529
G1 X143.720 Y185.097 E64.80214
G1 X144.475 Y185.404 E64.89898
G1 X145.284 Y185.506 E64.99583
G1 X146.092 Y185.395 E65.09268
G1 X146.844 Y185.079 E65.18953
G1 X147.488 Y184.579 E65.28638
G1 X147.981 Y183.929 E65.38323
G1 X148.366 Y182.985 E65.50437
G1 X148.976 Y183.761 E65.62161
G1 X149.839 Y184.508 E65.75722
G1 X147.282 Y185.619 F7800.000
G1 X144.688 Y188.212 F7800.000
G1 X149.572 Y190.792 F7800.000
G1 X153.072 Y190.986 F7800.000
G1 X156.174 Y190.641 F7800.000
G1 X160.859 Y188.178 F7800.000
G1 X164.420 Y190.567 F7800.000
G1 X164.459 Y190.607 F7800.000
G1 X164.469 Y190.619 F7800.000
G1 X164.471 Y191.092 F7800.000
G1 X165.464 Y191.126 F7800.000
G1 X165.403 Y191.271 E65.77584 F1800.000
G1 X165.251 Y191.462 E65.80480
G1 X165.040 Y191.582 E65.83369
G1 X164.696 Y191.675 E65.87600
G1 X164.443 Y191.694 E65.90619
G1 X140.530 Y191.686 E68.74620
G1 X140.296 Y191.657 E68.77413
G1 X140.091 Y191.592 E68.79969
G1 X139.977 Y191.546 E68.81429
G1 X139.779 Y191.412 E68.84269
G1 X139.611 Y191.193 E68.87550
G1 X139.489 Y190.861 E68.91745
G1 X139.460 Y190.485 E68.96225
G1 X139.459 Y113.533 E78.10146
